LutTests/Cube/1D/ARRI_linear2logc.cube
LUT_1D_SIZE 4096

0.000000 0.000000 0.000000
0.000000 0.000000 0.000000
0.000000 0.000000 0.000000
0.000000 0.000000 0.000000
0.000000 0.000000 0.000000
0.000000 0.000000 0.000000
0.000000 0.000000 0.000000
0.000000 0.000000 0.000000
0.000000 0.000000 0.000000
0.003922 0.003922 0.003922
0.016617 0.016617 0.016617
0.029313 0.029313 0.029313
0.042008 0.042008 0.042008
0.054704 0.054704 0.054704
0.067399 0.067399 0.067399
0.080095 0.080095 0.080095
0.092775 0.092775 0.092775
0.105470 0.105470 0.105470
0.118166 0.118166 0.118166
0.130846 0.130846 0.130846
0.142672 0.142672 0.142672
0.153399 0.153399 0.153399
0.163226 0.163226 0.163226
0.172274 0.172274 0.172274
0.180652 0.180652 0.180652
0.188479 0.188479 0.188479
0.195804 0.195804 0.195804
0.202701 0.202701 0.202701
0.209201 0.209201 0.209201
0.215351 0.215351 0.215351
0.221195 0.221195 0.221195
0.226749 0.226749 0.226749
0.232059 0.232059 0.232059
0.237140 0.237140 0.237140
0.241993 0.241993 0.241993
0.246662 0.246662 0.246662
0.251133 0.251133 0.251133
0.255451 0.255451 0.255451
0.259617 0.259617 0.259617
0.263630 0.263630 0.263630
0.267506 0.267506 0.267506
0.271260 0.271260 0.271260
0.274907 0.274907 0.274907
0.278431 0.278431 0.278431
0.281849 0.281849 0.281849
0.285176 0.285176 0.285176
0.288396 0.288396 0.288396
0.291539 0.291539 0.291539
0.294606 0.294606 0.294606
0.297581 0.297581 0.297581
0.300481 0.300481 0.300481
0.303319 0.303319 0.303319
0.306081 0.306081 0.306081
0.308782 0.308782 0.308782
0.311421 0.311421 0.311421
0.314000 0.314000 0.314000
0.316518 0.316518 0.316518
0.318990 0.318990 0.318990
0.321416 0.321416 0.321416
0.323781 0.323781 0.323781
0.326101 0.326101 0.326101
0.328374 0.328374 0.328374
0.330617 0.330617 0.330617
0.332799 0.332799 0.332799
0.334951 0.334951 0.334951
0.337057 0.337057 0.337057
0.339132 0.339132 0.339132
0.341161 0.341161 0.341161
0.343160 0.343160 0.343160
0.345129 0.345129 0.345129
0.347066 0.347066 0.347066
0.348959 0.348959 0.348959
0.350835 0.350835 0.350835
0.352667 0.352667 0.352667
0.354482 0.354482 0.354482
0.356268 0.356268 0.356268
0.358022 0.358022 0.358022
0.359747 0.359747 0.359747
0.361456 0.361456 0.361456
0.363134 0.363134 0.363134
0.364797 0.364797 0.364797
0.366430 0.366430 0.366430
0.368032 0.368032 0.368032
0.369619 0.369619 0.369619
0.371191 0.371191 0.371191
0.372732 0.372732 0.372732
0.374258 0.374258 0.374258
0.375769 0.375769 0.375769
0.377249 0.377249 0.377249
0.378714 0.378714 0.378714
0.380163 0.380163 0.380163
0.381598 0.381598 0.381598
0.383001 0.383001 0.383001
0.384405 0.384405 0.384405
0.385779 0.385779 0.385779
0.387137 0.387137 0.387137
0.388495 0.388495 0.388495
0.389822 0.389822 0.389822
0.391135 0.391135 0.391135
0.392432 0.392432 0.392432
0.393729 0.393729 0.393729
0.394995 0.394995 0.394995
0.396262 0.396262 0.396262
0.397498 0.397498 0.397498
0.398734 0.398734 0.398734
0.399954 0.399954 0.399954
0.401160 0.401160 0.401160
0.402350 0.402350 0.402350
0.403540 0.403540 0.403540
0.404700 0.404700 0.404700
0.405859 0.405859 0.405859
0.407004 0.407004 0.407004
0.408148 0.408148 0.408148
0.409262 0.409262 0.409262
0.410376 0.410376 0.410376
0.411490 0.411490 0.411490
0.412573 0.412573 0.412573
0.413657 0.413657 0.413657
0.414725 0.414725 0.414725
0.415793 0.415793 0.415793
0.416846 0.416846 0.416846
0.417884 0.417884 0.417884
0.418921 0.418921 0.418921
0.419944 0.419944 0.419944
0.420966 0.420966 0.420966
0.421973 0.421973 0.421973
0.422965 0.422965 0.422965
0.423957 0.423957 0.423957
0.424933 0.424933 0.424933
0.425910 0.425910 0.425910
0.426871 0.426871 0.426871
0.427832 0.427832 0.427832
0.428779 0.428779 0.428779
0.429725 0.429725 0.429725
0.430655 0.430655 0.430655
0.431571 0.431571 0.431571
0.432502 0.432502 0.432502
0.433402 0.433402 0.433402
0.434318 0.434318 0.434318
0.435203 0.435203 0.435203
0.436103 0.436103 0.436103
0.436988 0.436988 0.436988
0.437858 0.437858 0.437858
0.438727 0.438727 0.438727
0.439597 0.439597 0.439597
0.440452 0.440452 0.440452
0.441306 0.441306 0.441306
0.442145 0.442145 0.442145
0.442985 0.442985 0.442985
0.443824 0.443824 0.443824
0.444648 0.444648 0.444648
0.445457 0.445457 0.445457
0.446281 0.446281 0.446281
0.447089 0.447089 0.447089
0.447898 0.447898 0.447898
0.448692 0.448692 0.448692
0.449485 0.449485 0.449485
0.450263 0.450263 0.450263
0.451057 0.451057 0.451057
0.451820 0.451820 0.451820
0.452598 0.452598 0.452598
0.453361 0.453361 0.453361
0.454124 0.454124 0.454124
0.454887 0.454887 0.454887
0.455634 0.455634 0.455634
0.456382 0.456382 0.456382
0.457115 0.457115 0.457115
0.457862 0.457862 0.457862
0.458595 0.458595 0.458595
0.459312 0.459312 0.459312
0.460044 0.460044 0.460044
0.460761 0.460761 0.460761
0.461479 0.461479 0.461479
0.462181 0.462181 0.462181
0.462882 0.462882 0.462882
0.463584 0.463584 0.463584
0.464286 0.464286 0.464286
0.464973 0.464973 0.464973
0.465675 0.465675 0.465675
0.466346 0.466346 0.466346
0.467033 0.467033 0.467033
0.467704 0.467704 0.467704
0.468376 0.468376 0.468376
0.469047 0.469047 0.469047
0.469718 0.469718 0.469718
0.470375 0.470375 0.470375
0.471031 0.471031 0.471031
0.471687 0.471687 0.471687
0.472343 0.472343 0.472343
0.472984 0.472984 0.472984
0.473625 0.473625 0.473625
0.474266 0.474266 0.474266
0.474907 0.474907 0.474907
0.475532 0.475532 0.475532
0.476158 0.476158 0.476158
0.476783 0.476783 0.476783
0.477409 0.477409 0.477409
0.478019 0.478019 0.478019
0.478645 0.478645 0.478645
0.479255 0.479255 0.479255
0.479866 0.479866 0.479866
0.480461 0.480461 0.480461
0.481071 0.481071 0.481071
0.481666 0.481666 0.481666
0.482261 0.482261 0.482261
0.482856 0.482856 0.482856
0.483452 0.483452 0.483452
0.484031 0.484031 0.484031
0.484627 0.484627 0.484627
0.485206 0.485206 0.485206
0.485786 0.485786 0.485786
0.486351 0.486351 0.486351
0.486931 0.486931 0.486931
0.487495 0.487495 0.487495
0.488060 0.488060 0.488060
0.488624 0.488624 0.488624
0.489189 0.489189 0.489189
0.489754 0.489754 0.489754
0.490303 0.490303 0.490303
0.490852 0.490852 0.490852
0.491402 0.491402 0.491402
0.491951 0.491951 0.491951
0.492500 0.492500 0.492500
0.493050 0.493050 0.493050
0.493584 0.493584 0.493584
0.494118 0.494118 0.494118
0.494652 0.494652 0.494652
0.495186 0.495186 0.495186
0.495720 0.495720 0.495720
0.496254 0.496254 0.496254
0.496773 0.496773 0.496773
0.497307 0.497307 0.497307
0.497826 0.497826 0.497826
0.498344 0.498344 0.498344
0.498848 0.498848 0.498848
0.499367 0.499367 0.499367
0.499886 0.499886 0.499886
0.500389 0.500389 0.500389
0.500893 0.500893 0.500893
0.501396 0.501396 0.501396
0.501900 0.501900 0.501900
0.502403 0.502403 0.502403
0.502907 0.502907 0.502907
0.503395 0.503395 0.503395
0.503899 0.503899 0.503899
0.504387 0.504387 0.504387
0.504875 0.504875 0.504875
0.505364 0.505364 0.505364
0.505852 0.505852 0.505852
0.506340 0.506340 0.506340
0.506813 0.506813 0.506813
0.507301 0.507301 0.507301
0.507774 0.507774 0.507774
0.508248 0.508248 0.508248
0.508721 0.508721 0.508721
0.509194 0.509194 0.509194
0.509667 0.509667 0.509667
0.510140 0.510140 0.510140
0.510597 0.510597 0.510597
0.511070 0.511070 0.511070
0.511528 0.511528 0.511528
0.511986 0.511986 0.511986
0.512444 0.512444 0.512444
0.512902 0.512902 0.512902
0.513359 0.513359 0.513359
0.513817 0.513817 0.513817
0.514260 0.514260 0.514260
0.514717 0.514717 0.514717
0.515160 0.515160 0.515160
0.515602 0.515602 0.515602
0.516060 0.516060 0.516060
0.516503 0.516503 0.516503
0.516930 0.516930 0.516930
0.517372 0.517372 0.517372
0.517815 0.517815 0.517815
0.518257 0.518257 0.518257
0.518685 0.518685 0.518685
0.519112 0.519112 0.519112
0.519554 0.519554 0.519554
0.519982 0.519982 0.519982
0.520409 0.520409 0.520409
0.520836 0.520836 0.520836
0.521263 0.521263 0.521263
0.521691 0.521691 0.521691
0.522103 0.522103 0.522103
0.522530 0.522530 0.522530
0.522942 0.522942 0.522942
0.523369 0.523369 0.523369
0.523781 0.523781 0.523781
0.524193 0.524193 0.524193
0.524605 0.524605 0.524605
0.525017 0.525017 0.525017
0.525429 0.525429 0.525429
0.525841 0.525841 0.525841
0.526238 0.526238 0.526238
0.526650 0.526650 0.526650
0.527047 0.527047 0.527047
0.527459 0.527459 0.527459
0.527855 0.527855 0.527855
0.528252 0.528252 0.528252
0.528649 0.528649 0.528649
0.529046 0.529046 0.529046
0.529442 0.529442 0.529442
0.529839 0.529839 0.529839
0.530236 0.530236 0.530236
0.530632 0.530632 0.530632
0.531014 0.531014 0.531014
0.531411 0.531411 0.531411
0.531792 0.531792 0.531792
0.532189 0.532189 0.532189
0.532570 0.532570 0.532570
0.532952 0.532952 0.532952
0.533333 0.533333 0.533333
0.533715 0.533715 0.533715
0.534096 0.534096 0.534096
0.534478 0.534478 0.534478
0.534859 0.534859 0.534859
0.535225 0.535225 0.535225
0.535607 0.535607 0.535607
0.535973 0.535973 0.535973
0.536355 0.536355 0.536355
0.536721 0.536721 0.536721
0.537102 0.537102 0.537102
0.537469 0.537469 0.537469
0.537835 0.537835 0.537835
0.538201 0.538201 0.538201
0.538567 0.538567 0.538567
0.538933 0.538933 0.538933
0.539300 0.539300 0.539300
0.539651 0.539651 0.539651
0.540017 0.540017 0.540017
0.540383 0.540383 0.540383
0.540734 0.540734 0.540734
0.541100 0.541100 0.541100
0.541451 0.541451 0.541451
0.541802 0.541802 0.541802
0.542168 0.542168 0.542168
0.542519 0.542519 0.542519
0.542870 0.542870 0.542870
0.543221 0.543221 0.543221
0.543572 0.543572 0.543572
0.543923 0.543923 0.543923
0.544274 0.544274 0.544274
0.544610 0.544610 0.544610
0.544961 0.544961 0.544961
0.545312 0.545312 0.545312
0.545647 0.545647 0.545647
0.545998 0.545998 0.545998
0.546334 0.546334 0.546334
0.546670 0.546670 0.546670
0.547021 0.547021 0.547021
0.547356 0.547356 0.547356
0.547692 0.547692 0.547692
0.548028 0.548028 0.548028
0.548363 0.548363 0.548363
0.548699 0.548699 0.548699
0.549035 0.549035 0.549035
0.549371 0.549371 0.549371
0.549706 0.549706 0.549706
0.550027 0.550027 0.550027
0.550362 0.550362 0.550362
0.550698 0.550698 0.550698
0.551019 0.551019 0.551019
0.551354 0.551354 0.551354
0.551675 0.551675 0.551675
0.551995 0.551995 0.551995
0.552331 0.552331 0.552331
0.552651 0.552651 0.552651
0.552972 0.552972 0.552972
0.553292 0.553292 0.553292
0.553613 0.553613 0.553613
0.553933 0.553933 0.553933
0.554253 0.554253 0.554253
0.554574 0.554574 0.554574
0.554894 0.554894 0.554894
0.555200 0.555200 0.555200
0.555520 0.555520 0.555520
0.555840 0.555840 0.555840
0.556146 0.556146 0.556146
0.556466 0.556466 0.556466
0.556771 0.556771 0.556771
0.557092 0.557092 0.557092
0.557397 0.557397 0.557397
0.557702 0.557702 0.557702
0.558022 0.558022 0.558022
0.558328 0.558328 0.558328
0.558633 0.558633 0.558633
0.558938 0.558938 0.558938
0.559243 0.559243 0.559243
0.559548 0.559548 0.559548
0.559854 0.559854 0.559854
0.560159 0.560159 0.560159
0.560464 0.560464 0.560464
0.560769 0.560769 0.560769
0.561059 0.561059 0.561059
0.561364 0.561364 0.561364
0.561669 0.561669 0.561669
0.561959 0.561959 0.561959
0.562264 0.562264 0.562264
0.562554 0.562554 0.562554
0.562860 0.562860 0.562860
0.563149 0.563149 0.563149
0.563439 0.563439 0.563439
0.563745 0.563745 0.563745
0.564034 0.564034 0.564034
0.564324 0.564324 0.564324
0.564614 0.564614 0.564614
0.564904 0.564904 0.564904
0.565194 0.565194 0.565194
0.565484 0.565484 0.565484
0.565774 0.565774 0.565774
0.566064 0.566064 0.566064
0.566354 0.566354 0.566354
0.566644 0.566644 0.566644
0.566918 0.566918 0.566918
0.567208 0.567208 0.567208
0.567498 0.567498 0.567498
0.567773 0.567773 0.567773
0.568063 0.568063 0.568063
0.568353 0.568353 0.568353
0.568627 0.568627 0.568627
0.568902 0.568902 0.568902
0.569192 0.569192 0.569192
0.569467 0.569467 0.569467
0.569741 0.569741 0.569741
0.570031 0.570031 0.570031
0.570306 0.570306 0.570306
0.570581 0.570581 0.570581
0.570855 0.570855 0.570855
0.571130 0.571130 0.571130
0.571405 0.571405 0.571405
0.571679 0.571679 0.571679
0.571954 0.571954 0.571954
0.572229 0.572229 0.572229
0.572503 0.572503 0.572503
0.572778 0.572778 0.572778
0.573053 0.573053 0.573053
0.573312 0.573312 0.573312
0.573587 0.573587 0.573587
0.573861 0.573861 0.573861
0.574121 0.574121 0.574121
0.574395 0.574395 0.574395
0.574655 0.574655 0.574655
0.574929 0.574929 0.574929
0.575189 0.575189 0.575189
0.575463 0.575463 0.575463
0.575723 0.575723 0.575723
0.575998 0.575998 0.575998
0.576257 0.576257 0.576257
0.576516 0.576516 0.576516
0.576776 0.576776 0.576776
0.577035 0.577035 0.577035
0.577310 0.577310 0.577310
0.577569 0.577569 0.577569
0.577829 0.577829 0.577829
0.578088 0.578088 0.578088
0.578347 0.578347 0.578347
0.578607 0.578607 0.578607
0.578866 0.578866 0.578866
0.579110 0.579110 0.579110
0.579370 0.579370 0.579370
0.579629 0.579629 0.579629
0.579889 0.579889 0.579889
0.580148 0.580148 0.580148
0.580392 0.580392 0.580392
0.580652 0.580652 0.580652
0.580911 0.580911 0.580911
0.581155 0.581155 0.581155
0.581415 0.581415 0.581415
0.581659 0.581659 0.581659
0.581918 0.581918 0.581918
0.582162 0.582162 0.582162
0.582406 0.582406 0.582406
0.582666 0.582666 0.582666
0.582910 0.582910 0.582910
0.583154 0.583154 0.583154
0.583413 0.583413 0.583413
0.583658 0.583658 0.583658
0.583902 0.583902 0.583902
0.584146 0.584146 0.584146
0.584390 0.584390 0.584390
0.584634 0.584634 0.584634
0.584878 0.584878 0.584878
0.585122 0.585122 0.585122
0.585367 0.585367 0.585367
0.585611 0.585611 0.585611
0.585855 0.585855 0.585855
0.586099 0.586099 0.586099
0.586343 0.586343 0.586343
0.586587 0.586587 0.586587
0.586831 0.586831 0.586831
0.587060 0.587060 0.587060
0.587304 0.587304 0.587304
0.587549 0.587549 0.587549
0.587778 0.587778 0.587778
0.588022 0.588022 0.588022
0.588266 0.588266 0.588266
0.588495 0.588495 0.588495
0.588739 0.588739 0.588739
0.588968 0.588968 0.588968
0.589212 0.589212 0.589212
0.589441 0.589441 0.589441
0.589670 0.589670 0.589670
0.589914 0.589914 0.589914
0.590143 0.590143 0.590143
0.590372 0.590372 0.590372
0.590616 0.590616 0.590616
0.590845 0.590845 0.590845
0.591073 0.591073 0.591073
0.591302 0.591302 0.591302
0.591547 0.591547 0.591547
0.591775 0.591775 0.591775
0.592004 0.592004 0.592004
0.592233 0.592233 0.592233
0.592462 0.592462 0.592462
0.592691 0.592691 0.592691
0.592920 0.592920 0.592920
0.593149 0.593149 0.593149
0.593378 0.593378 0.593378
0.593606 0.593606 0.593606
0.593820 0.593820 0.593820
0.594049 0.594049 0.594049
0.594278 0.594278 0.594278
0.594507 0.594507 0.594507
0.594720 0.594720 0.594720
0.594949 0.594949 0.594949
0.595178 0.595178 0.595178
0.595407 0.595407 0.595407
0.595621 0.595621 0.595621
0.595850 0.595850 0.595850
0.596063 0.596063 0.596063
0.596292 0.596292 0.596292
0.596506 0.596506 0.596506
0.596735 0.596735 0.596735
0.596948 0.596948 0.596948
0.597177 0.597177 0.597177
0.597391 0.597391 0.597391
0.597604 0.597604 0.597604
0.597833 0.597833 0.597833
0.598047 0.598047 0.598047
0.598260 0.598260 0.598260
0.598489 0.598489 0.598489
0.598703 0.598703 0.598703
0.598917 0.598917 0.598917
0.599130 0.599130 0.599130
0.599359 0.599359 0.599359
0.599573 0.599573 0.599573
0.599786 0.599786 0.599786
0.600000 0.600000 0.600000
0.600214 0.600214 0.600214
0.600427 0.600427 0.600427
0.600641 0.600641 0.600641
0.600855 0.600855 0.600855
0.601068 0.601068 0.601068
0.601282 0.601282 0.601282
0.601495 0.601495 0.601495
0.601709 0.601709 0.601709
0.601907 0.601907 0.601907
0.602121 0.602121 0.602121
0.602335 0.602335 0.602335
0.602548 0.602548 0.602548
0.602747 0.602747 0.602747
0.602960 0.602960 0.602960
0.603174 0.603174 0.603174
0.603388 0.603388 0.603388
0.603586 0.603586 0.603586
0.603799 0.603799 0.603799
0.603998 0.603998 0.603998
0.604211 0.604211 0.604211
0.604425 0.604425 0.604425
0.604623 0.604623 0.604623
0.604837 0.604837 0.604837
0.605035 0.605035 0.605035
0.605249 0.605249 0.605249
0.605447 0.605447 0.605447
0.605646 0.605646 0.605646
0.605859 0.605859 0.605859
0.606058 0.606058 0.606058
0.606256 0.606256 0.606256
0.606470 0.606470 0.606470
0.606668 0.606668 0.606668
0.606867 0.606867 0.606867
0.607080 0.607080 0.607080
0.607279 0.607279 0.607279
0.607477 0.607477 0.607477
0.607675 0.607675 0.607675
0.607874 0.607874 0.607874
0.608072 0.608072 0.608072
0.608286 0.608286 0.608286
0.608484 0.608484 0.608484
0.608682 0.608682 0.608682
0.608881 0.608881 0.608881
0.609079 0.609079 0.609079
0.609277 0.609277 0.609277
0.609476 0.609476 0.609476
0.609674 0.609674 0.609674
0.609873 0.609873 0.609873
0.610056 0.610056 0.610056
0.610254 0.610254 0.610254
0.610452 0.610452 0.610452
0.610651 0.610651 0.610651
0.610849 0.610849 0.610849
0.611048 0.611048 0.611048
0.611231 0.611231 0.611231
0.611429 0.611429 0.611429
0.611627 0.611627 0.611627
0.611826 0.611826 0.611826
0.612009 0.612009 0.612009
0.612207 0.612207 0.612207
0.612406 0.612406 0.612406
0.612589 0.612589 0.612589
0.612787 0.612787 0.612787
0.612970 0.612970 0.612970
0.613169 0.613169 0.613169
0.613352 0.613352 0.613352
0.613550 0.613550 0.613550
0.613733 0.613733 0.613733
0.613931 0.613931 0.613931
0.614115 0.614115 0.614115
0.614313 0.614313 0.614313
0.614496 0.614496 0.614496
0.614694 0.614694 0.614694
0.614878 0.614878 0.614878
0.615061 0.615061 0.615061
0.615259 0.615259 0.615259
0.615442 0.615442 0.615442
0.615625 0.615625 0.615625
0.615824 0.615824 0.615824
0.616007 0.616007 0.616007
0.616190 0.616190 0.616190
0.616373 0.616373 0.616373
0.616571 0.616571 0.616571
0.616754 0.616754 0.616754
0.616938 0.616938 0.616938
0.617121 0.617121 0.617121
0.617304 0.617304 0.617304
0.617487 0.617487 0.617487
0.617670 0.617670 0.617670
0.617853 0.617853 0.617853
0.618036 0.618036 0.618036
0.618219 0.618219 0.618219
0.618402 0.618402 0.618402
0.618585 0.618585 0.618585
0.618769 0.618769 0.618769
0.618952 0.618952 0.618952
0.619135 0.619135 0.619135
0.619318 0.619318 0.619318
0.619501 0.619501 0.619501
0.619684 0.619684 0.619684
0.619867 0.619867 0.619867
0.620050 0.620050 0.620050
0.620218 0.620218 0.620218
0.620401 0.620401 0.620401
0.620584 0.620584 0.620584
0.620768 0.620768 0.620768
0.620935 0.620935 0.620935
0.621118 0.621118 0.621118
0.621302 0.621302 0.621302
0.621485 0.621485 0.621485
0.621653 0.621653 0.621653
0.621836 0.621836 0.621836
0.622019 0.622019 0.622019
0.622187 0.622187 0.622187
0.622370 0.622370 0.622370
0.622538 0.622538 0.622538
0.622721 0.622721 0.622721
0.622889 0.622889 0.622889
0.623072 0.623072 0.623072
0.623239 0.623239 0.623239
0.623423 0.623423 0.623423
0.623590 0.623590 0.623590
0.623774 0.623774 0.623774
0.623941 0.623941 0.623941
0.624125 0.624125 0.624125
0.624292 0.624292 0.624292
0.624475 0.624475 0.624475
0.624643 0.624643 0.624643
0.624811 0.624811 0.624811
0.624994 0.624994 0.624994
0.625162 0.625162 0.625162
0.625330 0.625330 0.625330
0.625513 0.625513 0.625513
0.625681 0.625681 0.625681
0.625849 0.625849 0.625849
0.626017 0.626017 0.626017
0.626200 0.626200 0.626200
0.626368 0.626368 0.626368
0.626535 0.626535 0.626535
0.626703 0.626703 0.626703
0.626871 0.626871 0.626871
0.627039 0.627039 0.627039
0.627222 0.627222 0.627222
0.627390 0.627390 0.627390
0.627558 0.627558 0.627558
0.627726 0.627726 0.627726
0.627893 0.627893 0.627893
0.628061 0.628061 0.628061
0.628229 0.628229 0.628229
0.628397 0.628397 0.628397
0.628565 0.628565 0.628565
0.628733 0.628733 0.628733
0.628901 0.628901 0.628901
0.629068 0.629068 0.629068
0.629236 0.629236 0.629236
0.629404 0.629404 0.629404
0.629572 0.629572 0.629572
0.629725 0.629725 0.629725
0.629892 0.629892 0.629892
0.630060 0.630060 0.630060
0.630228 0.630228 0.630228
0.630396 0.630396 0.630396
0.630564 0.630564 0.630564
0.630716 0.630716 0.630716
0.630884 0.630884 0.630884
0.631052 0.631052 0.631052
0.631220 0.631220 0.631220
0.631373 0.631373 0.631373
0.631540 0.631540 0.631540
0.631708 0.631708 0.631708
0.631861 0.631861 0.631861
0.632029 0.632029 0.632029
0.632197 0.632197 0.632197
0.632349 0.632349 0.632349
0.632517 0.632517 0.632517
0.632685 0.632685 0.632685
0.632837 0.632837 0.632837
0.633005 0.633005 0.633005
0.633158 0.633158 0.633158
0.633326 0.633326 0.633326
0.633478 0.633478 0.633478
0.633646 0.633646 0.633646
0.633799 0.633799 0.633799
0.633967 0.633967 0.633967
0.634119 0.634119 0.634119
0.634287 0.634287 0.634287
0.634440 0.634440 0.634440
0.634607 0.634607 0.634607
0.634760 0.634760 0.634760
0.634928 0.634928 0.634928
0.635080 0.635080 0.635080
0.635233 0.635233 0.635233
0.635401 0.635401 0.635401
0.635554 0.635554 0.635554
0.635706 0.635706 0.635706
0.635874 0.635874 0.635874
0.636027 0.636027 0.636027
0.636179 0.636179 0.636179
0.636347 0.636347 0.636347
0.636500 0.636500 0.636500
0.636652 0.636652 0.636652
0.636805 0.636805 0.636805
0.636973 0.636973 0.636973
0.637125 0.637125 0.637125
0.637278 0.637278 0.637278
0.637430 0.637430 0.637430
0.637583 0.637583 0.637583
0.637736 0.637736 0.637736
0.637903 0.637903 0.637903
0.638056 0.638056 0.638056
0.638209 0.638209 0.638209
0.638361 0.638361 0.638361
0.638514 0.638514 0.638514
0.638666 0.638666 0.638666
0.638819 0.638819 0.638819
0.638972 0.638972 0.638972
0.639124 0.639124 0.639124
0.639277 0.639277 0.639277
0.639429 0.639429 0.639429
0.639582 0.639582 0.639582
0.639734 0.639734 0.639734
0.639887 0.639887 0.639887
0.640040 0.640040 0.640040
0.640192 0.640192 0.640192
0.640345 0.640345 0.640345
0.640497 0.640497 0.640497
0.640650 0.640650 0.640650
0.640803 0.640803 0.640803
0.640955 0.640955 0.640955
0.641093 0.641093 0.641093
0.641245 0.641245 0.641245
0.641398 0.641398 0.641398
0.641550 0.641550 0.641550
0.641703 0.641703 0.641703
0.641855 0.641855 0.641855
0.641993 0.641993 0.641993
0.642145 0.642145 0.642145
0.642298 0.642298 0.642298
0.642451 0.642451 0.642451
0.642588 0.642588 0.642588
0.642741 0.642741 0.642741
0.642893 0.642893 0.642893
0.643030 0.643030 0.643030
0.643183 0.643183 0.643183
0.643336 0.643336 0.643336
0.643473 0.643473 0.643473
0.643626 0.643626 0.643626
0.643778 0.643778 0.643778
0.643915 0.643915 0.643915
0.644068 0.644068 0.644068
0.644221 0.644221 0.644221
0.644358 0.644358 0.644358
0.644511 0.644511 0.644511
0.644648 0.644648 0.644648
0.644800 0.644800 0.644800
0.644938 0.644938 0.644938
0.645090 0.645090 0.645090
0.645228 0.645228 0.645228
0.645380 0.645380 0.645380
0.645518 0.645518 0.645518
0.645670 0.645670 0.645670
0.645808 0.645808 0.645808
0.645960 0.645960 0.645960
0.646098 0.646098 0.646098
0.646250 0.646250 0.646250
0.646387 0.646387 0.646387
0.646540 0.646540 0.646540
0.646677 0.646677 0.646677
0.646815 0.646815 0.646815
0.646967 0.646967 0.646967
0.647105 0.647105 0.647105
0.647242 0.647242 0.647242
0.647395 0.647395 0.647395
0.647532 0.647532 0.647532
0.647669 0.647669 0.647669
0.647822 0.647822 0.647822
0.647959 0.647959 0.647959
0.648096 0.648096 0.648096
0.648234 0.648234 0.648234
0.648386 0.648386 0.648386
0.648524 0.648524 0.648524
0.648661 0.648661 0.648661
0.648798 0.648798 0.648798
0.648951 0.648951 0.648951
0.649088 0.649088 0.649088
0.649226 0.649226 0.649226
0.649363 0.649363 0.649363
0.649500 0.649500 0.649500
0.649653 0.649653 0.649653
0.649790 0.649790 0.649790
0.649928 0.649928 0.649928
0.650065 0.650065 0.650065
0.650202 0.650202 0.650202
0.650340 0.650340 0.650340
0.650477 0.650477 0.650477
0.650614 0.650614 0.650614
0.650752 0.650752 0.650752
0.650889 0.650889 0.650889
0.651041 0.651041 0.651041
0.651179 0.651179 0.651179
0.651316 0.651316 0.651316
0.651453 0.651453 0.651453
0.651591 0.651591 0.651591
0.651728 0.651728 0.651728
0.651865 0.651865 0.651865
0.652003 0.652003 0.652003
0.652140 0.652140 0.652140
0.652262 0.652262 0.652262
0.652399 0.652399 0.652399
0.652537 0.652537 0.652537
0.652674 0.652674 0.652674
0.652811 0.652811 0.652811
0.652949 0.652949 0.652949
0.653086 0.653086 0.653086
0.653223 0.653223 0.653223
0.653361 0.653361 0.653361
0.653498 0.653498 0.653498
0.653620 0.653620 0.653620
0.653758 0.653758 0.653758
0.653895 0.653895 0.653895
0.654032 0.654032 0.654032
0.654170 0.654170 0.654170
0.654292 0.654292 0.654292
0.654429 0.654429 0.654429
0.654566 0.654566 0.654566
0.654704 0.654704 0.654704
0.654841 0.654841 0.654841
0.654963 0.654963 0.654963
0.655100 0.655100 0.655100
0.655238 0.655238 0.655238
0.655360 0.655360 0.655360
0.655497 0.655497 0.655497
0.655634 0.655634 0.655634
0.655772 0.655772 0.655772
0.655894 0.655894 0.655894
0.656031 0.656031 0.656031
0.656168 0.656168 0.656168
0.656291 0.656291 0.656291
0.656428 0.656428 0.656428
