LutTests/Cube/1D/Identify_33.cube
TITLE "Identity 1D LUT 33"

# Created by Python script

LUT_1D_SIZE 33

DOMAIN_MIN 0.0 0.0 0.0
DOMAIN_MAX 1.0 1.0 1.0

0.000000000000 0.000000000000 0.000000000000
0.031250000000 0.031250000000 0.031250000000
0.062500000000 0.062500000000 0.062500000000
0.093750000000 0.093750000000 0.093750000000
0.125000000000 0.125000000000 0.125000000000
0.156250000000 0.156250000000 0.156250000000
0.187500000000 0.187500000000 0.187500000000
0.218750000000 0.218750000000 0.218750000000
0.250000000000 0.250000000000 0.250000000000
0.281250000000 0.281250000000 0.281250000000
0.312500000000 0.312500000000 0.312500000000
0.343750000000 0.343750000000 0.343750000000
0.375000000000 0.375000000000 0.375000000000
0.406250000000 0.406250000000 0.406250000000
0.437500000000 0.437500000000 0.437500000000
0.468750000000 0.468750000000 0.468750000000
0.500000000000 0.500000000000 0.500000000000
0.531250000000 0.531250000000 0.531250000000
0.562500000000 0.562500000000 0.562500000000
0.593750000000 0.593750000000 0.593750000000
0.625000000000 0.625000000000 0.625000000000
0.656250000000 0.656250000000 0.656250000000
0.687500000000 0.687500000000 0.687500000000
0.718750000000 0.718750000000 0.718750000000
0.750000000000 0.750000000000 0.750000000000
0.781250000000 0.781250000000 0.781250000000
0.812500000000 0.812500000000 0.812500000000
0.843750000000 0.843750000000 0.843750000000
0.875000000000 0.875000000000 0.875000000000
0.906250000000 0.906250000000 0.906250000000
0.937500000000 0.937500000000 0.937500000000
0.968750000000 0.968750000000 0.968750000000
1.000000000000 1.000000000000 1.000000000000
