LutTests/Cube/1D/Identify_65536.cube
TITLE "Identity 1D LUT 65536"

# Created by Python script

LUT_1D_SIZE 65536

DOMAIN_MIN 0.0 0.0 0.0
DOMAIN_MAX 1.0 1.0 1.0

0.000000000000 0.000000000000 0.000000000000
0.000015259022 0.000015259022 0.000015259022
0.000030518044 0.000030518044 0.000030518044
0.000045777066 0.000045777066 0.000045777066
0.000061036088 0.000061036088 0.000061036088
0.000076295109 0.000076295109 0.000076295109
0.000091554131 0.000091554131 0.000091554131
0.000106813153 0.000106813153 0.000106813153
0.000122072175 0.000122072175 0.000122072175
0.000137331197 0.000137331197 0.000137331197
0.000152590219 0.000152590219 0.000152590219
0.000167849241 0.000167849241 0.000167849241
0.000183108263 0.000183108263 0.000183108263
0.000198367285 0.000198367285 0.000198367285
0.000213626307 0.000213626307 0.000213626307
0.000228885328 0.000228885328 0.000228885328
0.000244144350 0.000244144350 0.000244144350
0.000259403372 0.000259403372 0.000259403372
0.000274662394 0.000274662394 0.000274662394
0.000289921416 0.000289921416 0.000289921416
0.000305180438 0.000305180438 0.000305180438
0.000320439460 0.000320439460 0.000320439460
0.000335698482 0.000335698482 0.000335698482
0.000350957504 0.000350957504 0.000350957504
0.000366216526 0.000366216526 0.000366216526
0.000381475547 0.000381475547 0.000381475547
0.000396734569 0.000396734569 0.000396734569
0.000411993591 0.000411993591 0.000411993591
0.000427252613 0.000427252613 0.000427252613
0.000442511635 0.000442511635 0.000442511635
0.000457770657 0.000457770657 0.000457770657
0.000473029679 0.000473029679 0.000473029679
0.000488288701 0.000488288701 0.000488288701
0.000503547723 0.000503547723 0.000503547723
0.000518806744 0.000518806744 0.000518806744
0.000534065766 0.000534065766 0.000534065766
0.000549324788 0.000549324788 0.000549324788
0.000564583810 0.000564583810 0.000564583810
0.000579842832 0.000579842832 0.000579842832
0.000595101854 0.000595101854 0.000595101854
0.000610360876 0.000610360876 0.000610360876
0.000625619898 0.000625619898 0.000625619898
0.000640878920 0.000640878920 0.000640878920
0.000656137942 0.000656137942 0.000656137942
0.000671396963 0.000671396963 0.000671396963
0.000686655985 0.000686655985 0.000686655985
0.000701915007 0.000701915007 0.000701915007
0.000717174029 0.000717174029 0.000717174029
0.000732433051 0.000732433051 0.000732433051
0.000747692073 0.000747692073 0.000747692073
0.000762951095 0.000762951095 0.000762951095
0.000778210117 0.000778210117 0.000778210117
0.000793469139 0.000793469139 0.000793469139
0.000808728161 0.000808728161 0.000808728161
0.000823987182 0.000823987182 0.000823987182
0.000839246204 0.000839246204 0.000839246204
0.000854505226 0.000854505226 0.000854505226
0.000869764248 0.000869764248 0.000869764248
0.000885023270 0.000885023270 0.000885023270
0.000900282292 0.000900282292 0.000900282292
0.000915541314 0.000915541314 0.000915541314
0.000930800336 0.000930800336 0.000930800336
0.000946059358 0.000946059358 0.000946059358
0.000961318379 0.000961318379 0.000961318379
0.000976577401 0.000976577401 0.000976577401
0.000991836423 0.000991836423 0.000991836423
0.001007095445 0.001007095445 0.001007095445
0.001022354467 0.001022354467 0.001022354467
0.001037613489 0.001037613489 0.001037613489
0.001052872511 0.001052872511 0.001052872511
0.001068131533 0.001068131533 0.001068131533
0.001083390555 0.001083390555 0.001083390555
0.001098649577 0.001098649577 0.001098649577
0.001113908598 0.001113908598 0.001113908598
0.001129167620 0.001129167620 0.001129167620
0.001144426642 0.001144426642 0.001144426642
0.001159685664 0.001159685664 0.001159685664
0.001174944686 0.001174944686 0.001174944686
0.001190203708 0.001190203708 0.001190203708
0.001205462730 0.001205462730 0.001205462730
0.001220721752 0.001220721752 0.001220721752
0.001235980774 0.001235980774 0.001235980774
0.001251239796 0.001251239796 0.001251239796
0.001266498817 0.001266498817 0.001266498817
0.001281757839 0.001281757839 0.001281757839
0.001297016861 0.001297016861 0.001297016861
0.001312275883 0.001312275883 0.001312275883
0.001327534905 0.001327534905 0.001327534905
0.001342793927 0.001342793927 0.001342793927
0.001358052949 0.001358052949 0.001358052949
0.001373311971 0.001373311971 0.001373311971
0.001388570993 0.001388570993 0.001388570993
0.001403830014 0.001403830014 0.001403830014
0.001419089036 0.001419089036 0.001419089036
0.001434348058 0.001434348058 0.001434348058
0.001449607080 0.001449607080 0.001449607080
0.001464866102 0.001464866102 0.001464866102
0.001480125124 0.001480125124 0.001480125124
0.001495384146 0.001495384146 0.001495384146
0.001510643168 0.001510643168 0.001510643168
0.001525902190 0.001525902190 0.001525902190
0.001541161212 0.001541161212 0.001541161212
0.001556420233 0.001556420233 0.001556420233
0.001571679255 0.001571679255 0.001571679255
0.001586938277 0.001586938277 0.001586938277
0.001602197299 0.001602197299 0.001602197299
0.001617456321 0.001617456321 0.001617456321
0.001632715343 0.001632715343 0.001632715343
0.001647974365 0.001647974365 0.001647974365
0.001663233387 0.001663233387 0.001663233387
0.001678492409 0.001678492409 0.001678492409
0.001693751431 0.001693751431 0.001693751431
0.001709010452 0.001709010452 0.001709010452
0.001724269474 0.001724269474 0.001724269474
0.001739528496 0.001739528496 0.001739528496
0.001754787518 0.001754787518 0.001754787518
0.001770046540 0.001770046540 0.001770046540
0.001785305562 0.001785305562 0.001785305562
0.001800564584 0.001800564584 0.001800564584
0.001815823606 0.001815823606 0.001815823606
0.001831082628 0.001831082628 0.001831082628
0.001846341650 0.001846341650 0.001846341650
0.001861600671 0.001861600671 0.001861600671
0.001876859693 0.001876859693 0.001876859693
0.001892118715 0.001892118715 0.001892118715
0.001907377737 0.001907377737 0.001907377737
0.001922636759 0.001922636759 0.001922636759
0.001937895781 0.001937895781 0.001937895781
0.001953154803 0.001953154803 0.001953154803
0.001968413825 0.001968413825 0.001968413825
0.001983672847 0.001983672847 0.001983672847
0.001998931868 0.001998931868 0.001998931868
0.002014190890 0.002014190890 0.002014190890
0.002029449912 0.002029449912 0.002029449912
0.002044708934 0.002044708934 0.002044708934
0.002059967956 0.002059967956 0.002059967956
0.002075226978 0.002075226978 0.002075226978
0.002090486000 0.002090486000 0.002090486000
0.002105745022 0.002105745022 0.002105745022
0.002121004044 0.002121004044 0.002121004044
0.002136263066 0.002136263066 0.002136263066
0.002151522087 0.002151522087 0.002151522087
0.002166781109 0.002166781109 0.002166781109
0.002182040131 0.002182040131 0.002182040131
0.002197299153 0.002197299153 0.002197299153
0.002212558175 0.002212558175 0.002212558175
0.002227817197 0.002227817197 0.002227817197
0.002243076219 0.002243076219 0.002243076219
0.002258335241 0.002258335241 0.002258335241
0.002273594263 0.002273594263 0.002273594263
0.002288853285 0.002288853285 0.002288853285
0.002304112306 0.002304112306 0.002304112306
0.002319371328 0.002319371328 0.002319371328
0.002334630350 0.002334630350 0.002334630350
0.002349889372 0.002349889372 0.002349889372
0.002365148394 0.002365148394 0.002365148394
0.002380407416 0.002380407416 0.002380407416
0.002395666438 0.002395666438 0.002395666438
0.002410925460 0.002410925460 0.002410925460
0.002426184482 0.002426184482 0.002426184482
0.002441443503 0.002441443503 0.002441443503
0.002456702525 0.002456702525 0.002456702525
0.002471961547 0.002471961547 0.002471961547
0.002487220569 0.002487220569 0.002487220569
0.002502479591 0.002502479591 0.002502479591
0.002517738613 0.002517738613 0.002517738613
0.002532997635 0.002532997635 0.002532997635
0.002548256657 0.002548256657 0.002548256657
0.002563515679 0.002563515679 0.002563515679
0.002578774701 0.002578774701 0.002578774701
0.002594033722 0.002594033722 0.002594033722
0.002609292744 0.002609292744 0.002609292744
0.002624551766 0.002624551766 0.002624551766
0.002639810788 0.002639810788 0.002639810788
0.002655069810 0.002655069810 0.002655069810
0.002670328832 0.002670328832 0.002670328832
0.002685587854 0.002685587854 0.002685587854
0.002700846876 0.002700846876 0.002700846876
0.002716105898 0.002716105898 0.002716105898
0.002731364920 0.002731364920 0.002731364920
0.002746623941 0.002746623941 0.002746623941
0.002761882963 0.002761882963 0.002761882963
0.002777141985 0.002777141985 0.002777141985
0.002792401007 0.002792401007 0.002792401007
0.002807660029 0.002807660029 0.002807660029
0.002822919051 0.002822919051 0.002822919051
0.002838178073 0.002838178073 0.002838178073
0.002853437095 0.002853437095 0.002853437095
0.002868696117 0.002868696117 0.002868696117
0.002883955138 0.002883955138 0.002883955138
0.002899214160 0.002899214160 0.002899214160
0.002914473182 0.002914473182 0.002914473182
0.002929732204 0.002929732204 0.002929732204
0.002944991226 0.002944991226 0.002944991226
0.002960250248 0.002960250248 0.002960250248
0.002975509270 0.002975509270 0.002975509270
0.002990768292 0.002990768292 0.002990768292
0.003006027314 0.003006027314 0.003006027314
0.003021286336 0.003021286336 0.003021286336
0.003036545357 0.003036545357 0.003036545357
0.003051804379 0.003051804379 0.003051804379
0.003067063401 0.003067063401 0.003067063401
0.003082322423 0.003082322423 0.003082322423
0.003097581445 0.003097581445 0.003097581445
0.003112840467 0.003112840467 0.003112840467
0.003128099489 0.003128099489 0.003128099489
0.003143358511 0.003143358511 0.003143358511
0.003158617533 0.003158617533 0.003158617533
0.003173876555 0.003173876555 0.003173876555
0.003189135576 0.003189135576 0.003189135576
0.003204394598 0.003204394598 0.003204394598
0.003219653620 0.003219653620 0.003219653620
0.003234912642 0.003234912642 0.003234912642
0.003250171664 0.003250171664 0.003250171664
0.003265430686 0.003265430686 0.003265430686
0.003280689708 0.003280689708 0.003280689708
0.003295948730 0.003295948730 0.003295948730
0.003311207752 0.003311207752 0.003311207752
0.003326466773 0.003326466773 0.003326466773
0.003341725795 0.003341725795 0.003341725795
0.003356984817 0.003356984817 0.003356984817
0.003372243839 0.003372243839 0.003372243839
0.003387502861 0.003387502861 0.003387502861
0.003402761883 0.003402761883 0.003402761883
0.003418020905 0.003418020905 0.003418020905
0.003433279927 0.003433279927 0.003433279927
0.003448538949 0.003448538949 0.003448538949
0.003463797971 0.003463797971 0.003463797971
0.003479056992 0.003479056992 0.003479056992
0.003494316014 0.003494316014 0.003494316014
0.003509575036 0.003509575036 0.003509575036
0.003524834058 0.003524834058 0.003524834058
0.003540093080 0.003540093080 0.003540093080
0.003555352102 0.003555352102 0.003555352102
0.003570611124 0.003570611124 0.003570611124
0.003585870146 0.003585870146 0.003585870146
0.003601129168 0.003601129168 0.003601129168
0.003616388190 0.003616388190 0.003616388190
0.003631647211 0.003631647211 0.003631647211
0.003646906233 0.003646906233 0.003646906233
0.003662165255 0.003662165255 0.003662165255
0.003677424277 0.003677424277 0.003677424277
0.003692683299 0.003692683299 0.003692683299
0.003707942321 0.003707942321 0.003707942321
0.003723201343 0.003723201343 0.003723201343
0.003738460365 0.003738460365 0.003738460365
0.003753719387 0.003753719387 0.003753719387
0.003768978408 0.003768978408 0.003768978408
0.003784237430 0.003784237430 0.003784237430
0.003799496452 0.003799496452 0.003799496452
0.003814755474 0.003814755474 0.003814755474
0.003830014496 0.003830014496 0.003830014496
0.003845273518 0.003845273518 0.003845273518
0.003860532540 0.003860532540 0.003860532540
0.003875791562 0.003875791562 0.003875791562
0.003891050584 0.003891050584 0.003891050584
0.003906309606 0.003906309606 0.003906309606
0.003921568627 0.003921568627 0.003921568627
0.003936827649 0.003936827649 0.003936827649
0.003952086671 0.003952086671 0.003952086671
0.003967345693 0.003967345693 0.003967345693
0.003982604715 0.003982604715 0.003982604715
0.003997863737 0.003997863737 0.003997863737
0.004013122759 0.004013122759 0.004013122759
0.004028381781 0.004028381781 0.004028381781
0.004043640803 0.004043640803 0.004043640803
0.004058899825 0.004058899825 0.004058899825
0.004074158846 0.004074158846 0.004074158846
0.004089417868 0.004089417868 0.004089417868
0.004104676890 0.004104676890 0.004104676890
0.004119935912 0.004119935912 0.004119935912
0.004135194934 0.004135194934 0.004135194934
0.004150453956 0.004150453956 0.004150453956
0.004165712978 0.004165712978 0.004165712978
0.004180972000 0.004180972000 0.004180972000
0.004196231022 0.004196231022 0.004196231022
0.004211490043 0.004211490043 0.004211490043
0.004226749065 0.004226749065 0.004226749065
0.004242008087 0.004242008087 0.004242008087
0.004257267109 0.004257267109 0.004257267109
0.004272526131 0.004272526131 0.004272526131
0.004287785153 0.004287785153 0.004287785153
0.004303044175 0.004303044175 0.004303044175
0.004318303197 0.004318303197 0.004318303197
0.004333562219 0.004333562219 0.004333562219
0.004348821241 0.004348821241 0.004348821241
0.004364080262 0.004364080262 0.004364080262
0.004379339284 0.004379339284 0.004379339284
0.004394598306 0.004394598306 0.004394598306
0.004409857328 0.004409857328 0.004409857328
0.004425116350 0.004425116350 0.004425116350
0.004440375372 0.004440375372 0.004440375372
0.004455634394 0.004455634394 0.004455634394
0.004470893416 0.004470893416 0.004470893416
0.004486152438 0.004486152438 0.004486152438
0.004501411460 0.004501411460 0.004501411460
0.004516670481 0.004516670481 0.004516670481
0.004531929503 0.004531929503 0.004531929503
0.004547188525 0.004547188525 0.004547188525
0.004562447547 0.004562447547 0.004562447547
0.004577706569 0.004577706569 0.004577706569
0.004592965591 0.004592965591 0.004592965591
0.004608224613 0.004608224613 0.004608224613
0.004623483635 0.004623483635 0.004623483635
0.004638742657 0.004638742657 0.004638742657
0.004654001678 0.004654001678 0.004654001678
0.004669260700 0.004669260700 0.004669260700
0.004684519722 0.004684519722 0.004684519722
0.004699778744 0.004699778744 0.004699778744
0.004715037766 0.004715037766 0.004715037766
0.004730296788 0.004730296788 0.004730296788
0.004745555810 0.004745555810 0.004745555810
0.004760814832 0.004760814832 0.004760814832
0.004776073854 0.004776073854 0.004776073854
0.004791332876 0.004791332876 0.004791332876
0.004806591897 0.004806591897 0.004806591897
0.004821850919 0.004821850919 0.004821850919
0.004837109941 0.004837109941 0.004837109941
0.004852368963 0.004852368963 0.004852368963
0.004867627985 0.004867627985 0.004867627985
0.004882887007 0.004882887007 0.004882887007
0.004898146029 0.004898146029 0.004898146029
0.004913405051 0.004913405051 0.004913405051
0.004928664073 0.004928664073 0.004928664073
0.004943923095 0.004943923095 0.004943923095
0.004959182116 0.004959182116 0.004959182116
0.004974441138 0.004974441138 0.004974441138
0.004989700160 0.004989700160 0.004989700160
0.005004959182 0.005004959182 0.005004959182
0.005020218204 0.005020218204 0.005020218204
0.005035477226 0.005035477226 0.005035477226
0.005050736248 0.005050736248 0.005050736248
0.005065995270 0.005065995270 0.005065995270
0.005081254292 0.005081254292 0.005081254292
0.005096513313 0.005096513313 0.005096513313
0.005111772335 0.005111772335 0.005111772335
0.005127031357 0.005127031357 0.005127031357
0.005142290379 0.005142290379 0.005142290379
0.005157549401 0.005157549401 0.005157549401
0.005172808423 0.005172808423 0.005172808423
0.005188067445 0.005188067445 0.005188067445
0.005203326467 0.005203326467 0.005203326467
0.005218585489 0.005218585489 0.005218585489
0.005233844511 0.005233844511 0.005233844511
0.005249103532 0.005249103532 0.005249103532
0.005264362554 0.005264362554 0.005264362554
0.005279621576 0.005279621576 0.005279621576
0.005294880598 0.005294880598 0.005294880598
0.005310139620 0.005310139620 0.005310139620
0.005325398642 0.005325398642 0.005325398642
0.005340657664 0.005340657664 0.005340657664
0.005355916686 0.005355916686 0.005355916686
0.005371175708 0.005371175708 0.005371175708
0.005386434730 0.005386434730 0.005386434730
0.005401693751 0.005401693751 0.005401693751
0.005416952773 0.005416952773 0.005416952773
0.005432211795 0.005432211795 0.005432211795
0.005447470817 0.005447470817 0.005447470817
0.005462729839 0.005462729839 0.005462729839
0.005477988861 0.005477988861 0.005477988861
0.005493247883 0.005493247883 0.005493247883
0.005508506905 0.005508506905 0.005508506905
0.005523765927 0.005523765927 0.005523765927
0.005539024949 0.005539024949 0.005539024949
0.005554283970 0.005554283970 0.005554283970
0.005569542992 0.005569542992 0.005569542992
0.005584802014 0.005584802014 0.005584802014
0.005600061036 0.005600061036 0.005600061036
0.005615320058 0.005615320058 0.005615320058
0.005630579080 0.005630579080 0.005630579080
0.005645838102 0.005645838102 0.005645838102
0.005661097124 0.005661097124 0.005661097124
0.005676356146 0.005676356146 0.005676356146
0.005691615167 0.005691615167 0.005691615167
0.005706874189 0.005706874189 0.005706874189
0.005722133211 0.005722133211 0.005722133211
0.005737392233 0.005737392233 0.005737392233
0.005752651255 0.005752651255 0.005752651255
0.005767910277 0.005767910277 0.005767910277
0.005783169299 0.005783169299 0.005783169299
0.005798428321 0.005798428321 0.005798428321
0.005813687343 0.005813687343 0.005813687343
0.005828946365 0.005828946365 0.005828946365
0.005844205386 0.005844205386 0.005844205386
0.005859464408 0.005859464408 0.005859464408
0.005874723430 0.005874723430 0.005874723430
0.005889982452 0.005889982452 0.005889982452
0.005905241474 0.005905241474 0.005905241474
0.005920500496 0.005920500496 0.005920500496
0.005935759518 0.005935759518 0.005935759518
0.005951018540 0.005951018540 0.005951018540
0.005966277562 0.005966277562 0.005966277562
0.005981536584 0.005981536584 0.005981536584
0.005996795605 0.005996795605 0.005996795605
0.006012054627 0.006012054627 0.006012054627
0.006027313649 0.006027313649 0.006027313649
0.006042572671 0.006042572671 0.006042572671
0.006057831693 0.006057831693 0.006057831693
0.006073090715 0.006073090715 0.006073090715
0.006088349737 0.006088349737 0.006088349737
0.006103608759 0.006103608759 0.006103608759
0.006118867781 0.006118867781 0.006118867781
0.006134126802 0.006134126802 0.006134126802
0.006149385824 0.006149385824 0.006149385824
0.006164644846 0.006164644846 0.006164644846
0.006179903868 0.006179903868 0.006179903868
0.006195162890 0.006195162890 0.006195162890
0.006210421912 0.006210421912 0.006210421912
0.006225680934 0.006225680934 0.006225680934
0.006240939956 0.006240939956 0.006240939956
0.006256198978 0.006256198978 0.006256198978
0.006271458000 0.006271458000 0.006271458000
0.006286717021 0.006286717021 0.006286717021
0.006301976043 0.006301976043 0.006301976043
0.006317235065 0.006317235065 0.006317235065
0.006332494087 0.006332494087 0.006332494087
0.006347753109 0.006347753109 0.006347753109
0.006363012131 0.006363012131 0.006363012131
0.006378271153 0.006378271153 0.006378271153
0.006393530175 0.006393530175 0.006393530175
0.006408789197 0.006408789197 0.006408789197
0.006424048219 0.006424048219 0.006424048219
0.006439307240 0.006439307240 0.006439307240
0.006454566262 0.006454566262 0.006454566262
0.006469825284 0.006469825284 0.006469825284
0.006485084306 0.006485084306 0.006485084306
0.006500343328 0.006500343328 0.006500343328
0.006515602350 0.006515602350 0.006515602350
0.006530861372 0.006530861372 0.006530861372
0.006546120394 0.006546120394 0.006546120394
0.006561379416 0.006561379416 0.006561379416
0.006576638437 0.006576638437 0.006576638437
0.006591897459 0.006591897459 0.006591897459
0.006607156481 0.006607156481 0.006607156481
0.006622415503 0.006622415503 0.006622415503
0.006637674525 0.006637674525 0.006637674525
0.006652933547 0.006652933547 0.006652933547
0.006668192569 0.006668192569 0.006668192569
0.006683451591 0.006683451591 0.006683451591
0.006698710613 0.006698710613 0.006698710613
0.006713969635 0.006713969635 0.006713969635
0.006729228656 0.006729228656 0.006729228656
0.006744487678 0.006744487678 0.006744487678
0.006759746700 0.006759746700 0.006759746700
0.006775005722 0.006775005722 0.006775005722
0.006790264744 0.006790264744 0.006790264744
0.006805523766 0.006805523766 0.006805523766
0.006820782788 0.006820782788 0.006820782788
0.006836041810 0.006836041810 0.006836041810
0.006851300832 0.006851300832 0.006851300832
0.006866559854 0.006866559854 0.006866559854
0.006881818875 0.006881818875 0.006881818875
0.006897077897 0.006897077897 0.006897077897
0.006912336919 0.006912336919 0.006912336919
0.006927595941 0.006927595941 0.006927595941
0.006942854963 0.006942854963 0.006942854963
0.006958113985 0.006958113985 0.006958113985
0.006973373007 0.006973373007 0.006973373007
0.006988632029 0.006988632029 0.006988632029
0.007003891051 0.007003891051 0.007003891051
0.007019150072 0.007019150072 0.007019150072
0.007034409094 0.007034409094 0.007034409094
0.007049668116 0.007049668116 0.007049668116
0.007064927138 0.007064927138 0.007064927138
0.007080186160 0.007080186160 0.007080186160
0.007095445182 0.007095445182 0.007095445182
0.007110704204 0.007110704204 0.007110704204
0.007125963226 0.007125963226 0.007125963226
0.007141222248 0.007141222248 0.007141222248
0.007156481270 0.007156481270 0.007156481270
0.007171740291 0.007171740291 0.007171740291
0.007186999313 0.007186999313 0.007186999313
0.007202258335 0.007202258335 0.007202258335
0.007217517357 0.007217517357 0.007217517357
0.007232776379 0.007232776379 0.007232776379
0.007248035401 0.007248035401 0.007248035401
0.007263294423 0.007263294423 0.007263294423
0.007278553445 0.007278553445 0.007278553445
0.007293812467 0.007293812467 0.007293812467
0.007309071489 0.007309071489 0.007309071489
0.007324330510 0.007324330510 0.007324330510
0.007339589532 0.007339589532 0.007339589532
0.007354848554 0.007354848554 0.007354848554
0.007370107576 0.007370107576 0.007370107576
0.007385366598 0.007385366598 0.007385366598
0.007400625620 0.007400625620 0.007400625620
0.007415884642 0.007415884642 0.007415884642
0.007431143664 0.007431143664 0.007431143664
0.007446402686 0.007446402686 0.007446402686
0.007461661707 0.007461661707 0.007461661707
0.007476920729 0.007476920729 0.007476920729
0.007492179751 0.007492179751 0.007492179751
0.007507438773 0.007507438773 0.007507438773
0.007522697795 0.007522697795 0.007522697795
0.007537956817 0.007537956817 0.007537956817
0.007553215839 0.007553215839 0.007553215839
0.007568474861 0.007568474861 0.007568474861
0.007583733883 0.007583733883 0.007583733883
0.007598992905 0.007598992905 0.007598992905
0.007614251926 0.007614251926 0.007614251926
0.007629510948 0.007629510948 0.007629510948
0.007644769970 0.007644769970 0.007644769970
0.007660028992 0.007660028992 0.007660028992
0.007675288014 0.007675288014 0.007675288014
0.007690547036 0.007690547036 0.007690547036
0.007705806058 0.007705806058 0.007705806058
0.007721065080 0.007721065080 0.007721065080
0.007736324102 0.007736324102 0.007736324102
0.007751583124 0.007751583124 0.007751583124
0.007766842145 0.007766842145 0.007766842145
0.007782101167 0.007782101167 0.007782101167
0.007797360189 0.007797360189 0.007797360189
0.007812619211 0.007812619211 0.007812619211
0.007827878233 0.007827878233 0.007827878233
0.007843137255 0.007843137255 0.007843137255
0.007858396277 0.007858396277 0.007858396277
0.007873655299 0.007873655299 0.007873655299
0.007888914321 0.007888914321 0.007888914321
0.007904173342 0.007904173342 0.007904173342
0.007919432364 0.007919432364 0.007919432364
0.007934691386 0.007934691386 0.007934691386
0.007949950408 0.007949950408 0.007949950408
0.007965209430 0.007965209430 0.007965209430
0.007980468452 0.007980468452 0.007980468452
0.007995727474 0.007995727474 0.007995727474
0.008010986496 0.008010986496 0.008010986496
0.008026245518 0.008026245518 0.008026245518
0.008041504540 0.008041504540 0.008041504540
0.008056763561 0.008056763561 0.008056763561
0.008072022583 0.008072022583 0.008072022583
