LutTests/Cube/1D/negative_1D_65536.cube
TITLE "Generated Negative 1D LUT (65536)"
LUT_1D_SIZE 65536
DOMAIN_MIN 0.0 0.0 0.0
DOMAIN_MAX 1.0 1.0 1.0

# LUT Data Points (R G B)
1.0000000000 1.0000000000 1.0000000000
0.9999847410 0.9999847410 0.9999847410
0.9999694820 0.9999694820 0.9999694820
0.9999542229 0.9999542229 0.9999542229
0.9999389639 0.9999389639 0.9999389639
0.9999237049 0.9999237049 0.9999237049
0.9999084459 0.9999084459 0.9999084459
0.9998931868 0.9998931868 0.9998931868
0.9998779278 0.9998779278 0.9998779278
0.9998626688 0.9998626688 0.9998626688
0.9998474098 0.9998474098 0.9998474098
0.9998321508 0.9998321508 0.9998321508
0.9998168917 0.9998168917 0.9998168917
0.9998016327 0.9998016327 0.9998016327
0.9997863737 0.9997863737 0.9997863737
0.9997711147 0.9997711147 0.9997711147
0.9997558556 0.9997558556 0.9997558556
0.9997405966 0.9997405966 0.9997405966
0.9997253376 0.9997253376 0.9997253376
0.9997100786 0.9997100786 0.9997100786
0.9996948196 0.9996948196 0.9996948196
0.9996795605 0.9996795605 0.9996795605
0.9996643015 0.9996643015 0.9996643015
0.9996490425 0.9996490425 0.9996490425
0.9996337835 0.9996337835 0.9996337835
0.9996185245 0.9996185245 0.9996185245
0.9996032654 0.9996032654 0.9996032654
0.9995880064 0.9995880064 0.9995880064
0.9995727474 0.9995727474 0.9995727474
0.9995574884 0.9995574884 0.9995574884
0.9995422293 0.9995422293 0.9995422293
0.9995269703 0.9995269703 0.9995269703
0.9995117113 0.9995117113 0.9995117113
0.9994964523 0.9994964523 0.9994964523
0.9994811933 0.9994811933 0.9994811933
0.9994659342 0.9994659342 0.9994659342
0.9994506752 0.9994506752 0.9994506752
0.9994354162 0.9994354162 0.9994354162
0.9994201572 0.9994201572 0.9994201572
0.9994048981 0.9994048981 0.9994048981
0.9993896391 0.9993896391 0.9993896391
0.9993743801 0.9993743801 0.9993743801
0.9993591211 0.9993591211 0.9993591211
0.9993438621 0.9993438621 0.9993438621
0.9993286030 0.9993286030 0.9993286030
0.9993133440 0.9993133440 0.9993133440
0.9992980850 0.9992980850 0.9992980850
0.9992828260 0.9992828260 0.9992828260
0.9992675669 0.9992675669 0.9992675669
0.9992523079 0.9992523079 0.9992523079
0.9992370489 0.9992370489 0.9992370489
0.9992217899 0.9992217899 0.9992217899
0.9992065309 0.9992065309 0.9992065309
0.9991912718 0.9991912718 0.9991912718
0.9991760128 0.9991760128 0.9991760128
0.9991607538 0.9991607538 0.9991607538
0.9991454948 0.9991454948 0.9991454948
0.9991302358 0.9991302358 0.9991302358
0.9991149767 0.9991149767 0.9991149767
0.9990997177 0.9990997177 0.9990997177
0.9990844587 0.9990844587 0.9990844587
0.9990691997 0.9990691997 0.9990691997
0.9990539406 0.9990539406 0.9990539406
0.9990386816 0.9990386816 0.9990386816
0.9990234226 0.9990234226 0.9990234226
0.9990081636 0.9990081636 0.9990081636
0.9989929046 0.9989929046 0.9989929046
0.9989776455 0.9989776455 0.9989776455
0.9989623865 0.9989623865 0.9989623865
0.9989471275 0.9989471275 0.9989471275
0.9989318685 0.9989318685 0.9989318685
0.9989166094 0.9989166094 0.9989166094
0.9989013504 0.9989013504 0.9989013504
0.9988860914 0.9988860914 0.9988860914
0.9988708324 0.9988708324 0.9988708324
0.9988555734 0.9988555734 0.9988555734
0.9988403143 0.9988403143 0.9988403143
0.9988250553 0.9988250553 0.9988250553
0.9988097963 0.9988097963 0.9988097963
0.9987945373 0.9987945373 0.9987945373
0.9987792782 0.9987792782 0.9987792782
0.9987640192 0.9987640192 0.9987640192
0.9987487602 0.9987487602 0.9987487602
0.9987335012 0.9987335012 0.9987335012
0.9987182422 0.9987182422 0.9987182422
0.9987029831 0.9987029831 0.9987029831
0.9986877241 0.9986877241 0.9986877241
0.9986724651 0.9986724651 0.9986724651
0.9986572061 0.9986572061 0.9986572061
0.9986419471 0.9986419471 0.9986419471
0.9986266880 0.9986266880 0.9986266880
0.9986114290 0.9986114290 0.9986114290
0.9985961700 0.9985961700 0.9985961700
0.9985809110 0.9985809110 0.9985809110
0.9985656519 0.9985656519 0.9985656519
0.9985503929 0.9985503929 0.9985503929
0.9985351339 0.9985351339 0.9985351339
0.9985198749 0.9985198749 0.9985198749
0.9985046159 0.9985046159 0.9985046159
0.9984893568 0.9984893568 0.9984893568
0.9984740978 0.9984740978 0.9984740978
0.9984588388 0.9984588388 0.9984588388
0.9984435798 0.9984435798 0.9984435798
0.9984283207 0.9984283207 0.9984283207
0.9984130617 0.9984130617 0.9984130617
0.9983978027 0.9983978027 0.9983978027
0.9983825437 0.9983825437 0.9983825437
0.9983672847 0.9983672847 0.9983672847
0.9983520256 0.9983520256 0.9983520256
0.9983367666 0.9983367666 0.9983367666
0.9983215076 0.9983215076 0.9983215076
0.9983062486 0.9983062486 0.9983062486
0.9982909895 0.9982909895 0.9982909895
0.9982757305 0.9982757305 0.9982757305
0.9982604715 0.9982604715 0.9982604715
0.9982452125 0.9982452125 0.9982452125
0.9982299535 0.9982299535 0.9982299535
0.9982146944 0.9982146944 0.9982146944
0.9981994354 0.9981994354 0.9981994354
0.9981841764 0.9981841764 0.9981841764
0.9981689174 0.9981689174 0.9981689174
0.9981536584 0.9981536584 0.9981536584
0.9981383993 0.9981383993 0.9981383993
0.9981231403 0.9981231403 0.9981231403
0.9981078813 0.9981078813 0.9981078813
0.9980926223 0.9980926223 0.9980926223
0.9980773632 0.9980773632 0.9980773632
0.9980621042 0.9980621042 0.9980621042
0.9980468452 0.9980468452 0.9980468452
0.9980315862 0.9980315862 0.9980315862
0.9980163272 0.9980163272 0.9980163272
0.9980010681 0.9980010681 0.9980010681
0.9979858091 0.9979858091 0.9979858091
0.9979705501 0.9979705501 0.9979705501
0.9979552911 0.9979552911 0.9979552911
0.9979400320 0.9979400320 0.9979400320
0.9979247730 0.9979247730 0.9979247730
0.9979095140 0.9979095140 0.9979095140
0.9978942550 0.9978942550 0.9978942550
0.9978789960 0.9978789960 0.9978789960
0.9978637369 0.9978637369 0.9978637369
0.9978484779 0.9978484779 0.9978484779
0.9978332189 0.9978332189 0.9978332189
0.9978179599 0.9978179599 0.9978179599
0.9978027008 0.9978027008 0.9978027008
0.9977874418 0.9977874418 0.9977874418
0.9977721828 0.9977721828 0.9977721828
0.9977569238 0.9977569238 0.9977569238
0.9977416648 0.9977416648 0.9977416648
0.9977264057 0.9977264057 0.9977264057
0.9977111467 0.9977111467 0.9977111467
0.9976958877 0.9976958877 0.9976958877
0.9976806287 0.9976806287 0.9976806287
0.9976653696 0.9976653696 0.9976653696
0.9976501106 0.9976501106 0.9976501106
0.9976348516 0.9976348516 0.9976348516
0.9976195926 0.9976195926 0.9976195926
0.9976043336 0.9976043336 0.9976043336
0.9975890745 0.9975890745 0.9975890745
0.9975738155 0.9975738155 0.9975738155
0.9975585565 0.9975585565 0.9975585565
0.9975432975 0.9975432975 0.9975432975
0.9975280385 0.9975280385 0.9975280385
0.9975127794 0.9975127794 0.9975127794
0.9974975204 0.9974975204 0.9974975204
0.9974822614 0.9974822614 0.9974822614
0.9974670024 0.9974670024 0.9974670024
0.9974517433 0.9974517433 0.9974517433
0.9974364843 0.9974364843 0.9974364843
0.9974212253 0.9974212253 0.9974212253
0.9974059663 0.9974059663 0.9974059663
0.9973907073 0.9973907073 0.9973907073
0.9973754482 0.9973754482 0.9973754482
0.9973601892 0.9973601892 0.9973601892
0.9973449302 0.9973449302 0.9973449302
0.9973296712 0.9973296712 0.9973296712
0.9973144121 0.9973144121 0.9973144121
0.9972991531 0.9972991531 0.9972991531
0.9972838941 0.9972838941 0.9972838941
0.9972686351 0.9972686351 0.9972686351
0.9972533761 0.9972533761 0.9972533761
0.9972381170 0.9972381170 0.9972381170
0.9972228580 0.9972228580 0.9972228580
0.9972075990 0.9972075990 0.9972075990
0.9971923400 0.9971923400 0.9971923400
0.9971770809 0.9971770809 0.9971770809
0.9971618219 0.9971618219 0.9971618219
0.9971465629 0.9971465629 0.9971465629
0.9971313039 0.9971313039 0.9971313039
0.9971160449 0.9971160449 0.9971160449
0.9971007858 0.9971007858 0.9971007858
0.9970855268 0.9970855268 0.9970855268
0.9970702678 0.9970702678 0.9970702678
0.9970550088 0.9970550088 0.9970550088
0.9970397498 0.9970397498 0.9970397498
0.9970244907 0.9970244907 0.9970244907
0.9970092317 0.9970092317 0.9970092317
0.9969939727 0.9969939727 0.9969939727
0.9969787137 0.9969787137 0.9969787137
0.9969634546 0.9969634546 0.9969634546
0.9969481956 0.9969481956 0.9969481956
0.9969329366 0.9969329366 0.9969329366
0.9969176776 0.9969176776 0.9969176776
0.9969024186 0.9969024186 0.9969024186
0.9968871595 0.9968871595 0.9968871595
0.9968719005 0.9968719005 0.9968719005
0.9968566415 0.9968566415 0.9968566415
0.9968413825 0.9968413825 0.9968413825
0.9968261234 0.9968261234 0.9968261234
0.9968108644 0.9968108644 0.9968108644
0.9967956054 0.9967956054 0.9967956054
0.9967803464 0.9967803464 0.9967803464
0.9967650874 0.9967650874 0.9967650874
0.9967498283 0.9967498283 0.9967498283
0.9967345693 0.9967345693 0.9967345693
0.9967193103 0.9967193103 0.9967193103
0.9967040513 0.9967040513 0.9967040513
0.9966887922 0.9966887922 0.9966887922
0.9966735332 0.9966735332 0.9966735332
0.9966582742 0.9966582742 0.9966582742
0.9966430152 0.9966430152 0.9966430152
0.9966277562 0.9966277562 0.9966277562
0.9966124971 0.9966124971 0.9966124971
0.9965972381 0.9965972381 0.9965972381
0.9965819791 0.9965819791 0.9965819791
0.9965667201 0.9965667201 0.9965667201
0.9965514611 0.9965514611 0.9965514611
0.9965362020 0.9965362020 0.9965362020
0.9965209430 0.9965209430 0.9965209430
0.9965056840 0.9965056840 0.9965056840
0.9964904250 0.9964904250 0.9964904250
0.9964751659 0.9964751659 0.9964751659
0.9964599069 0.9964599069 0.9964599069
0.9964446479 0.9964446479 0.9964446479
0.9964293889 0.9964293889 0.9964293889
0.9964141299 0.9964141299 0.9964141299
0.9963988708 0.9963988708 0.9963988708
0.9963836118 0.9963836118 0.9963836118
0.9963683528 0.9963683528 0.9963683528
0.9963530938 0.9963530938 0.9963530938
0.9963378347 0.9963378347 0.9963378347
0.9963225757 0.9963225757 0.9963225757
0.9963073167 0.9963073167 0.9963073167
0.9962920577 0.9962920577 0.9962920577
0.9962767987 0.9962767987 0.9962767987
0.9962615396 0.9962615396 0.9962615396
0.9962462806 0.9962462806 0.9962462806
0.9962310216 0.9962310216 0.9962310216
0.9962157626 0.9962157626 0.9962157626
0.9962005035 0.9962005035 0.9962005035
0.9961852445 0.9961852445 0.9961852445
0.9961699855 0.9961699855 0.9961699855
0.9961547265 0.9961547265 0.9961547265
0.9961394675 0.9961394675 0.9961394675
0.9961242084 0.9961242084 0.9961242084
0.9961089494 0.9961089494 0.9961089494
0.9960936904 0.9960936904 0.9960936904
0.9960784314 0.9960784314 0.9960784314
0.9960631724 0.9960631724 0.9960631724
0.9960479133 0.9960479133 0.9960479133
0.9960326543 0.9960326543 0.9960326543
0.9960173953 0.9960173953 0.9960173953
0.9960021363 0.9960021363 0.9960021363
0.9959868772 0.9959868772 0.9959868772
0.9959716182 0.9959716182 0.9959716182
0.9959563592 0.9959563592 0.9959563592
0.9959411002 0.9959411002 0.9959411002
0.9959258412 0.9959258412 0.9959258412
0.9959105821 0.9959105821 0.9959105821
0.9958953231 0.9958953231 0.9958953231
0.9958800641 0.9958800641 0.9958800641
0.9958648051 0.9958648051 0.9958648051
0.9958495460 0.9958495460 0.9958495460
0.9958342870 0.9958342870 0.9958342870
0.9958190280 0.9958190280 0.9958190280
0.9958037690 0.9958037690 0.9958037690
0.9957885100 0.9957885100 0.9957885100
0.9957732509 0.9957732509 0.9957732509
0.9957579919 0.9957579919 0.9957579919
0.9957427329 0.9957427329 0.9957427329
0.9957274739 0.9957274739 0.9957274739
0.9957122148 0.9957122148 0.9957122148
0.9956969558 0.9956969558 0.9956969558
0.9956816968 0.9956816968 0.9956816968
0.9956664378 0.9956664378 0.9956664378
0.9956511788 0.9956511788 0.9956511788
0.9956359197 0.9956359197 0.9956359197
0.9956206607 0.9956206607 0.9956206607
0.9956054017 0.9956054017 0.9956054017
0.9955901427 0.9955901427 0.9955901427
0.9955748836 0.9955748836 0.9955748836
0.9955596246 0.9955596246 0.9955596246
0.9955443656 0.9955443656 0.9955443656
0.9955291066 0.9955291066 0.9955291066
0.9955138476 0.9955138476 0.9955138476
0.9954985885 0.9954985885 0.9954985885
0.9954833295 0.9954833295 0.9954833295
0.9954680705 0.9954680705 0.9954680705
0.9954528115 0.9954528115 0.9954528115
0.9954375525 0.9954375525 0.9954375525
0.9954222934 0.9954222934 0.9954222934
0.9954070344 0.9954070344 0.9954070344
0.9953917754 0.9953917754 0.9953917754
0.9953765164 0.9953765164 0.9953765164
0.9953612573 0.9953612573 0.9953612573
0.9953459983 0.9953459983 0.9953459983
0.9953307393 0.9953307393 0.9953307393
0.9953154803 0.9953154803 0.9953154803
0.9953002213 0.9953002213 0.9953002213
0.9952849622 0.9952849622 0.9952849622
0.9952697032 0.9952697032 0.9952697032
0.9952544442 0.9952544442 0.9952544442
0.9952391852 0.9952391852 0.9952391852
0.9952239261 0.9952239261 0.9952239261
0.9952086671 0.9952086671 0.9952086671
0.9951934081 0.9951934081 0.9951934081
0.9951781491 0.9951781491 0.9951781491
0.9951628901 0.9951628901 0.9951628901
0.9951476310 0.9951476310 0.9951476310
0.9951323720 0.9951323720 0.9951323720
0.9951171130 0.9951171130 0.9951171130
0.9951018540 0.9951018540 0.9951018540
0.9950865949 0.9950865949 0.9950865949
0.9950713359 0.9950713359 0.9950713359
0.9950560769 0.9950560769 0.9950560769
0.9950408179 0.9950408179 0.9950408179
0.9950255589 0.9950255589 0.9950255589
0.9950102998 0.9950102998 0.9950102998
0.9949950408 0.9949950408 0.9949950408
0.9949797818 0.9949797818 0.9949797818
0.9949645228 0.9949645228 0.9949645228
0.9949492638 0.9949492638 0.9949492638
0.9949340047 0.9949340047 0.9949340047
0.9949187457 0.9949187457 0.9949187457
0.9949034867 0.9949034867 0.9949034867
0.9948882277 0.9948882277 0.9948882277
0.9948729686 0.9948729686 0.9948729686
0.9948577096 0.9948577096 0.9948577096
0.9948424506 0.9948424506 0.9948424506
0.9948271916 0.9948271916 0.9948271916
0.9948119326 0.9948119326 0.9948119326
0.9947966735 0.9947966735 0.9947966735
0.9947814145 0.9947814145 0.9947814145
0.9947661555 0.9947661555 0.9947661555
0.9947508965 0.9947508965 0.9947508965
0.9947356374 0.9947356374 0.9947356374
0.9947203784 0.9947203784 0.9947203784
0.9947051194 0.9947051194 0.9947051194
0.9946898604 0.9946898604 0.9946898604
0.9946746014 0.9946746014 0.9946746014
0.9946593423 0.9946593423 0.9946593423
0.9946440833 0.9946440833 0.9946440833
0.9946288243 0.9946288243 0.9946288243
0.9946135653 0.9946135653 0.9946135653
0.9945983062 0.9945983062 0.9945983062
0.9945830472 0.9945830472 0.9945830472
0.9945677882 0.9945677882 0.9945677882
0.9945525292 0.9945525292 0.9945525292
0.9945372702 0.9945372702 0.9945372702
0.9945220111 0.9945220111 0.9945220111
0.9945067521 0.9945067521 0.9945067521
0.9944914931 0.9944914931 0.9944914931
0.9944762341 0.9944762341 0.9944762341
0.9944609751 0.9944609751 0.9944609751
0.9944457160 0.9944457160 0.9944457160
0.9944304570 0.9944304570 0.9944304570
0.9944151980 0.9944151980 0.9944151980
0.9943999390 0.9943999390 0.9943999390
0.9943846799 0.9943846799 0.9943846799
0.9943694209 0.9943694209 0.9943694209
0.9943541619 0.9943541619 0.9943541619
0.9943389029 0.9943389029 0.9943389029
0.9943236439 0.9943236439 0.9943236439
0.9943083848 0.9943083848 0.9943083848
0.9942931258 0.9942931258 0.9942931258
0.9942778668 0.9942778668 0.9942778668
0.9942626078 0.9942626078 0.9942626078
0.9942473487 0.9942473487 0.9942473487
0.9942320897 0.9942320897 0.9942320897
0.9942168307 0.9942168307 0.9942168307
0.9942015717 0.9942015717 0.9942015717
0.9941863127 0.9941863127 0.9941863127
0.9941710536 0.9941710536 0.9941710536
0.9941557946 0.9941557946 0.9941557946
0.9941405356 0.9941405356 0.9941405356
0.9941252766 0.9941252766 0.9941252766
0.9941100175 0.9941100175 0.9941100175
0.9940947585 0.9940947585 0.9940947585
0.9940794995 0.9940794995 0.9940794995
0.9940642405 0.9940642405 0.9940642405
0.9940489815 0.9940489815 0.9940489815
0.9940337224 0.9940337224 0.9940337224
0.9940184634 0.9940184634 0.9940184634
0.9940032044 0.9940032044 0.9940032044
0.9939879454 0.9939879454 0.9939879454
0.9939726864 0.9939726864 0.9939726864
0.9939574273 0.9939574273 0.9939574273
0.9939421683 0.9939421683 0.9939421683
0.9939269093 0.9939269093 0.9939269093
0.9939116503 0.9939116503 0.9939116503
0.9938963912 0.9938963912 0.9938963912
0.9938811322 0.9938811322 0.9938811322
0.9938658732 0.9938658732 0.9938658732
0.9938506142 0.9938506142 0.9938506142
0.9938353552 0.9938353552 0.9938353552
0.9938200961 0.9938200961 0.9938200961
0.9938048371 0.9938048371 0.9938048371
0.9937895781 0.9937895781 0.9937895781
0.9937743191 0.9937743191 0.9937743191
0.9937590600 0.9937590600 0.9937590600
0.9937438010 0.9937438010 0.9937438010
0.9937285420 0.9937285420 0.9937285420
0.9937132830 0.9937132830 0.9937132830
0.9936980240 0.9936980240 0.9936980240
0.9936827649 0.9936827649 0.9936827649
0.9936675059 0.9936675059 0.9936675059
0.9936522469 0.9936522469 0.9936522469
0.9936369879 0.9936369879 0.9936369879
0.9936217288 0.9936217288 0.9936217288
0.9936064698 0.9936064698 0.9936064698
0.9935912108 0.9935912108 0.9935912108
0.9935759518 0.9935759518 0.9935759518
0.9935606928 0.9935606928 0.9935606928
0.9935454337 0.9935454337 0.9935454337
0.9935301747 0.9935301747 0.9935301747
0.9935149157 0.9935149157 0.9935149157
0.9934996567 0.9934996567 0.9934996567
0.9934843977 0.9934843977 0.9934843977
0.9934691386 0.9934691386 0.9934691386
0.9934538796 0.9934538796 0.9934538796
0.9934386206 0.9934386206 0.9934386206
0.9934233616 0.9934233616 0.9934233616
0.9934081025 0.9934081025 0.9934081025
0.9933928435 0.9933928435 0.9933928435
0.9933775845 0.9933775845 0.9933775845
0.9933623255 0.9933623255 0.9933623255
0.9933470665 0.9933470665 0.9933470665
0.9933318074 0.9933318074 0.9933318074
0.9933165484 0.9933165484 0.9933165484
0.9933012894 0.9933012894 0.9933012894
0.9932860304 0.9932860304 0.9932860304
0.9932707713 0.9932707713 0.9932707713
0.9932555123 0.9932555123 0.9932555123
0.9932402533 0.9932402533 0.9932402533
0.9932249943 0.9932249943 0.9932249943
0.9932097353 0.9932097353 0.9932097353
0.9931944762 0.9931944762 0.9931944762
0.9931792172 0.9931792172 0.9931792172
0.9931639582 0.9931639582 0.9931639582
0.9931486992 0.9931486992 0.9931486992
0.9931334401 0.9931334401 0.9931334401
0.9931181811 0.9931181811 0.9931181811
0.9931029221 0.9931029221 0.9931029221
0.9930876631 0.9930876631 0.9930876631
0.9930724041 0.9930724041 0.9930724041
0.9930571450 0.9930571450 0.9930571450
0.9930418860 0.9930418860 0.9930418860
0.9930266270 0.9930266270 0.9930266270
0.9930113680 0.9930113680 0.9930113680
0.9929961089 0.9929961089 0.9929961089
0.9929808499 0.9929808499 0.9929808499
0.9929655909 0.9929655909 0.9929655909
0.9929503319 0.9929503319 0.9929503319
0.9929350729 0.9929350729 0.9929350729
0.9929198138 0.9929198138 0.9929198138
0.9929045548 0.9929045548 0.9929045548
0.9928892958 0.9928892958 0.9928892958
0.9928740368 0.9928740368 0.9928740368
0.9928587778 0.9928587778 0.9928587778
0.9928435187 0.9928435187 0.9928435187
0.9928282597 0.9928282597 0.9928282597
0.9928130007 0.9928130007 0.9928130007
0.9927977417 0.9927977417 0.9927977417
0.9927824826 0.9927824826 0.9927824826
0.9927672236 0.9927672236 0.9927672236
0.9927519646 0.9927519646 0.9927519646
0.9927367056 0.9927367056 0.9927367056
0.9927214466 0.9927214466 0.9927214466
0.9927061875 0.9927061875 0.9927061875
0.9926909285 0.9926909285 0.9926909285
0.9926756695 0.9926756695 0.9926756695
0.9926604105 0.9926604105 0.9926604105
0.9926451514 0.9926451514 0.9926451514
0.9926298924 0.9926298924 0.9926298924
0.9926146334 0.9926146334 0.9926146334
0.9925993744 0.9925993744 0.9925993744
0.9925841154 0.9925841154 0.9925841154
0.9925688563 0.9925688563 0.9925688563
0.9925535973 0.9925535973 0.9925535973
0.9925383383 0.9925383383 0.9925383383
0.9925230793 0.9925230793 0.9925230793
0.9925078202 0.9925078202 0.9925078202
0.9924925612 0.9924925612 0.9924925612
0.9924773022 0.9924773022 0.9924773022
0.9924620432 0.9924620432 0.9924620432
0.9924467842 0.9924467842 0.9924467842
0.9924315251 0.9924315251 0.9924315251
0.9924162661 0.9924162661 0.9924162661
0.9924010071 0.9924010071 0.9924010071
0.9923857481 0.9923857481 0.9923857481
0.9923704891 0.9923704891 0.9923704891
0.9923552300 0.9923552300 0.9923552300
0.9923399710 0.9923399710 0.9923399710
0.9923247120 0.9923247120 0.9923247120
0.9923094530 0.9923094530 0.9923094530
0.9922941939 0.9922941939 0.9922941939
0.9922789349 0.9922789349 0.9922789349
0.9922636759 0.9922636759 0.9922636759
0.9922484169 0.9922484169 0.9922484169
0.9922331579 0.9922331579 0.9922331579
0.9922178988 0.9922178988 0.9922178988
0.9922026398 0.9922026398 0.9922026398
0.9921873808 0.9921873808 0.9921873808
0.9921721218 0.9921721218 0.9921721218
0.9921568627 0.9921568627 0.9921568627
0.9921416037 0.9921416037 0.9921416037
0.9921263447 0.9921263447 0.9921263447
0.9921110857 0.9921110857 0.9921110857
0.9920958267 0.9920958267 0.9920958267
0.9920805676 0.9920805676 0.9920805676
0.9920653086 0.9920653086 0.9920653086
0.9920500496 0.9920500496 0.9920500496
0.9920347906 0.9920347906 0.9920347906
0.9920195315 0.9920195315 0.9920195315
0.9920042725 0.9920042725 0.9920042725
0.9919890135 0.9919890135 0.9919890135
0.9919737545 0.9919737545 0.9919737545
0.9919584955 0.9919584955 0.9919584955
0.9919432364 0.9919432364 0.9919432364
0.9919279774 0.9919279774 0.9919279774
0.9919127184 0.9919127184 0.9919127184
0.9918974594 0.9918974594 0.9918974594
0.9918822004 0.9918822004 0.9918822004
0.9918669413 0.9918669413 0.9918669413
0.9918516823 0.9918516823 0.9918516823
0.9918364233 0.9918364233 0.9918364233
0.9918211643 0.9918211643 0.9918211643
0.9918059052 0.9918059052 0.9918059052
0.9917906462 0.9917906462 0.9917906462
0.9917753872 0.9917753872 0.9917753872
0.9917601282 0.9917601282 0.9917601282
0.9917448692 0.9917448692 0.9917448692
0.9917296101 0.9917296101 0.9917296101
0.9917143511 0.9917143511 0.9917143511
0.9916990921 0.9916990921 0.9916990921
0.9916838331 0.9916838331 0.9916838331
0.9916685740 0.9916685740 0.9916685740
0.9916533150 0.9916533150 0.9916533150
0.9916380560 0.9916380560 0.9916380560
0.9916227970 0.9916227970 0.9916227970
0.9916075380 0.9916075380 0.9916075380
0.9915922789 0.9915922789 0.9915922789
0.9915770199 0.9915770199 0.9915770199
0.9915617609 0.9915617609 0.9915617609
0.9915465019 0.9915465019 0.9915465019
0.9915312428 0.9915312428 0.9915312428
0.9915159838 0.9915159838 0.9915159838
0.9915007248 0.9915007248 0.9915007248
0.9914854658 0.9914854658 0.9914854658
0.9914702068 0.9914702068 0.9914702068
0.9914549477 0.9914549477 0.9914549477
0.9914396887 0.9914396887 0.9914396887
0.9914244297 0.9914244297 0.9914244297
0.9914091707 0.9914091707 0.9914091707
0.9913939117 0.9913939117 0.9913939117
0.9913786526 0.9913786526 0.9913786526
0.9913633936 0.9913633936 0.9913633936
0.9913481346 0.9913481346 0.9913481346
0.9913328756 0.9913328756 0.9913328756
0.9913176165 0.9913176165 0.9913176165
0.9913023575 0.9913023575 0.9913023575
0.9912870985 0.9912870985 0.9912870985
0.9912718395 0.9912718395 0.9912718395
0.9912565805 0.9912565805 0.9912565805
0.9912413214 0.9912413214 0.9912413214
0.9912260624 0.9912260624 0.9912260624
0.9912108034 0.9912108034 0.9912108034
0.9911955444 0.9911955444 0.9911955444
0.9911802853 0.9911802853 0.9911802853
0.9911650263 0.9911650263 0.9911650263
0.9911497673 0.9911497673 0.9911497673
0.9911345083 0.9911345083 0.9911345083
0.9911192493 0.9911192493 0.9911192493
0.9911039902 0.9911039902 0.9911039902
0.9910887312 0.9910887312 0.9910887312
0.9910734722 0.9910734722 0.9910734722
0.9910582132 0.9910582132 0.9910582132
0.9910429541 0.9910429541 0.9910429541
0.9910276951 0.9910276951 0.9910276951
0.9910124361 0.9910124361 0.9910124361
0.9909971771 0.9909971771 0.9909971771
0.9909819181 0.9909819181 0.9909819181
0.9909666590 0.9909666590 0.9909666590
0.9909514000 0.9909514000 0.9909514000
0.9909361410 0.9909361410 0.9909361410
0.9909208820 0.9909208820 0.9909208820
0.9909056229 0.9909056229 0.9909056229
0.9908903639 0.9908903639 0.9908903639
0.9908751049 0.9908751049 0.9908751049
0.9908598459 0.9908598459 0.9908598459
0.9908445869 0.9908445869 0.9908445869
0.9908293278 0.9908293278 0.9908293278
0.9908140688 0.9908140688 0.9908140688
0.9907988098 0.9907988098 0.9907988098
0.9907835508 0.9907835508 0.9907835508
0.9907682918 0.9907682918 0.9907682918
0.9907530327 0.9907530327 0.9907530327
0.9907377737 0.9907377737 0.9907377737
0.9907225147 0.9907225147 0.9907225147
0.9907072557 0.9907072557 0.9907072557
0.9906919966 0.9906919966 0.9906919966
