LutTests/Cube/1D/negative_1D_4.cube
TITLE "Generated Negative 1D LUT (4)"
LUT_1D_SIZE 4
DOMAIN_MIN 0.0 0.0 0.0
DOMAIN_MAX 1.0 1.0 1.0

# LUT Data Points (R G B)
1.0000000000 1.0000000000 1.0000000000
0.6666666667 0.6666666667 0.6666666667
0.3333333333 0.3333333333 0.3333333333
0.0000000000 0.0000000000 0.0000000000
