LutTests/Cube/1D/negative_1D_16384.cube
TITLE "Generated Negative 1D LUT (16384)"
LUT_1D_SIZE 16384
DOMAIN_MIN 0.0 0.0 0.0
DOMAIN_MAX 1.0 1.0 1.0

# LUT Data Points (R G B)
1.0000000000 1.0000000000 1.0000000000
0.9999389611 0.9999389611 0.9999389611
0.9998779222 0.9998779222 0.9998779222
0.9998168834 0.9998168834 0.9998168834
0.9997558445 0.9997558445 0.9997558445
0.9996948056 0.9996948056 0.9996948056
0.9996337667 0.9996337667 0.9996337667
0.9995727278 0.9995727278 0.9995727278
0.9995116889 0.9995116889 0.9995116889
0.9994506501 0.9994506501 0.9994506501
0.9993896112 0.9993896112 0.9993896112
0.9993285723 0.9993285723 0.9993285723
0.9992675334 0.9992675334 0.9992675334
0.9992064945 0.9992064945 0.9992064945
0.9991454557 0.9991454557 0.9991454557
0.9990844168 0.9990844168 0.9990844168
0.9990233779 0.9990233779 0.9990233779
0.9989623390 0.9989623390 0.9989623390
0.9989013001 0.9989013001 0.9989013001
0.9988402612 0.9988402612 0.9988402612
0.9987792224 0.9987792224 0.9987792224
0.9987181835 0.9987181835 0.9987181835
0.9986571446 0.9986571446 0.9986571446
0.9985961057 0.9985961057 0.9985961057
0.9985350668 0.9985350668 0.9985350668
0.9984740280 0.9984740280 0.9984740280
0.9984129891 0.9984129891 0.9984129891
0.9983519502 0.9983519502 0.9983519502
0.9982909113 0.9982909113 0.9982909113
0.9982298724 0.9982298724 0.9982298724
0.9981688335 0.9981688335 0.9981688335
0.9981077947 0.9981077947 0.9981077947
0.9980467558 0.9980467558 0.9980467558
0.9979857169 0.9979857169 0.9979857169
0.9979246780 0.9979246780 0.9979246780
0.9978636391 0.9978636391 0.9978636391
0.9978026003 0.9978026003 0.9978026003
0.9977415614 0.9977415614 0.9977415614
0.9976805225 0.9976805225 0.9976805225
0.9976194836 0.9976194836 0.9976194836
0.9975584447 0.9975584447 0.9975584447
0.9974974058 0.9974974058 0.9974974058
0.9974363670 0.9974363670 0.9974363670
0.9973753281 0.9973753281 0.9973753281
0.9973142892 0.9973142892 0.9973142892
0.9972532503 0.9972532503 0.9972532503
0.9971922114 0.9971922114 0.9971922114
0.9971311726 0.9971311726 0.9971311726
0.9970701337 0.9970701337 0.9970701337
0.9970090948 0.9970090948 0.9970090948
0.9969480559 0.9969480559 0.9969480559
0.9968870170 0.9968870170 0.9968870170
0.9968259781 0.9968259781 0.9968259781
0.9967649393 0.9967649393 0.9967649393
0.9967039004 0.9967039004 0.9967039004
0.9966428615 0.9966428615 0.9966428615
0.9965818226 0.9965818226 0.9965818226
0.9965207837 0.9965207837 0.9965207837
0.9964597449 0.9964597449 0.9964597449
0.9963987060 0.9963987060 0.9963987060
0.9963376671 0.9963376671 0.9963376671
0.9962766282 0.9962766282 0.9962766282
0.9962155893 0.9962155893 0.9962155893
0.9961545504 0.9961545504 0.9961545504
0.9960935116 0.9960935116 0.9960935116
0.9960324727 0.9960324727 0.9960324727
0.9959714338 0.9959714338 0.9959714338
0.9959103949 0.9959103949 0.9959103949
0.9958493560 0.9958493560 0.9958493560
0.9957883172 0.9957883172 0.9957883172
0.9957272783 0.9957272783 0.9957272783
0.9956662394 0.9956662394 0.9956662394
0.9956052005 0.9956052005 0.9956052005
0.9955441616 0.9955441616 0.9955441616
0.9954831227 0.9954831227 0.9954831227
0.9954220839 0.9954220839 0.9954220839
0.9953610450 0.9953610450 0.9953610450
0.9953000061 0.9953000061 0.9953000061
0.9952389672 0.9952389672 0.9952389672
0.9951779283 0.9951779283 0.9951779283
0.9951168895 0.9951168895 0.9951168895
0.9950558506 0.9950558506 0.9950558506
0.9949948117 0.9949948117 0.9949948117
0.9949337728 0.9949337728 0.9949337728
0.9948727339 0.9948727339 0.9948727339
0.9948116950 0.9948116950 0.9948116950
0.9947506562 0.9947506562 0.9947506562
0.9946896173 0.9946896173 0.9946896173
0.9946285784 0.9946285784 0.9946285784
0.9945675395 0.9945675395 0.9945675395
0.9945065006 0.9945065006 0.9945065006
0.9944454618 0.9944454618 0.9944454618
0.9943844229 0.9943844229 0.9943844229
0.9943233840 0.9943233840 0.9943233840
0.9942623451 0.9942623451 0.9942623451
0.9942013062 0.9942013062 0.9942013062
0.9941402674 0.9941402674 0.9941402674
0.9940792285 0.9940792285 0.9940792285
0.9940181896 0.9940181896 0.9940181896
0.9939571507 0.9939571507 0.9939571507
0.9938961118 0.9938961118 0.9938961118
0.9938350729 0.9938350729 0.9938350729
0.9937740341 0.9937740341 0.9937740341
0.9937129952 0.9937129952 0.9937129952
0.9936519563 0.9936519563 0.9936519563
0.9935909174 0.9935909174 0.9935909174
0.9935298785 0.9935298785 0.9935298785
0.9934688397 0.9934688397 0.9934688397
0.9934078008 0.9934078008 0.9934078008
0.9933467619 0.9933467619 0.9933467619
0.9932857230 0.9932857230 0.9932857230
0.9932246841 0.9932246841 0.9932246841
0.9931636452 0.9931636452 0.9931636452
0.9931026064 0.9931026064 0.9931026064
0.9930415675 0.9930415675 0.9930415675
0.9929805286 0.9929805286 0.9929805286
0.9929194897 0.9929194897 0.9929194897
0.9928584508 0.9928584508 0.9928584508
0.9927974120 0.9927974120 0.9927974120
0.9927363731 0.9927363731 0.9927363731
0.9926753342 0.9926753342 0.9926753342
0.9926142953 0.9926142953 0.9926142953
0.9925532564 0.9925532564 0.9925532564
0.9924922175 0.9924922175 0.9924922175
0.9924311787 0.9924311787 0.9924311787
0.9923701398 0.9923701398 0.9923701398
0.9923091009 0.9923091009 0.9923091009
0.9922480620 0.9922480620 0.9922480620
0.9921870231 0.9921870231 0.9921870231
0.9921259843 0.9921259843 0.9921259843
0.9920649454 0.9920649454 0.9920649454
0.9920039065 0.9920039065 0.9920039065
0.9919428676 0.9919428676 0.9919428676
0.9918818287 0.9918818287 0.9918818287
0.9918207898 0.9918207898 0.9918207898
0.9917597510 0.9917597510 0.9917597510
0.9916987121 0.9916987121 0.9916987121
0.9916376732 0.9916376732 0.9916376732
0.9915766343 0.9915766343 0.9915766343
0.9915155954 0.9915155954 0.9915155954
0.9914545566 0.9914545566 0.9914545566
0.9913935177 0.9913935177 0.9913935177
0.9913324788 0.9913324788 0.9913324788
0.9912714399 0.9912714399 0.9912714399
0.9912104010 0.9912104010 0.9912104010
0.9911493621 0.9911493621 0.9911493621
0.9910883233 0.9910883233 0.9910883233
0.9910272844 0.9910272844 0.9910272844
0.9909662455 0.9909662455 0.9909662455
0.9909052066 0.9909052066 0.9909052066
0.9908441677 0.9908441677 0.9908441677
0.9907831289 0.9907831289 0.9907831289
0.9907220900 0.9907220900 0.9907220900
0.9906610511 0.9906610511 0.9906610511
0.9906000122 0.9906000122 0.9906000122
0.9905389733 0.9905389733 0.9905389733
0.9904779344 0.9904779344 0.9904779344
0.9904168956 0.9904168956 0.9904168956
0.9903558567 0.9903558567 0.9903558567
0.9902948178 0.9902948178 0.9902948178
0.9902337789 0.9902337789 0.9902337789
0.9901727400 0.9901727400 0.9901727400
0.9901117012 0.9901117012 0.9901117012
0.9900506623 0.9900506623 0.9900506623
0.9899896234 0.9899896234 0.9899896234
0.9899285845 0.9899285845 0.9899285845
0.9898675456 0.9898675456 0.9898675456
0.9898065067 0.9898065067 0.9898065067
0.9897454679 0.9897454679 0.9897454679
0.9896844290 0.9896844290 0.9896844290
0.9896233901 0.9896233901 0.9896233901
0.9895623512 0.9895623512 0.9895623512
0.9895013123 0.9895013123 0.9895013123
0.9894402735 0.9894402735 0.9894402735
0.9893792346 0.9893792346 0.9893792346
0.9893181957 0.9893181957 0.9893181957
0.9892571568 0.9892571568 0.9892571568
0.9891961179 0.9891961179 0.9891961179
0.9891350790 0.9891350790 0.9891350790
0.9890740402 0.9890740402 0.9890740402
0.9890130013 0.9890130013 0.9890130013
0.9889519624 0.9889519624 0.9889519624
0.9888909235 0.9888909235 0.9888909235
0.9888298846 0.9888298846 0.9888298846
0.9887688458 0.9887688458 0.9887688458
0.9887078069 0.9887078069 0.9887078069
0.9886467680 0.9886467680 0.9886467680
0.9885857291 0.9885857291 0.9885857291
0.9885246902 0.9885246902 0.9885246902
0.9884636513 0.9884636513 0.9884636513
0.9884026125 0.9884026125 0.9884026125
0.9883415736 0.9883415736 0.9883415736
0.9882805347 0.9882805347 0.9882805347
0.9882194958 0.9882194958 0.9882194958
0.9881584569 0.9881584569 0.9881584569
0.9880974181 0.9880974181 0.9880974181
0.9880363792 0.9880363792 0.9880363792
0.9879753403 0.9879753403 0.9879753403
0.9879143014 0.9879143014 0.9879143014
0.9878532625 0.9878532625 0.9878532625
0.9877922236 0.9877922236 0.9877922236
0.9877311848 0.9877311848 0.9877311848
0.9876701459 0.9876701459 0.9876701459
0.9876091070 0.9876091070 0.9876091070
0.9875480681 0.9875480681 0.9875480681
0.9874870292 0.9874870292 0.9874870292
0.9874259904 0.9874259904 0.9874259904
0.9873649515 0.9873649515 0.9873649515
0.9873039126 0.9873039126 0.9873039126
0.9872428737 0.9872428737 0.9872428737
0.9871818348 0.9871818348 0.9871818348
0.9871207959 0.9871207959 0.9871207959
0.9870597571 0.9870597571 0.9870597571
0.9869987182 0.9869987182 0.9869987182
0.9869376793 0.9869376793 0.9869376793
0.9868766404 0.9868766404 0.9868766404
0.9868156015 0.9868156015 0.9868156015
0.9867545627 0.9867545627 0.9867545627
0.9866935238 0.9866935238 0.9866935238
0.9866324849 0.9866324849 0.9866324849
0.9865714460 0.9865714460 0.9865714460
0.9865104071 0.9865104071 0.9865104071
0.9864493682 0.9864493682 0.9864493682
0.9863883294 0.9863883294 0.9863883294
0.9863272905 0.9863272905 0.9863272905
0.9862662516 0.9862662516 0.9862662516
0.9862052127 0.9862052127 0.9862052127
0.9861441738 0.9861441738 0.9861441738
0.9860831350 0.9860831350 0.9860831350
0.9860220961 0.9860220961 0.9860220961
0.9859610572 0.9859610572 0.9859610572
0.9859000183 0.9859000183 0.9859000183
0.9858389794 0.9858389794 0.9858389794
0.9857779405 0.9857779405 0.9857779405
0.9857169017 0.9857169017 0.9857169017
0.9856558628 0.9856558628 0.9856558628
0.9855948239 0.9855948239 0.9855948239
0.9855337850 0.9855337850 0.9855337850
0.9854727461 0.9854727461 0.9854727461
0.9854117073 0.9854117073 0.9854117073
0.9853506684 0.9853506684 0.9853506684
0.9852896295 0.9852896295 0.9852896295
0.9852285906 0.9852285906 0.9852285906
0.9851675517 0.9851675517 0.9851675517
0.9851065128 0.9851065128 0.9851065128
0.9850454740 0.9850454740 0.9850454740
0.9849844351 0.9849844351 0.9849844351
0.9849233962 0.9849233962 0.9849233962
0.9848623573 0.9848623573 0.9848623573
0.9848013184 0.9848013184 0.9848013184
0.9847402796 0.9847402796 0.9847402796
0.9846792407 0.9846792407 0.9846792407
0.9846182018 0.9846182018 0.9846182018
0.9845571629 0.9845571629 0.9845571629
0.9844961240 0.9844961240 0.9844961240
0.9844350851 0.9844350851 0.9844350851
0.9843740463 0.9843740463 0.9843740463
0.9843130074 0.9843130074 0.9843130074
0.9842519685 0.9842519685 0.9842519685
0.9841909296 0.9841909296 0.9841909296
0.9841298907 0.9841298907 0.9841298907
0.9840688519 0.9840688519 0.9840688519
0.9840078130 0.9840078130 0.9840078130
0.9839467741 0.9839467741 0.9839467741
0.9838857352 0.9838857352 0.9838857352
0.9838246963 0.9838246963 0.9838246963
0.9837636574 0.9837636574 0.9837636574
0.9837026186 0.9837026186 0.9837026186
0.9836415797 0.9836415797 0.9836415797
0.9835805408 0.9835805408 0.9835805408
0.9835195019 0.9835195019 0.9835195019
0.9834584630 0.9834584630 0.9834584630
0.9833974242 0.9833974242 0.9833974242
0.9833363853 0.9833363853 0.9833363853
0.9832753464 0.9832753464 0.9832753464
0.9832143075 0.9832143075 0.9832143075
0.9831532686 0.9831532686 0.9831532686
0.9830922298 0.9830922298 0.9830922298
0.9830311909 0.9830311909 0.9830311909
0.9829701520 0.9829701520 0.9829701520
0.9829091131 0.9829091131 0.9829091131
0.9828480742 0.9828480742 0.9828480742
0.9827870353 0.9827870353 0.9827870353
0.9827259965 0.9827259965 0.9827259965
0.9826649576 0.9826649576 0.9826649576
0.9826039187 0.9826039187 0.9826039187
0.9825428798 0.9825428798 0.9825428798
0.9824818409 0.9824818409 0.9824818409
0.9824208021 0.9824208021 0.9824208021
0.9823597632 0.9823597632 0.9823597632
0.9822987243 0.9822987243 0.9822987243
0.9822376854 0.9822376854 0.9822376854
0.9821766465 0.9821766465 0.9821766465
0.9821156076 0.9821156076 0.9821156076
0.9820545688 0.9820545688 0.9820545688
0.9819935299 0.9819935299 0.9819935299
0.9819324910 0.9819324910 0.9819324910
0.9818714521 0.9818714521 0.9818714521
0.9818104132 0.9818104132 0.9818104132
0.9817493744 0.9817493744 0.9817493744
0.9816883355 0.9816883355 0.9816883355
0.9816272966 0.9816272966 0.9816272966
0.9815662577 0.9815662577 0.9815662577
0.9815052188 0.9815052188 0.9815052188
0.9814441799 0.9814441799 0.9814441799
0.9813831411 0.9813831411 0.9813831411
0.9813221022 0.9813221022 0.9813221022
0.9812610633 0.9812610633 0.9812610633
0.9812000244 0.9812000244 0.9812000244
0.9811389855 0.9811389855 0.9811389855
0.9810779467 0.9810779467 0.9810779467
0.9810169078 0.9810169078 0.9810169078
0.9809558689 0.9809558689 0.9809558689
0.9808948300 0.9808948300 0.9808948300
0.9808337911 0.9808337911 0.9808337911
0.9807727522 0.9807727522 0.9807727522
0.9807117134 0.9807117134 0.9807117134
0.9806506745 0.9806506745 0.9806506745
0.9805896356 0.9805896356 0.9805896356
0.9805285967 0.9805285967 0.9805285967
0.9804675578 0.9804675578 0.9804675578
0.9804065190 0.9804065190 0.9804065190
0.9803454801 0.9803454801 0.9803454801
0.9802844412 0.9802844412 0.9802844412
0.9802234023 0.9802234023 0.9802234023
0.9801623634 0.9801623634 0.9801623634
0.9801013245 0.9801013245 0.9801013245
0.9800402857 0.9800402857 0.9800402857
0.9799792468 0.9799792468 0.9799792468
0.9799182079 0.9799182079 0.9799182079
0.9798571690 0.9798571690 0.9798571690
0.9797961301 0.9797961301 0.9797961301
0.9797350913 0.9797350913 0.9797350913
0.9796740524 0.9796740524 0.9796740524
0.9796130135 0.9796130135 0.9796130135
0.9795519746 0.9795519746 0.9795519746
0.9794909357 0.9794909357 0.9794909357
0.9794298968 0.9794298968 0.9794298968
0.9793688580 0.9793688580 0.9793688580
0.9793078191 0.9793078191 0.9793078191
0.9792467802 0.9792467802 0.9792467802
0.9791857413 0.9791857413 0.9791857413
0.9791247024 0.9791247024 0.9791247024
0.9790636636 0.9790636636 0.9790636636
0.9790026247 0.9790026247 0.9790026247
0.9789415858 0.9789415858 0.9789415858
0.9788805469 0.9788805469 0.9788805469
0.9788195080 0.9788195080 0.9788195080
0.9787584691 0.9787584691 0.9787584691
0.9786974303 0.9786974303 0.9786974303
0.9786363914 0.9786363914 0.9786363914
0.9785753525 0.9785753525 0.9785753525
0.9785143136 0.9785143136 0.9785143136
0.9784532747 0.9784532747 0.9784532747
0.9783922359 0.9783922359 0.9783922359
0.9783311970 0.9783311970 0.9783311970
0.9782701581 0.9782701581 0.9782701581
0.9782091192 0.9782091192 0.9782091192
0.9781480803 0.9781480803 0.9781480803
0.9780870414 0.9780870414 0.9780870414
0.9780260026 0.9780260026 0.9780260026
0.9779649637 0.9779649637 0.9779649637
0.9779039248 0.9779039248 0.9779039248
0.9778428859 0.9778428859 0.9778428859
0.9777818470 0.9777818470 0.9777818470
0.9777208082 0.9777208082 0.9777208082
0.9776597693 0.9776597693 0.9776597693
0.9775987304 0.9775987304 0.9775987304
0.9775376915 0.9775376915 0.9775376915
0.9774766526 0.9774766526 0.9774766526
0.9774156137 0.9774156137 0.9774156137
0.9773545749 0.9773545749 0.9773545749
0.9772935360 0.9772935360 0.9772935360
0.9772324971 0.9772324971 0.9772324971
0.9771714582 0.9771714582 0.9771714582
0.9771104193 0.9771104193 0.9771104193
0.9770493805 0.9770493805 0.9770493805
0.9769883416 0.9769883416 0.9769883416
0.9769273027 0.9769273027 0.9769273027
0.9768662638 0.9768662638 0.9768662638
0.9768052249 0.9768052249 0.9768052249
0.9767441860 0.9767441860 0.9767441860
0.9766831472 0.9766831472 0.9766831472
0.9766221083 0.9766221083 0.9766221083
0.9765610694 0.9765610694 0.9765610694
0.9765000305 0.9765000305 0.9765000305
0.9764389916 0.9764389916 0.9764389916
0.9763779528 0.9763779528 0.9763779528
0.9763169139 0.9763169139 0.9763169139
0.9762558750 0.9762558750 0.9762558750
0.9761948361 0.9761948361 0.9761948361
0.9761337972 0.9761337972 0.9761337972
0.9760727583 0.9760727583 0.9760727583
0.9760117195 0.9760117195 0.9760117195
0.9759506806 0.9759506806 0.9759506806
0.9758896417 0.9758896417 0.9758896417
0.9758286028 0.9758286028 0.9758286028
0.9757675639 0.9757675639 0.9757675639
0.9757065251 0.9757065251 0.9757065251
0.9756454862 0.9756454862 0.9756454862
0.9755844473 0.9755844473 0.9755844473
0.9755234084 0.9755234084 0.9755234084
0.9754623695 0.9754623695 0.9754623695
0.9754013306 0.9754013306 0.9754013306
0.9753402918 0.9753402918 0.9753402918
0.9752792529 0.9752792529 0.9752792529
0.9752182140 0.9752182140 0.9752182140
0.9751571751 0.9751571751 0.9751571751
0.9750961362 0.9750961362 0.9750961362
0.9750350974 0.9750350974 0.9750350974
0.9749740585 0.9749740585 0.9749740585
0.9749130196 0.9749130196 0.9749130196
0.9748519807 0.9748519807 0.9748519807
0.9747909418 0.9747909418 0.9747909418
0.9747299029 0.9747299029 0.9747299029
0.9746688641 0.9746688641 0.9746688641
0.9746078252 0.9746078252 0.9746078252
0.9745467863 0.9745467863 0.9745467863
0.9744857474 0.9744857474 0.9744857474
0.9744247085 0.9744247085 0.9744247085
0.9743636697 0.9743636697 0.9743636697
0.9743026308 0.9743026308 0.9743026308
0.9742415919 0.9742415919 0.9742415919
0.9741805530 0.9741805530 0.9741805530
0.9741195141 0.9741195141 0.9741195141
0.9740584752 0.9740584752 0.9740584752
0.9739974364 0.9739974364 0.9739974364
0.9739363975 0.9739363975 0.9739363975
0.9738753586 0.9738753586 0.9738753586
0.9738143197 0.9738143197 0.9738143197
0.9737532808 0.9737532808 0.9737532808
0.9736922420 0.9736922420 0.9736922420
0.9736312031 0.9736312031 0.9736312031
0.9735701642 0.9735701642 0.9735701642
0.9735091253 0.9735091253 0.9735091253
0.9734480864 0.9734480864 0.9734480864
0.9733870475 0.9733870475 0.9733870475
0.9733260087 0.9733260087 0.9733260087
0.9732649698 0.9732649698 0.9732649698
0.9732039309 0.9732039309 0.9732039309
0.9731428920 0.9731428920 0.9731428920
0.9730818531 0.9730818531 0.9730818531
0.9730208143 0.9730208143 0.9730208143
0.9729597754 0.9729597754 0.9729597754
0.9728987365 0.9728987365 0.9728987365
0.9728376976 0.9728376976 0.9728376976
0.9727766587 0.9727766587 0.9727766587
0.9727156198 0.9727156198 0.9727156198
0.9726545810 0.9726545810 0.9726545810
0.9725935421 0.9725935421 0.9725935421
0.9725325032 0.9725325032 0.9725325032
0.9724714643 0.9724714643 0.9724714643
0.9724104254 0.9724104254 0.9724104254
0.9723493866 0.9723493866 0.9723493866
0.9722883477 0.9722883477 0.9722883477
0.9722273088 0.9722273088 0.9722273088
0.9721662699 0.9721662699 0.9721662699
0.9721052310 0.9721052310 0.9721052310
0.9720441922 0.9720441922 0.9720441922
0.9719831533 0.9719831533 0.9719831533
0.9719221144 0.9719221144 0.9719221144
0.9718610755 0.9718610755 0.9718610755
0.9718000366 0.9718000366 0.9718000366
0.9717389977 0.9717389977 0.9717389977
0.9716779589 0.9716779589 0.9716779589
0.9716169200 0.9716169200 0.9716169200
0.9715558811 0.9715558811 0.9715558811
0.9714948422 0.9714948422 0.9714948422
0.9714338033 0.9714338033 0.9714338033
0.9713727645 0.9713727645 0.9713727645
0.9713117256 0.9713117256 0.9713117256
0.9712506867 0.9712506867 0.9712506867
0.9711896478 0.9711896478 0.9711896478
0.9711286089 0.9711286089 0.9711286089
0.9710675700 0.9710675700 0.9710675700
0.9710065312 0.9710065312 0.9710065312
0.9709454923 0.9709454923 0.9709454923
0.9708844534 0.9708844534 0.9708844534
0.9708234145 0.9708234145 0.9708234145
0.9707623756 0.9707623756 0.9707623756
0.9707013368 0.9707013368 0.9707013368
0.9706402979 0.9706402979 0.9706402979
0.9705792590 0.9705792590 0.9705792590
0.9705182201 0.9705182201 0.9705182201
0.9704571812 0.9704571812 0.9704571812
0.9703961423 0.9703961423 0.9703961423
0.9703351035 0.9703351035 0.9703351035
0.9702740646 0.9702740646 0.9702740646
0.9702130257 0.9702130257 0.9702130257
0.9701519868 0.9701519868 0.9701519868
0.9700909479 0.9700909479 0.9700909479
0.9700299091 0.9700299091 0.9700299091
0.9699688702 0.9699688702 0.9699688702
0.9699078313 0.9699078313 0.9699078313
0.9698467924 0.9698467924 0.9698467924
0.9697857535 0.9697857535 0.9697857535
0.9697247146 0.9697247146 0.9697247146
0.9696636758 0.9696636758 0.9696636758
0.9696026369 0.9696026369 0.9696026369
0.9695415980 0.9695415980 0.9695415980
0.9694805591 0.9694805591 0.9694805591
0.9694195202 0.9694195202 0.9694195202
0.9693584814 0.9693584814 0.9693584814
0.9692974425 0.9692974425 0.9692974425
0.9692364036 0.9692364036 0.9692364036
0.9691753647 0.9691753647 0.9691753647
0.9691143258 0.9691143258 0.9691143258
0.9690532869 0.9690532869 0.9690532869
0.9689922481 0.9689922481 0.9689922481
0.9689312092 0.9689312092 0.9689312092
0.9688701703 0.9688701703 0.9688701703
0.9688091314 0.9688091314 0.9688091314
0.9687480925 0.9687480925 0.9687480925
0.9686870537 0.9686870537 0.9686870537
0.9686260148 0.9686260148 0.9686260148
0.9685649759 0.9685649759 0.9685649759
0.9685039370 0.9685039370 0.9685039370
0.9684428981 0.9684428981 0.9684428981
0.9683818592 0.9683818592 0.9683818592
0.9683208204 0.9683208204 0.9683208204
0.9682597815 0.9682597815 0.9682597815
0.9681987426 0.9681987426 0.9681987426
0.9681377037 0.9681377037 0.9681377037
0.9680766648 0.9680766648 0.9680766648
0.9680156260 0.9680156260 0.9680156260
0.9679545871 0.9679545871 0.9679545871
0.9678935482 0.9678935482 0.9678935482
0.9678325093 0.9678325093 0.9678325093
0.9677714704 0.9677714704 0.9677714704
0.9677104315 0.9677104315 0.9677104315
0.9676493927 0.9676493927 0.9676493927
0.9675883538 0.9675883538 0.9675883538
0.9675273149 0.9675273149 0.9675273149
0.9674662760 0.9674662760 0.9674662760
0.9674052371 0.9674052371 0.9674052371
0.9673441983 0.9673441983 0.9673441983
0.9672831594 0.9672831594 0.9672831594
0.9672221205 0.9672221205 0.9672221205
0.9671610816 0.9671610816 0.9671610816
0.9671000427 0.9671000427 0.9671000427
0.9670390038 0.9670390038 0.9670390038
0.9669779650 0.9669779650 0.9669779650
0.9669169261 0.9669169261 0.9669169261
0.9668558872 0.9668558872 0.9668558872
0.9667948483 0.9667948483 0.9667948483
0.9667338094 0.9667338094 0.9667338094
0.9666727706 0.9666727706 0.9666727706
0.9666117317 0.9666117317 0.9666117317
0.9665506928 0.9665506928 0.9665506928
0.9664896539 0.9664896539 0.9664896539
0.9664286150 0.9664286150 0.9664286150
0.9663675761 0.9663675761 0.9663675761
0.9663065373 0.9663065373 0.9663065373
0.9662454984 0.9662454984 0.9662454984
0.9661844595 0.9661844595 0.9661844595
0.9661234206 0.9661234206 0.9661234206
0.9660623817 0.9660623817 0.9660623817
0.9660013429 0.9660013429 0.9660013429
0.9659403040 0.9659403040 0.9659403040
0.9658792651 0.9658792651 0.9658792651
0.9658182262 0.9658182262 0.9658182262
0.9657571873 0.9657571873 0.9657571873
0.9656961484 0.9656961484 0.9656961484
0.9656351096 0.9656351096 0.9656351096
0.9655740707 0.9655740707 0.9655740707
0.9655130318 0.9655130318 0.9655130318
0.9654519929 0.9654519929 0.9654519929
0.9653909540 0.9653909540 0.9653909540
0.9653299152 0.9653299152 0.9653299152
0.9652688763 0.9652688763 0.9652688763
0.9652078374 0.9652078374 0.9652078374
0.9651467985 0.9651467985 0.9651467985
0.9650857596 0.9650857596 0.9650857596
0.9650247207 0.9650247207 0.9650247207
0.9649636819 0.9649636819 0.9649636819
0.9649026430 0.9649026430 0.9649026430
0.9648416041 0.9648416041 0.9648416041
0.9647805652 0.9647805652 0.9647805652
0.9647195263 0.9647195263 0.9647195263
0.9646584875 0.9646584875 0.9646584875
0.9645974486 0.9645974486 0.9645974486
0.9645364097 0.9645364097 0.9645364097
0.9644753708 0.9644753708 0.9644753708
0.9644143319 0.9644143319 0.9644143319
0.9643532930 0.9643532930 0.9643532930
0.9642922542 0.9642922542 0.9642922542
0.9642312153 0.9642312153 0.9642312153
0.9641701764 0.9641701764 0.9641701764
0.9641091375 0.9641091375 0.9641091375
0.9640480986 0.9640480986 0.9640480986
0.9639870598 0.9639870598 0.9639870598
0.9639260209 0.9639260209 0.9639260209
0.9638649820 0.9638649820 0.9638649820
0.9638039431 0.9638039431 0.9638039431
0.9637429042 0.9637429042 0.9637429042
0.9636818653 0.9636818653 0.9636818653
0.9636208265 0.9636208265 0.9636208265
0.9635597876 0.9635597876 0.9635597876
0.9634987487 0.9634987487 0.9634987487
0.9634377098 0.9634377098 0.9634377098
0.9633766709 0.9633766709 0.9633766709
0.9633156321 0.9633156321 0.9633156321
0.9632545932 0.9632545932 0.9632545932
0.9631935543 0.9631935543 0.9631935543
0.9631325154 0.9631325154 0.9631325154
0.9630714765 0.9630714765 0.9630714765
0.9630104376 0.9630104376 0.9630104376
0.9629493988 0.9629493988 0.9629493988
0.9628883599 0.9628883599 0.9628883599
0.9628273210 0.9628273210 0.9628273210
0.9627662821 0.9627662821 0.9627662821
