LutTests/Cube/1D/negative_1D_32768.cube
TITLE "Generated Negative 1D LUT (32768)"
LUT_1D_SIZE 32768
DOMAIN_MIN 0.0 0.0 0.0
DOMAIN_MAX 1.0 1.0 1.0

# LUT Data Points (R G B)
1.0000000000 1.0000000000 1.0000000000
0.9999694815 0.9999694815 0.9999694815
0.9999389630 0.9999389630 0.9999389630
0.9999084445 0.9999084445 0.9999084445
0.9998779260 0.9998779260 0.9998779260
0.9998474075 0.9998474075 0.9998474075
0.9998168889 0.9998168889 0.9998168889
0.9997863704 0.9997863704 0.9997863704
0.9997558519 0.9997558519 0.9997558519
0.9997253334 0.9997253334 0.9997253334
0.9996948149 0.9996948149 0.9996948149
0.9996642964 0.9996642964 0.9996642964
0.9996337779 0.9996337779 0.9996337779
0.9996032594 0.9996032594 0.9996032594
0.9995727409 0.9995727409 0.9995727409
0.9995422224 0.9995422224 0.9995422224
0.9995117038 0.9995117038 0.9995117038
0.9994811853 0.9994811853 0.9994811853
0.9994506668 0.9994506668 0.9994506668
0.9994201483 0.9994201483 0.9994201483
0.9993896298 0.9993896298 0.9993896298
0.9993591113 0.9993591113 0.9993591113
0.9993285928 0.9993285928 0.9993285928
0.9992980743 0.9992980743 0.9992980743
0.9992675558 0.9992675558 0.9992675558
0.9992370373 0.9992370373 0.9992370373
0.9992065188 0.9992065188 0.9992065188
0.9991760002 0.9991760002 0.9991760002
0.9991454817 0.9991454817 0.9991454817
0.9991149632 0.9991149632 0.9991149632
0.9990844447 0.9990844447 0.9990844447
0.9990539262 0.9990539262 0.9990539262
0.9990234077 0.9990234077 0.9990234077
0.9989928892 0.9989928892 0.9989928892
0.9989623707 0.9989623707 0.9989623707
0.9989318522 0.9989318522 0.9989318522
0.9989013337 0.9989013337 0.9989013337
0.9988708151 0.9988708151 0.9988708151
0.9988402966 0.9988402966 0.9988402966
0.9988097781 0.9988097781 0.9988097781
0.9987792596 0.9987792596 0.9987792596
0.9987487411 0.9987487411 0.9987487411
0.9987182226 0.9987182226 0.9987182226
0.9986877041 0.9986877041 0.9986877041
0.9986571856 0.9986571856 0.9986571856
0.9986266671 0.9986266671 0.9986266671
0.9985961486 0.9985961486 0.9985961486
0.9985656301 0.9985656301 0.9985656301
0.9985351115 0.9985351115 0.9985351115
0.9985045930 0.9985045930 0.9985045930
0.9984740745 0.9984740745 0.9984740745
0.9984435560 0.9984435560 0.9984435560
0.9984130375 0.9984130375 0.9984130375
0.9983825190 0.9983825190 0.9983825190
0.9983520005 0.9983520005 0.9983520005
0.9983214820 0.9983214820 0.9983214820
0.9982909635 0.9982909635 0.9982909635
0.9982604450 0.9982604450 0.9982604450
0.9982299265 0.9982299265 0.9982299265
0.9981994079 0.9981994079 0.9981994079
0.9981688894 0.9981688894 0.9981688894
0.9981383709 0.9981383709 0.9981383709
0.9981078524 0.9981078524 0.9981078524
0.9980773339 0.9980773339 0.9980773339
0.9980468154 0.9980468154 0.9980468154
0.9980162969 0.9980162969 0.9980162969
0.9979857784 0.9979857784 0.9979857784
0.9979552599 0.9979552599 0.9979552599
0.9979247414 0.9979247414 0.9979247414
0.9978942228 0.9978942228 0.9978942228
0.9978637043 0.9978637043 0.9978637043
0.9978331858 0.9978331858 0.9978331858
0.9978026673 0.9978026673 0.9978026673
0.9977721488 0.9977721488 0.9977721488
0.9977416303 0.9977416303 0.9977416303
0.9977111118 0.9977111118 0.9977111118
0.9976805933 0.9976805933 0.9976805933
0.9976500748 0.9976500748 0.9976500748
0.9976195563 0.9976195563 0.9976195563
0.9975890378 0.9975890378 0.9975890378
0.9975585192 0.9975585192 0.9975585192
0.9975280007 0.9975280007 0.9975280007
0.9974974822 0.9974974822 0.9974974822
0.9974669637 0.9974669637 0.9974669637
0.9974364452 0.9974364452 0.9974364452
0.9974059267 0.9974059267 0.9974059267
0.9973754082 0.9973754082 0.9973754082
0.9973448897 0.9973448897 0.9973448897
0.9973143712 0.9973143712 0.9973143712
0.9972838527 0.9972838527 0.9972838527
0.9972533341 0.9972533341 0.9972533341
0.9972228156 0.9972228156 0.9972228156
0.9971922971 0.9971922971 0.9971922971
0.9971617786 0.9971617786 0.9971617786
0.9971312601 0.9971312601 0.9971312601
0.9971007416 0.9971007416 0.9971007416
0.9970702231 0.9970702231 0.9970702231
0.9970397046 0.9970397046 0.9970397046
0.9970091861 0.9970091861 0.9970091861
0.9969786676 0.9969786676 0.9969786676
0.9969481491 0.9969481491 0.9969481491
0.9969176305 0.9969176305 0.9969176305
0.9968871120 0.9968871120 0.9968871120
0.9968565935 0.9968565935 0.9968565935
0.9968260750 0.9968260750 0.9968260750
0.9967955565 0.9967955565 0.9967955565
0.9967650380 0.9967650380 0.9967650380
0.9967345195 0.9967345195 0.9967345195
0.9967040010 0.9967040010 0.9967040010
0.9966734825 0.9966734825 0.9966734825
0.9966429640 0.9966429640 0.9966429640
0.9966124454 0.9966124454 0.9966124454
0.9965819269 0.9965819269 0.9965819269
0.9965514084 0.9965514084 0.9965514084
0.9965208899 0.9965208899 0.9965208899
0.9964903714 0.9964903714 0.9964903714
0.9964598529 0.9964598529 0.9964598529
0.9964293344 0.9964293344 0.9964293344
0.9963988159 0.9963988159 0.9963988159
0.9963682974 0.9963682974 0.9963682974
0.9963377789 0.9963377789 0.9963377789
0.9963072604 0.9963072604 0.9963072604
0.9962767418 0.9962767418 0.9962767418
0.9962462233 0.9962462233 0.9962462233
0.9962157048 0.9962157048 0.9962157048
0.9961851863 0.9961851863 0.9961851863
0.9961546678 0.9961546678 0.9961546678
0.9961241493 0.9961241493 0.9961241493
0.9960936308 0.9960936308 0.9960936308
0.9960631123 0.9960631123 0.9960631123
0.9960325938 0.9960325938 0.9960325938
0.9960020753 0.9960020753 0.9960020753
0.9959715567 0.9959715567 0.9959715567
0.9959410382 0.9959410382 0.9959410382
0.9959105197 0.9959105197 0.9959105197
0.9958800012 0.9958800012 0.9958800012
0.9958494827 0.9958494827 0.9958494827
0.9958189642 0.9958189642 0.9958189642
0.9957884457 0.9957884457 0.9957884457
0.9957579272 0.9957579272 0.9957579272
0.9957274087 0.9957274087 0.9957274087
0.9956968902 0.9956968902 0.9956968902
0.9956663717 0.9956663717 0.9956663717
0.9956358531 0.9956358531 0.9956358531
0.9956053346 0.9956053346 0.9956053346
0.9955748161 0.9955748161 0.9955748161
0.9955442976 0.9955442976 0.9955442976
0.9955137791 0.9955137791 0.9955137791
0.9954832606 0.9954832606 0.9954832606
0.9954527421 0.9954527421 0.9954527421
0.9954222236 0.9954222236 0.9954222236
0.9953917051 0.9953917051 0.9953917051
0.9953611866 0.9953611866 0.9953611866
0.9953306681 0.9953306681 0.9953306681
0.9953001495 0.9953001495 0.9953001495
0.9952696310 0.9952696310 0.9952696310
0.9952391125 0.9952391125 0.9952391125
0.9952085940 0.9952085940 0.9952085940
0.9951780755 0.9951780755 0.9951780755
0.9951475570 0.9951475570 0.9951475570
0.9951170385 0.9951170385 0.9951170385
0.9950865200 0.9950865200 0.9950865200
0.9950560015 0.9950560015 0.9950560015
0.9950254830 0.9950254830 0.9950254830
0.9949949644 0.9949949644 0.9949949644
0.9949644459 0.9949644459 0.9949644459
0.9949339274 0.9949339274 0.9949339274
0.9949034089 0.9949034089 0.9949034089
0.9948728904 0.9948728904 0.9948728904
0.9948423719 0.9948423719 0.9948423719
0.9948118534 0.9948118534 0.9948118534
0.9947813349 0.9947813349 0.9947813349
0.9947508164 0.9947508164 0.9947508164
0.9947202979 0.9947202979 0.9947202979
0.9946897794 0.9946897794 0.9946897794
0.9946592608 0.9946592608 0.9946592608
0.9946287423 0.9946287423 0.9946287423
0.9945982238 0.9945982238 0.9945982238
0.9945677053 0.9945677053 0.9945677053
0.9945371868 0.9945371868 0.9945371868
0.9945066683 0.9945066683 0.9945066683
0.9944761498 0.9944761498 0.9944761498
0.9944456313 0.9944456313 0.9944456313
0.9944151128 0.9944151128 0.9944151128
0.9943845943 0.9943845943 0.9943845943
0.9943540757 0.9943540757 0.9943540757
0.9943235572 0.9943235572 0.9943235572
0.9942930387 0.9942930387 0.9942930387
0.9942625202 0.9942625202 0.9942625202
0.9942320017 0.9942320017 0.9942320017
0.9942014832 0.9942014832 0.9942014832
0.9941709647 0.9941709647 0.9941709647
0.9941404462 0.9941404462 0.9941404462
0.9941099277 0.9941099277 0.9941099277
0.9940794092 0.9940794092 0.9940794092
0.9940488907 0.9940488907 0.9940488907
0.9940183721 0.9940183721 0.9940183721
0.9939878536 0.9939878536 0.9939878536
0.9939573351 0.9939573351 0.9939573351
0.9939268166 0.9939268166 0.9939268166
0.9938962981 0.9938962981 0.9938962981
0.9938657796 0.9938657796 0.9938657796
0.9938352611 0.9938352611 0.9938352611
0.9938047426 0.9938047426 0.9938047426
0.9937742241 0.9937742241 0.9937742241
0.9937437056 0.9937437056 0.9937437056
0.9937131870 0.9937131870 0.9937131870
0.9936826685 0.9936826685 0.9936826685
0.9936521500 0.9936521500 0.9936521500
0.9936216315 0.9936216315 0.9936216315
0.9935911130 0.9935911130 0.9935911130
0.9935605945 0.9935605945 0.9935605945
0.9935300760 0.9935300760 0.9935300760
0.9934995575 0.9934995575 0.9934995575
0.9934690390 0.9934690390 0.9934690390
0.9934385205 0.9934385205 0.9934385205
0.9934080020 0.9934080020 0.9934080020
0.9933774834 0.9933774834 0.9933774834
0.9933469649 0.9933469649 0.9933469649
0.9933164464 0.9933164464 0.9933164464
0.9932859279 0.9932859279 0.9932859279
0.9932554094 0.9932554094 0.9932554094
0.9932248909 0.9932248909 0.9932248909
0.9931943724 0.9931943724 0.9931943724
0.9931638539 0.9931638539 0.9931638539
0.9931333354 0.9931333354 0.9931333354
0.9931028169 0.9931028169 0.9931028169
0.9930722983 0.9930722983 0.9930722983
0.9930417798 0.9930417798 0.9930417798
0.9930112613 0.9930112613 0.9930112613
0.9929807428 0.9929807428 0.9929807428
0.9929502243 0.9929502243 0.9929502243
0.9929197058 0.9929197058 0.9929197058
0.9928891873 0.9928891873 0.9928891873
0.9928586688 0.9928586688 0.9928586688
0.9928281503 0.9928281503 0.9928281503
0.9927976318 0.9927976318 0.9927976318
0.9927671133 0.9927671133 0.9927671133
0.9927365947 0.9927365947 0.9927365947
0.9927060762 0.9927060762 0.9927060762
0.9926755577 0.9926755577 0.9926755577
0.9926450392 0.9926450392 0.9926450392
0.9926145207 0.9926145207 0.9926145207
0.9925840022 0.9925840022 0.9925840022
0.9925534837 0.9925534837 0.9925534837
0.9925229652 0.9925229652 0.9925229652
0.9924924467 0.9924924467 0.9924924467
0.9924619282 0.9924619282 0.9924619282
0.9924314096 0.9924314096 0.9924314096
0.9924008911 0.9924008911 0.9924008911
0.9923703726 0.9923703726 0.9923703726
0.9923398541 0.9923398541 0.9923398541
0.9923093356 0.9923093356 0.9923093356
0.9922788171 0.9922788171 0.9922788171
0.9922482986 0.9922482986 0.9922482986
0.9922177801 0.9922177801 0.9922177801
0.9921872616 0.9921872616 0.9921872616
0.9921567431 0.9921567431 0.9921567431
0.9921262246 0.9921262246 0.9921262246
0.9920957060 0.9920957060 0.9920957060
0.9920651875 0.9920651875 0.9920651875
0.9920346690 0.9920346690 0.9920346690
0.9920041505 0.9920041505 0.9920041505
0.9919736320 0.9919736320 0.9919736320
0.9919431135 0.9919431135 0.9919431135
0.9919125950 0.9919125950 0.9919125950
0.9918820765 0.9918820765 0.9918820765
0.9918515580 0.9918515580 0.9918515580
0.9918210395 0.9918210395 0.9918210395
0.9917905210 0.9917905210 0.9917905210
0.9917600024 0.9917600024 0.9917600024
0.9917294839 0.9917294839 0.9917294839
0.9916989654 0.9916989654 0.9916989654
0.9916684469 0.9916684469 0.9916684469
0.9916379284 0.9916379284 0.9916379284
0.9916074099 0.9916074099 0.9916074099
0.9915768914 0.9915768914 0.9915768914
0.9915463729 0.9915463729 0.9915463729
0.9915158544 0.9915158544 0.9915158544
0.9914853359 0.9914853359 0.9914853359
0.9914548173 0.9914548173 0.9914548173
0.9914242988 0.9914242988 0.9914242988
0.9913937803 0.9913937803 0.9913937803
0.9913632618 0.9913632618 0.9913632618
0.9913327433 0.9913327433 0.9913327433
0.9913022248 0.9913022248 0.9913022248
0.9912717063 0.9912717063 0.9912717063
0.9912411878 0.9912411878 0.9912411878
0.9912106693 0.9912106693 0.9912106693
0.9911801508 0.9911801508 0.9911801508
0.9911496323 0.9911496323 0.9911496323
0.9911191137 0.9911191137 0.9911191137
0.9910885952 0.9910885952 0.9910885952
0.9910580767 0.9910580767 0.9910580767
0.9910275582 0.9910275582 0.9910275582
0.9909970397 0.9909970397 0.9909970397
0.9909665212 0.9909665212 0.9909665212
0.9909360027 0.9909360027 0.9909360027
0.9909054842 0.9909054842 0.9909054842
0.9908749657 0.9908749657 0.9908749657
0.9908444472 0.9908444472 0.9908444472
0.9908139286 0.9908139286 0.9908139286
0.9907834101 0.9907834101 0.9907834101
0.9907528916 0.9907528916 0.9907528916
0.9907223731 0.9907223731 0.9907223731
0.9906918546 0.9906918546 0.9906918546
0.9906613361 0.9906613361 0.9906613361
0.9906308176 0.9906308176 0.9906308176
0.9906002991 0.9906002991 0.9906002991
0.9905697806 0.9905697806 0.9905697806
0.9905392621 0.9905392621 0.9905392621
0.9905087436 0.9905087436 0.9905087436
0.9904782250 0.9904782250 0.9904782250
0.9904477065 0.9904477065 0.9904477065
0.9904171880 0.9904171880 0.9904171880
0.9903866695 0.9903866695 0.9903866695
0.9903561510 0.9903561510 0.9903561510
0.9903256325 0.9903256325 0.9903256325
0.9902951140 0.9902951140 0.9902951140
0.9902645955 0.9902645955 0.9902645955
0.9902340770 0.9902340770 0.9902340770
0.9902035585 0.9902035585 0.9902035585
0.9901730399 0.9901730399 0.9901730399
0.9901425214 0.9901425214 0.9901425214
0.9901120029 0.9901120029 0.9901120029
0.9900814844 0.9900814844 0.9900814844
0.9900509659 0.9900509659 0.9900509659
0.9900204474 0.9900204474 0.9900204474
0.9899899289 0.9899899289 0.9899899289
0.9899594104 0.9899594104 0.9899594104
0.9899288919 0.9899288919 0.9899288919
0.9898983734 0.9898983734 0.9898983734
0.9898678549 0.9898678549 0.9898678549
0.9898373363 0.9898373363 0.9898373363
0.9898068178 0.9898068178 0.9898068178
0.9897762993 0.9897762993 0.9897762993
0.9897457808 0.9897457808 0.9897457808
0.9897152623 0.9897152623 0.9897152623
0.9896847438 0.9896847438 0.9896847438
0.9896542253 0.9896542253 0.9896542253
0.9896237068 0.9896237068 0.9896237068
0.9895931883 0.9895931883 0.9895931883
0.9895626698 0.9895626698 0.9895626698
0.9895321512 0.9895321512 0.9895321512
0.9895016327 0.9895016327 0.9895016327
0.9894711142 0.9894711142 0.9894711142
0.9894405957 0.9894405957 0.9894405957
0.9894100772 0.9894100772 0.9894100772
0.9893795587 0.9893795587 0.9893795587
0.9893490402 0.9893490402 0.9893490402
0.9893185217 0.9893185217 0.9893185217
0.9892880032 0.9892880032 0.9892880032
0.9892574847 0.9892574847 0.9892574847
0.9892269662 0.9892269662 0.9892269662
0.9891964476 0.9891964476 0.9891964476
0.9891659291 0.9891659291 0.9891659291
0.9891354106 0.9891354106 0.9891354106
0.9891048921 0.9891048921 0.9891048921
0.9890743736 0.9890743736 0.9890743736
0.9890438551 0.9890438551 0.9890438551
0.9890133366 0.9890133366 0.9890133366
0.9889828181 0.9889828181 0.9889828181
0.9889522996 0.9889522996 0.9889522996
0.9889217811 0.9889217811 0.9889217811
0.9888912626 0.9888912626 0.9888912626
0.9888607440 0.9888607440 0.9888607440
0.9888302255 0.9888302255 0.9888302255
0.9887997070 0.9887997070 0.9887997070
0.9887691885 0.9887691885 0.9887691885
0.9887386700 0.9887386700 0.9887386700
0.9887081515 0.9887081515 0.9887081515
0.9886776330 0.9886776330 0.9886776330
0.9886471145 0.9886471145 0.9886471145
0.9886165960 0.9886165960 0.9886165960
0.9885860775 0.9885860775 0.9885860775
0.9885555589 0.9885555589 0.9885555589
0.9885250404 0.9885250404 0.9885250404
0.9884945219 0.9884945219 0.9884945219
0.9884640034 0.9884640034 0.9884640034
0.9884334849 0.9884334849 0.9884334849
0.9884029664 0.9884029664 0.9884029664
0.9883724479 0.9883724479 0.9883724479
0.9883419294 0.9883419294 0.9883419294
0.9883114109 0.9883114109 0.9883114109
0.9882808924 0.9882808924 0.9882808924
0.9882503739 0.9882503739 0.9882503739
0.9882198553 0.9882198553 0.9882198553
0.9881893368 0.9881893368 0.9881893368
0.9881588183 0.9881588183 0.9881588183
0.9881282998 0.9881282998 0.9881282998
0.9880977813 0.9880977813 0.9880977813
0.9880672628 0.9880672628 0.9880672628
0.9880367443 0.9880367443 0.9880367443
0.9880062258 0.9880062258 0.9880062258
0.9879757073 0.9879757073 0.9879757073
0.9879451888 0.9879451888 0.9879451888
0.9879146702 0.9879146702 0.9879146702
0.9878841517 0.9878841517 0.9878841517
0.9878536332 0.9878536332 0.9878536332
0.9878231147 0.9878231147 0.9878231147
0.9877925962 0.9877925962 0.9877925962
0.9877620777 0.9877620777 0.9877620777
0.9877315592 0.9877315592 0.9877315592
0.9877010407 0.9877010407 0.9877010407
0.9876705222 0.9876705222 0.9876705222
0.9876400037 0.9876400037 0.9876400037
0.9876094852 0.9876094852 0.9876094852
0.9875789666 0.9875789666 0.9875789666
0.9875484481 0.9875484481 0.9875484481
0.9875179296 0.9875179296 0.9875179296
0.9874874111 0.9874874111 0.9874874111
0.9874568926 0.9874568926 0.9874568926
0.9874263741 0.9874263741 0.9874263741
0.9873958556 0.9873958556 0.9873958556
0.9873653371 0.9873653371 0.9873653371
0.9873348186 0.9873348186 0.9873348186
0.9873043001 0.9873043001 0.9873043001
0.9872737815 0.9872737815 0.9872737815
0.9872432630 0.9872432630 0.9872432630
0.9872127445 0.9872127445 0.9872127445
0.9871822260 0.9871822260 0.9871822260
0.9871517075 0.9871517075 0.9871517075
0.9871211890 0.9871211890 0.9871211890
0.9870906705 0.9870906705 0.9870906705
0.9870601520 0.9870601520 0.9870601520
0.9870296335 0.9870296335 0.9870296335
0.9869991150 0.9869991150 0.9869991150
0.9869685965 0.9869685965 0.9869685965
0.9869380779 0.9869380779 0.9869380779
0.9869075594 0.9869075594 0.9869075594
0.9868770409 0.9868770409 0.9868770409
0.9868465224 0.9868465224 0.9868465224
0.9868160039 0.9868160039 0.9868160039
0.9867854854 0.9867854854 0.9867854854
0.9867549669 0.9867549669 0.9867549669
0.9867244484 0.9867244484 0.9867244484
0.9866939299 0.9866939299 0.9866939299
0.9866634114 0.9866634114 0.9866634114
0.9866328928 0.9866328928 0.9866328928
0.9866023743 0.9866023743 0.9866023743
0.9865718558 0.9865718558 0.9865718558
0.9865413373 0.9865413373 0.9865413373
0.9865108188 0.9865108188 0.9865108188
0.9864803003 0.9864803003 0.9864803003
0.9864497818 0.9864497818 0.9864497818
0.9864192633 0.9864192633 0.9864192633
0.9863887448 0.9863887448 0.9863887448
0.9863582263 0.9863582263 0.9863582263
0.9863277078 0.9863277078 0.9863277078
0.9862971892 0.9862971892 0.9862971892
0.9862666707 0.9862666707 0.9862666707
0.9862361522 0.9862361522 0.9862361522
0.9862056337 0.9862056337 0.9862056337
0.9861751152 0.9861751152 0.9861751152
0.9861445967 0.9861445967 0.9861445967
0.9861140782 0.9861140782 0.9861140782
0.9860835597 0.9860835597 0.9860835597
0.9860530412 0.9860530412 0.9860530412
0.9860225227 0.9860225227 0.9860225227
0.9859920042 0.9859920042 0.9859920042
0.9859614856 0.9859614856 0.9859614856
0.9859309671 0.9859309671 0.9859309671
0.9859004486 0.9859004486 0.9859004486
0.9858699301 0.9858699301 0.9858699301
0.9858394116 0.9858394116 0.9858394116
0.9858088931 0.9858088931 0.9858088931
0.9857783746 0.9857783746 0.9857783746
0.9857478561 0.9857478561 0.9857478561
0.9857173376 0.9857173376 0.9857173376
0.9856868191 0.9856868191 0.9856868191
0.9856563005 0.9856563005 0.9856563005
0.9856257820 0.9856257820 0.9856257820
0.9855952635 0.9855952635 0.9855952635
0.9855647450 0.9855647450 0.9855647450
0.9855342265 0.9855342265 0.9855342265
0.9855037080 0.9855037080 0.9855037080
0.9854731895 0.9854731895 0.9854731895
0.9854426710 0.9854426710 0.9854426710
0.9854121525 0.9854121525 0.9854121525
0.9853816340 0.9853816340 0.9853816340
0.9853511155 0.9853511155 0.9853511155
0.9853205969 0.9853205969 0.9853205969
0.9852900784 0.9852900784 0.9852900784
0.9852595599 0.9852595599 0.9852595599
0.9852290414 0.9852290414 0.9852290414
0.9851985229 0.9851985229 0.9851985229
0.9851680044 0.9851680044 0.9851680044
0.9851374859 0.9851374859 0.9851374859
0.9851069674 0.9851069674 0.9851069674
0.9850764489 0.9850764489 0.9850764489
0.9850459304 0.9850459304 0.9850459304
0.9850154118 0.9850154118 0.9850154118
0.9849848933 0.9849848933 0.9849848933
0.9849543748 0.9849543748 0.9849543748
0.9849238563 0.9849238563 0.9849238563
0.9848933378 0.9848933378 0.9848933378
0.9848628193 0.9848628193 0.9848628193
0.9848323008 0.9848323008 0.9848323008
0.9848017823 0.9848017823 0.9848017823
0.9847712638 0.9847712638 0.9847712638
0.9847407453 0.9847407453 0.9847407453
0.9847102268 0.9847102268 0.9847102268
0.9846797082 0.9846797082 0.9846797082
0.9846491897 0.9846491897 0.9846491897
0.9846186712 0.9846186712 0.9846186712
0.9845881527 0.9845881527 0.9845881527
0.9845576342 0.9845576342 0.9845576342
0.9845271157 0.9845271157 0.9845271157
0.9844965972 0.9844965972 0.9844965972
0.9844660787 0.9844660787 0.9844660787
0.9844355602 0.9844355602 0.9844355602
0.9844050417 0.9844050417 0.9844050417
0.9843745231 0.9843745231 0.9843745231
0.9843440046 0.9843440046 0.9843440046
0.9843134861 0.9843134861 0.9843134861
0.9842829676 0.9842829676 0.9842829676
0.9842524491 0.9842524491 0.9842524491
0.9842219306 0.9842219306 0.9842219306
0.9841914121 0.9841914121 0.9841914121
0.9841608936 0.9841608936 0.9841608936
0.9841303751 0.9841303751 0.9841303751
0.9840998566 0.9840998566 0.9840998566
0.9840693381 0.9840693381 0.9840693381
0.9840388195 0.9840388195 0.9840388195
0.9840083010 0.9840083010 0.9840083010
0.9839777825 0.9839777825 0.9839777825
0.9839472640 0.9839472640 0.9839472640
0.9839167455 0.9839167455 0.9839167455
0.9838862270 0.9838862270 0.9838862270
0.9838557085 0.9838557085 0.9838557085
0.9838251900 0.9838251900 0.9838251900
0.9837946715 0.9837946715 0.9837946715
0.9837641530 0.9837641530 0.9837641530
0.9837336344 0.9837336344 0.9837336344
0.9837031159 0.9837031159 0.9837031159
0.9836725974 0.9836725974 0.9836725974
0.9836420789 0.9836420789 0.9836420789
0.9836115604 0.9836115604 0.9836115604
0.9835810419 0.9835810419 0.9835810419
0.9835505234 0.9835505234 0.9835505234
0.9835200049 0.9835200049 0.9835200049
0.9834894864 0.9834894864 0.9834894864
0.9834589679 0.9834589679 0.9834589679
0.9834284494 0.9834284494 0.9834284494
0.9833979308 0.9833979308 0.9833979308
0.9833674123 0.9833674123 0.9833674123
0.9833368938 0.9833368938 0.9833368938
0.9833063753 0.9833063753 0.9833063753
0.9832758568 0.9832758568 0.9832758568
0.9832453383 0.9832453383 0.9832453383
0.9832148198 0.9832148198 0.9832148198
0.9831843013 0.9831843013 0.9831843013
0.9831537828 0.9831537828 0.9831537828
0.9831232643 0.9831232643 0.9831232643
0.9830927458 0.9830927458 0.9830927458
0.9830622272 0.9830622272 0.9830622272
0.9830317087 0.9830317087 0.9830317087
0.9830011902 0.9830011902 0.9830011902
0.9829706717 0.9829706717 0.9829706717
0.9829401532 0.9829401532 0.9829401532
0.9829096347 0.9829096347 0.9829096347
0.9828791162 0.9828791162 0.9828791162
0.9828485977 0.9828485977 0.9828485977
0.9828180792 0.9828180792 0.9828180792
0.9827875607 0.9827875607 0.9827875607
0.9827570421 0.9827570421 0.9827570421
0.9827265236 0.9827265236 0.9827265236
0.9826960051 0.9826960051 0.9826960051
0.9826654866 0.9826654866 0.9826654866
0.9826349681 0.9826349681 0.9826349681
0.9826044496 0.9826044496 0.9826044496
0.9825739311 0.9825739311 0.9825739311
0.9825434126 0.9825434126 0.9825434126
0.9825128941 0.9825128941 0.9825128941
0.9824823756 0.9824823756 0.9824823756
0.9824518571 0.9824518571 0.9824518571
0.9824213385 0.9824213385 0.9824213385
0.9823908200 0.9823908200 0.9823908200
0.9823603015 0.9823603015 0.9823603015
0.9823297830 0.9823297830 0.9823297830
0.9822992645 0.9822992645 0.9822992645
0.9822687460 0.9822687460 0.9822687460
0.9822382275 0.9822382275 0.9822382275
0.9822077090 0.9822077090 0.9822077090
0.9821771905 0.9821771905 0.9821771905
0.9821466720 0.9821466720 0.9821466720
0.9821161534 0.9821161534 0.9821161534
0.9820856349 0.9820856349 0.9820856349
0.9820551164 0.9820551164 0.9820551164
0.9820245979 0.9820245979 0.9820245979
0.9819940794 0.9819940794 0.9819940794
0.9819635609 0.9819635609 0.9819635609
0.9819330424 0.9819330424 0.9819330424
0.9819025239 0.9819025239 0.9819025239
0.9818720054 0.9818720054 0.9818720054
0.9818414869 0.9818414869 0.9818414869
0.9818109684 0.9818109684 0.9818109684
0.9817804498 0.9817804498 0.9817804498
0.9817499313 0.9817499313 0.9817499313
0.9817194128 0.9817194128 0.9817194128
0.9816888943 0.9816888943 0.9816888943
0.9816583758 0.9816583758 0.9816583758
0.9816278573 0.9816278573 0.9816278573
0.9815973388 0.9815973388 0.9815973388
0.9815668203 0.9815668203 0.9815668203
0.9815363018 0.9815363018 0.9815363018
0.9815057833 0.9815057833 0.9815057833
0.9814752647 0.9814752647 0.9814752647
0.9814447462 0.9814447462 0.9814447462
0.9814142277 0.9814142277 0.9814142277
0.9813837092 0.9813837092 0.9813837092
