LutTests/3DL/Custom_10bits_17nodes.3dl
# Created with LUTCalc v4.06 by Ben Turley February 2024 #
# IDENTIFICATION: LUTCalc - 3DLUT
# CREATOR: LUTCalc v4.06
# USER: LUTCalc
# DATA: 2024-02-24T18:41:12 #
# NUMBER OF COLUMNS: 3
# NUMBER OF ROWS: 4913
# NUMBER OF NODES: 17
# INPUT RANGE: 10
# OUTPUT RANGE: 10
# TITLE : Custom LUT
# DESCRIPTION : S-Log3/Sony S-Gamut3.cine (Venice) -> S-Log3/Sony S-Gamut3.cine, Stop Shift 0.00, Black Level 3.54% IRE, Data Input -> Data Output
0 64 128 192 256 320 384 448 512 576 640 704 768 832 896 960 1023
64 64 64
64 64 64
64 64 128
64 64 192
64 64 256
64 64 320
64 64 384
64 64 448
88 64 512
154 64 575
231 64 639
300 64 703
367 64 767
432 64 831
497 64 895
561 64 959
626 64 959
64 65 64
64 64 64
64 64 128
64 64 192
64 64 256
64 64 320
64 64 384
64 64 448
82 64 512
148 64 575
228 64 639
298 64 703
366 64 767
432 64 831
497 64 895
561 64 959
625 64 959
64 130 64
64 129 65
64 129 129
64 128 192
64 126 256
64 124 320
64 119 384
64 111 448
77 97 512
143 72 575
225 64 639
297 64 703
365 64 767
431 64 831
496 64 895
561 64 959
625 64 959
64 194 64
64 194 65
64 193 129
64 192 193
64 192 256
64 190 320
64 187 384
64 181 448
70 170 512
136 145 576
222 102 639
295 64 703
364 64 767
431 64 831
496 64 895
561 64 959
625 64 959
64 258 64
64 258 66
64 257 130
64 257 193
64 256 257
64 255 320
64 254 384
64 251 448
64 245 512
125 234 576
216 213 639
292 159 703
362 64 767
430 64 831
496 64 895
561 64 959
625 64 959
64 322 64
64 321 67
64 321 131
64 321 194
64 321 257
64 320 320
64 319 384
64 318 448
64 315 512
104 309 576
205 298 639
286 277 703
359 225 767
428 64 831
495 64 895
560 64 959
625 64 959
64 386 64
64 385 70
64 385 134
64 385 196
64 385 258
64 385 321
64 384 384
64 383 448
64 382 512
69 378 576
181 373 639
276 362 703
354 341 767
425 289 831
493 64 895
559 64 959
624 64 959
64 449 64
64 449 74
64 449 138
64 449 198
64 449 259
64 449 322
64 449 385
64 448 448
64 447 512
64 445 576
122 442 640
254 437 703
343 426 767
420 404 831
490 353 895
558 64 959
623 64 959
64 513 64
64 513 81
64 513 145
64 513 203
64 513 262
64 513 323
64 513 386
64 513 449
64 512 512
64 511 576
64 509 640
201 506 703
322 501 767
409 490 831
485 468 895
555 416 959
622 64 959
64 577 64
64 577 94
64 577 158
64 577 210
64 577 267
64 577 326
64 577 387
64 577 450
64 577 513
64 576 576
64 575 640
64 573 704
273 570 767
389 565 831
475 554 895
549 532 959
619 480 959
64 641 64
64 641 117
64 641 179
64 641 222
64 641 274
64 641 330
64 641 390
64 641 451
64 641 514
64 641 577
64 640 640
64 639 704
64 637 768
340 634 831
454 629 895
539 618 959
614 596 959
64 705 93
64 705 157
64 705 205
64 705 241
64 705 286
64 705 338
64 705 394
64 705 454
64 705 515
64 705 578
64 704 641
64 704 704
64 703 768
69 701 831
407 698 895
519 692 959
603 682 959
64 769 163
64 769 208
64 769 240
64 769 267
64 769 305
64 769 350
64 769 402
64 769 458
64 769 518
64 769 579
64 769 641
64 768 705
64 768 768
64 767 832
122 765 895
472 762 959
583 756 959
64 833 238
64 833 263
64 833 283
64 833 303
64 833 331
64 833 369
64 833 414
64 833 466
64 833 522
64 833 582
64 833 643
64 833 705
64 832 768
64 832 832
64 831 896
202 829 959
536 826 959
64 897 307
64 897 321
64 897 334
64 897 347
64 897 367
64 897 395
64 897 432
64 897 478
64 897 530
64 897 586
64 897 646
64 897 707
64 897 769
64 896 832
64 896 896
64 895 959
273 893 959
64 959 373
64 959 382
64 959 389
64 959 397
64 959 410
64 959 431
64 959 459
64 959 496
64 959 542
64 959 594
64 959 650
64 959 710
64 959 771
64 959 833
64 959 896
64 959 959
64 959 959
64 959 439
64 959 443
64 959 448
64 959 453
64 959 461
64 959 474
64 959 495
64 959 523
64 959 560
64 959 606
64 959 658
64 959 714
64 959 774
64 959 835
64 959 897
64 959 959
64 959 959
68 64 64
70 64 64
72 64 128
74 64 192
78 64 256
85 64 320
97 64 384
118 64 448
156 64 512
205 64 575
259 64 639
316 64 703
376 64 767
437 64 831
500 64 895
563 64 959
627 64 959
64 65 64
64 64 64
66 64 128
68 64 192
72 64 256
79 64 320
91 64 384
113 64 448
150 64 512
202 64 575
256 64 639
314 64 703
375 64 767
437 64 831
500 64 895
563 64 959
626 64 959
64 130 64
64 129 64
64 128 128
64 127 192
66 126 256
73 123 320
85 119 384
107 111 448
144 97 512
199 72 575
254 64 639
313 64 703
374 64 767
436 64 831
499 64 895
563 64 959
626 64 959
64 194 64
64 193 65
64 193 129
64 192 192
64 191 256
67 190 320
79 186 384
100 181 448
138 170 512
195 145 575
252 102 639
312 64 703
373 64 767
436 64 831
499 64 895
563 64 959
626 64 959
64 258 64
64 257 66
64 257 129
64 257 193
64 256 256
64 255 320
67 254 384
89 250 448
126 245 512
187 234 576
247 213 639
309 158 703
372 64 767
435 64 831
499 64 895
562 64 959
626 64 959
64 322 64
64 321 67
64 321 131
64 321 194
64 321 257
64 320 320
64 319 384
68 318 448
106 314 512
172 309 576
239 298 639
304 277 703
369 225 767
433 64 831
498 64 895
562 64 959
626 64 959
64 386 64
64 385 69
64 385 133
64 385 195
64 385 258
64 385 321
64 384 384
64 383 448
70 381 512
136 378 576
222 373 639
295 362 703
364 341 767
431 289 831
496 64 895
561 64 959
625 64 959
64 449 64
64 449 73
64 449 137
64 449 198
64 449 259
64 449 322
64 449 385
64 448 448
64 447 512
73 445 576
185 442 640
277 437 703
355 426 767
425 404 831
493 352 895
559 64 959
624 64 959
64 513 64
64 513 81
64 513 145
64 513 202
64 513 262
64 513 323
64 513 386
64 513 449
64 512 512
64 511 576
79 509 640
236 506 703
336 501 767
416 490 831
488 468 895
556 416 959
623 64 959
64 577 64
64 577 94
64 577 158
64 577 210
64 577 266
64 577 326
64 577 387
64 577 450
64 577 513
64 576 576
64 575 640
89 573 704
293 570 767
397 565 831
478 554 895
551 532 959
620 480 959
64 641 64
64 641 116
64 641 178
64 641 222
64 641 274
64 641 330
64 641 390
64 641 451
64 641 514
64 641 577
64 640 640
64 639 704
106 637 768
352 634 831
459 629 895
541 618 959
615 596 959
64 705 92
64 705 156
64 705 205
64 705 241
64 705 286
64 705 338
64 705 394
64 705 454
64 705 515
64 705 578
64 704 641
64 704 704
64 703 768
136 701 831
413 698 895
521 692 959
605 682 959
64 769 162
64 769 208
64 769 240
64 769 267
64 769 305
64 769 350
64 769 402
64 769 458
64 769 518
64 769 579
64 769 641
64 768 705
64 768 768
64 767 832
185 765 895
475 762 959
585 756 959
64 833 237
64 833 263
64 833 283
64 833 303
64 833 331
64 833 368
64 833 414
64 833 466
64 833 522
64 833 582
64 833 643
64 833 705
64 832 768
64 832 832
64 831 896
237 829 959
538 826 959
64 897 307
64 897 321
64 897 334
64 897 346
64 897 367
64 897 395
64 897 432
64 897 478
64 897 530
64 897 586
64 897 646
64 897 707
64 897 769
64 896 832
64 896 896
64 895 959
293 893 959
64 959 373
64 959 381
64 959 389
64 959 397
64 959 410
64 959 431
64 959 459
64 959 496
64 959 542
64 959 594
64 959 650
64 959 710
64 959 771
64 959 833
64 959 896
64 959 959
64 959 959
64 959 439
64 959 443
64 959 448
64 959 453
64 959 461
64 959 474
64 959 494
64 959 523
64 959 560
64 959 606
64 959 658
64 959 714
64 959 774
64 959 835
64 959 897
64 959 959
64 959 959
135 64 64
137 64 64
139 64 127
141 64 191
145 64 255
152 64 320
165 64 384
182 64 448
206 64 512
239 64 575
281 64 639
330 64 703
384 64 767
442 64 831
503 64 895
565 64 959
628 64 959
130 64 64
132 64 64
134 64 127
136 64 192
140 64 256
147 64 320
159 64 384
178 64 448
203 64 512
237 64 575
279 64 639
329 64 703
384 64 767
442 64 831
503 64 895
565 64 959
627 64 959
124 129 64
126 129 64
128 128 128
130 127 192
134 126 256
141 123 320
153 118 384
174 110 448
200 96 512
234 72 575
277 64 639
328 64 703
383 64 767
441 64 831
502 64 895
564 64 959
627 64 959
118 194 64
120 193 64
121 193 128
124 192 192
128 191 256
135 189 320
147 186 384
168 181 448
196 170 512
231 145 575
275 101 639
326 64 703
382 64 767
441 64 831
502 64 895
564 64 959
627 64 959
106 258 64
108 257 65
110 257 129
112 257 193
116 256 256
123 255 320
135 253 384
157 250 448
188 245 512
226 234 576
272 212 639
324 158 703
381 64 767
440 64 831
502 64 895
564 64 959
627 64 959
86 322 64
88 321 66
89 321 130
92 321 194
96 321 257
103 320 320
115 319 384
136 317 448
173 314 512
215 309 576
265 298 639
320 276 703
378 224 767
439 64 831
501 64 895
563 64 959
627 64 959
64 385 64
64 385 69
64 385 133
64 385 195
64 385 258
67 385 321
79 384 384
100 383 448
138 381 512
195 378 576
252 373 639
312 362 703
373 340 767
436 288 831
499 64 895
563 64 959
626 64 959
64 449 64
64 449 73
64 449 137
64 449 198
64 449 259
64 449 322
64 449 385
64 448 448
75 447 512
141 445 576
224 442 640
296 437 703
365 426 767
431 404 831
496 352 895
561 64 959
625 64 959
64 513 64
64 513 80
64 513 144
64 513 202
64 513 262
64 513 323
64 513 386
64 513 449
64 512 512
64 511 576
147 509 640
263 506 703
348 501 767
422 490 831
491 468 895
558 416 959
624 64 959
64 577 64
64 577 93
64 577 157
64 577 210
64 577 266
64 577 326
64 577 387
64 577 450
64 577 513
64 576 576
64 575 640
157 573 704
310 570 767
404 565 831
482 554 895
553 532 959
621 480 959
64 641 64
64 641 116
64 641 178
64 641 222
64 641 274
64 641 330
64 641 390
64 641 451
64 641 514
64 641 577
64 640 640
64 639 704
173 637 768
362 634 831
463 629 895
543 618 959
616 596 959
64 705 92
64 705 156
64 705 204
64 705 240
64 705 286
64 705 338
64 705 394
64 705 454
64 705 515
64 705 578
64 704 641
64 704 704
64 703 768
195 701 831
419 698 895
524 692 959
606 682 959
64 769 162
64 769 208
64 769 239
64 769 267
64 769 304
64 769 350
64 769 402
64 769 458
64 769 518
64 769 579
64 769 641
64 768 705
64 768 768
64 767 832
224 765 895
479 762 959
586 756 959
64 833 237
64 833 262
64 833 283
64 833 303
64 833 331
64 833 368
64 833 414
64 833 466
64 833 522
64 833 582
64 833 643
64 833 705
64 832 768
64 832 832
64 831 896
263 829 959
541 826 959
64 897 306
64 897 321
64 897 334
64 897 346
64 897 367
64 897 395
64 897 432
64 897 478
64 897 530
64 897 586
64 897 646
64 897 707
64 897 769
64 896 832
64 896 896
64 895 959
310 893 959
64 959 373
64 959 381
64 959 389
64 959 397
64 959 410
64 959 431
64 959 459
64 959 496
64 959 542
64 959 594
64 959 650
64 959 710
64 959 771
64 959 833
64 959 896
64 959 959
64 959 959
64 959 439
64 959 443
64 959 448
64 959 453
64 959 461
64 959 474
64 959 494
64 959 523
64 959 560
64 959 606
64 959 658
64 959 714
64 959 774
64 959 835
64 959 897
64 959 959
64 959 959
199 64 64
200 64 64
202 64 127
203 64 191
205 64 255
209 64 319
216 64 384
227 64 448
244 64 511
268 64 575
302 64 639
344 64 703
393 64 767
448 64 831
506 64 895
567 64 959
629 64 959
196 64 64
197 64 64
198 64 127
200 64 191
202 64 255
206 64 320
213 64 384
224 64 448
241 64 512
266 64 575
300 64 639
343 64 703
392 64 767
447 64 831
506 64 895
566 64 959
