LutTests/3DL/Custom_10bits_17nodes.3dl
# Created with LUTCalc v4.06 by Ben Turley February 2024 #
# IDENTIFICATION: LUTCalc - 3DLUT
# CREATOR: LUTCalc v4.06
# USER: LUTCalc
# DATA: 2024-02-24T18:41:12 #
# NUMBER OF COLUMNS: 3
# NUMBER OF ROWS: 4913
# NUMBER OF NODES: 17
# INPUT RANGE: 10
# OUTPUT RANGE: 10
# TITLE : Custom LUT
# DESCRIPTION : S-Log3/Sony S-Gamut3.cine (Venice) -> S-Log3/Sony S-Gamut3.cine, Stop Shift 0.00, Black Level 3.54% IRE, Data Input -> Data Output
0 128 256 384 512 640 768 896 1023
64 64 64
64 64 128
64 64 256
64 64 384
88 64 512
231 64 639
367 64 767
497 64 895
626 64 959
64 130 64
64 129 129
64 126 256
64 119 384
77 97 512
225 64 639
365 64 767
496 64 895
625 64 959
64 258 64
64 257 130
64 256 257
64 254 384
64 245 512
216 213 639
362 64 767
496 64 895
625 64 959
64 386 64
64 385 134
64 385 258
64 384 384
64 382 512
181 373 639
354 341 767
493 64 895
624 64 959
64 513 64
64 513 145
64 513 262
64 513 386
64 512 512
64 509 640
322 501 767
485 468 895
622 64 959
64 641 64
64 641 179
64 641 274
64 641 390
64 641 514
64 640 640
64 637 768
454 629 895
614 596 959
64 769 163
64 769 240
64 769 305
64 769 402
64 769 518
64 769 641
64 768 768
122 765 895
583 756 959
64 897 307
64 897 334
64 897 367
64 897 432
64 897 530
64 897 646
64 897 769
64 896 896
273 893 959
64 959 439
64 959 448
64 959 461
64 959 495
64 959 560
64 959 658
64 959 774
64 959 897
64 959 959
135 64 64
139 64 127
145 64 255
165 64 384
206 64 512
281 64 639
384 64 767
503 64 895
628 64 959
124 129 64
128 128 128
134 126 256
153 118 384
200 96 512
277 64 639
383 64 767
502 64 895
627 64 959
106 258 64
110 257 129
116 256 256
135 253 384
188 245 512
272 212 639
381 64 767
502 64 895
627 64 959
64 385 64
64 385 133
64 385 258
79 384 384
138 381 512
252 373 639
373 340 767
499 64 895
626 64 959
64 513 64
64 513 144
64 513 262
64 513 386
64 512 512
147 509 640
348 501 767
491 468 895
624 64 959
64 641 64
64 641 178
64 641 274
64 641 390
64 641 514
64 640 640
173 637 768
463 629 895
616 596 959
64 769 162
64 769 239
64 769 304
64 769 402
64 769 518
64 769 641
64 768 768
224 765 895
586 756 959
64 897 306
64 897 334
64 897 367
64 897 432
64 897 530
64 897 646
64 897 769
64 896 896
310 893 959
64 959 439
64 959 448
64 959 461
64 959 494
64 959 560
64 959 658
64 959 774
64 959 897
64 959 959
263 64 64
264 64 126
266 64 255
273 64 383
290 64 511
332 64 639
408 64 767
512 64 895
631 64 959
259 128 64
260 127 127
262 125 255
269 117 384
287 95 511
330 64 639
406 64 767
511 64 895
630 64 959
252 257 64
253 257 128
256 256 256
263 253 384
282 244 512
326 212 639
405 64 767
510 64 895
630 64 959
228 385 64
230 385 132
232 385 257
241 384 384
264 381 512
314 373 639
399 340 767
508 64 895
629 64 959
91 513 64
95 513 143
101 513 261
120 513 385
177 512 512
267 509 640
379 501 767
501 468 895
627 64 959
64 641 64
64 641 177
64 641 273
64 641 390
64 641 514
64 640 640
276 637 768
475 628 895
619 596 959
64 769 161
64 769 239
64 769 304
64 769 402
64 769 518
64 769 641
64 768 768
299 765 895
591 756 959
64 897 306
64 897 333
64 897 366
64 897 432
64 897 530
64 897 646
64 897 769
64 896 896
351 893 959
64 959 439
64 959 448
64 959 461
64 959 494
64 959 560
64 959 658
64 959 774
64 959 897
64 959 959
390 64 64
391 64 122
391 64 253
394 64 383
400 64 511
418 64 639
459 64 767
535 64 895
639 64 959
389 125 64
389 124 123
390 121 254
392 114 383
399 92 511
417 64 639
459 64 767
535 64 895
639 64 959
387 256 64
387 255 124
388 255 254
390 252 383
397 243 511
415 210 639
458 64 767
534 64 895
639 64 959
380 385 64
381 385 128
381 384 256
384 384 384
391 381 512
410 372 639
454 340 767
532 64 895
638 64 959
356 513 64
357 513 139
357 513 260
360 513 385
369 512 512
392 509 640
442 500 767
527 468 895
636 64 959
208 641 64
210 641 174
213 641 272
223 641 389
249 641 513
305 640 640
395 637 767
507 628 895
629 596 959
64 769 157
64 769 237
64 769 303
64 769 401
64 769 518
64 769 641
64 768 768
403 765 895
603 756 959
64 897 305
64 897 333
64 897 366
64 897 432
64 897 530
64 897 646
64 897 769
64 896 896
427 893 959
64 959 438
64 959 448
64 959 461
64 959 494
64 959 560
64 959 658
64 959 774
64 959 897
64 959 959
518 64 64
518 64 110
518 64 249
519 64 381
521 64 511
528 64 639
545 64 767
587 64 895
663 64 959
518 115 64
518 113 110
518 111 249
519 104 382
521 82 511
527 64 639
545 64 767
587 64 895
663 64 959
517 252 64
517 251 111
517 251 249
518 248 382
520 238 511
527 204 639
545 64 767
587 64 895
663 64 959
515 384 64
515 384 115
515 383 251
516 382 382
518 380 511
525 371 639
543 338 767
585 64 895
662 64 959
508 513 64
508 513 127
508 513 255
509 512 384
512 512 512
518 509 639
538 500 767
582 468 895
660 64 959
484 641 64
484 641 162
484 641 268
485 641 388
488 641 513
497 640 640
519 637 767
570 628 895
655 596 959
336 769 144
336 769 232
338 769 300
341 769 400
351 769 517
377 769 641
433 768 768
522 765 895
634 756 959
64 897 302
64 897 330
64 897 364
64 897 431
64 897 529
64 897 645
64 897 769
64 896 896
531 893 959
64 959 437
64 959 447
64 959 460
64 959 494
64 959 560
64 959 657
64 959 773
64 959 897
64 959 959
646 64 64
646 64 72
646 64 232
646 64 377
647 64 509
649 64 639
655 64 767
673 64 895
715 64 959
646 83 64
646 82 72
646 80 233
646 72 377
647 64 509
649 64 639
655 64 767
673 64 895
715 64 959
646 239 64
646 239 73
646 238 233
646 234 377
647 224 509
649 184 639
655 64 767
673 64 895
715 64 959
645 380 64
645 380 77
645 379 235
645 378 377
646 376 510
648 366 639
655 332 767
672 64 895
715 64 959
643 512 64
643 512 89
643 511 240
643 511 379
644 510 510
646 508 639
653 499 767
671 466 895
713 64 959
636 641 64
636 641 124
636 641 254
636 641 383
637 640 511
639 639 639
646 637 767
665 628 895
710 595 959
612 769 106
612 769 212
612 769 290
612 769 396
613 769 516
616 769 641
625 768 768
647 765 895
698 756 959
464 897 292
464 897 323
464 897 358
465 897 428
469 897 528
479 897 645
505 897 769
561 896 896
650 893 959
64 959 434
64 959 444
64 959 458
64 959 492
64 959 559
64 959 657
64 959 773
64 959 897
64 959 959
774 64 64
774 64 64
774 64 157
774 64 360
774 64 504
775 64 637
777 64 767
783 64 895
801 64 959
774 64 64
774 64 64
774 64 158
774 64 360
774 64 505
775 64 637
777 64 767
783 64 895
801 64 959
774 187 64
774 186 64
774 184 159
774 179 361
774 159 505
775 91 637
777 64 767
783 64 895
801 64 959
773 367 64
773 367 64
773 366 163
774 365 361
774 362 505
774 352 637
777 312 767
783 64 895
801 64 959
773 508 64
773 508 64
773 508 174
773 507 363
773 506 505
774 503 637
776 494 767
782 460 895
800 64 959
771 639 64
771 639 64
771 639 198
771 639 368
771 639 507
772 638 638
774 635 767
780 626 895
799 594 959
764 769 64
764 769 117
764 769 252
764 768 382
764 768 511
765 768 639
767 767 767
774 765 895
793 756 959
740 897 255
740 897 295
740 897 339
740 897 418
740 897 524
741 897 644
744 896 769
752 896 896
775 893 959
592 959 425
592 959 435
592 959 450
592 959 486
593 959 556
597 959 656
607 959 773
633 959 897
689 959 959
902 64 64
902 64 64
902 64 64
902 64 287
902 64 488
902 64 632
903 64 765
905 64 894
911 64 959
902 64 64
902 64 64
902 64 64
902 64 288
902 64 488
902 64 632
903 64 765
905 64 894
911 64 959
902 64 64
902 64 64
902 64 64
902 64 288
902 64 488
902 64 632
903 64 765
905 64 894
911 64 959
901 314 64
901 314 64
902 314 64
902 312 289
902 307 489
902 289 632
903 207 765
905 64 894
911 64 959
901 495 64
901 495 64
901 495 64
901 494 292
901 493 489
902 490 633
902 480 765
904 440 894
911 64 959
901 636 64
901 636 64
901 635 64
901 635 301
901 635 491
901 634 633
902 631 765
904 622 895
910 588 959
898 767 64
898 767 64
898 767 64
898 767 326
899 767 496
899 767 635
900 766 766
902 763 895
908 754 959
892 896 64
892 896 95
892 896 243
892 896 380
892 896 510
892 896 639
893 896 767
895 895 895
902 892 959
868 959 390
868 959 403
868 959 422
868 959 467
868 959 546
868 959 652
869 959 771
872 959 897
880 959 959
959 64 64
959 64 64
959 64 64
959 64 64
959 64 415
959 64 616
959 64 760
959 64 893
959 64 959
959 64 64
959 64 64
959 64 64
959 64 64
959 64 415
959 64 616
959 64 760
959 64 893
959 64 959
959 64 64
959 64 64
959 64 64
959 64 64
959 64 415
959 64 616
959 64 760
959 64 893
959 64 959
959 64 64
959 64 64
959 64 64
959 64 64
959 64 416
959 64 616
959 64 760
959 64 893
959 64 959
959 442 64
959 442 64
959 442 64
959 441 64
959 440 417
959 435 616
959 417 760
959 335 893
959 64 959
959 623 64
959 623 64
959 623 64
959 622 64
959 622 420
959 621 617
959 618 760
959 607 893
959 567 959
959 763 64
959 763 64
959 763 64
959 763 64
959 763 429
959 763 619
959 762 761
959 759 893
959 750 959
959 895 64
959 895 64
959 895 64
959 895 64
959 895 454
959 895 624
959 895 762
959 894 894
959 891 959
959 959 64
959 959 64
959 959 209
959 959 371
959 959 507
959 959 638
959 959 767
959 959 895
959 959 959
