LutTests/3DL/Custom_10bits_17nodes.3dl
# Created with LUTCalc v4.06 by Ben Turley February 2024 #
# IDENTIFICATION: LUTCalc - 3DLUT
# CREATOR: LUTCalc v4.06
# USER: LUTCalc
# DATA: 2024-02-24T18:41:12 #
# NUMBER OF COLUMNS: 3
# NUMBER OF ROWS: 4913
# NUMBER OF NODES: 17
# INPUT RANGE: 10
# OUTPUT RANGE: 10
# TITLE : Custom LUT
# DESCRIPTION : S-Log3/Sony S-Gamut3.cine (Venice) -> S-Log3/Sony S-Gamut3.cine, Stop Shift 0.00, Black Level 3.54% IRE, Data Input -> Data Output
0 256 512 768 1023
64 64 64
64 64 256
88 64 512
367 64 767
626 64 959
64 258 64
64 256 257
64 245 512
362 64 767
625 64 959
64 513 64
64 513 262
64 512 512
322 501 767
622 64 959
64 769 163
64 769 305
64 769 518
64 768 768
583 756 959
64 959 439
64 959 461
64 959 560
64 959 774
64 959 959
263 64 64
266 64 255
290 64 511
408 64 767
631 64 959
252 257 64
256 256 256
282 244 512
405 64 767
630 64 959
91 513 64
101 513 261
177 512 512
379 501 767
627 64 959
64 769 161
64 769 304
64 769 518
64 768 768
591 756 959
64 959 439
64 959 461
64 959 560
64 959 774
64 959 959
518 64 64
518 64 249
521 64 511
545 64 767
663 64 959
517 252 64
517 251 249
520 238 511
545 64 767
663 64 959
508 513 64
508 513 255
512 512 512
538 500 767
660 64 959
336 769 144
338 769 300
351 769 517
433 768 768
634 756 959
64 959 437
64 959 460
64 959 560
64 959 773
64 959 959
774 64 64
774 64 157
774 64 504
777 64 767
801 64 959
774 187 64
774 184 159
774 159 505
777 64 767
801 64 959
773 508 64
773 508 174
773 506 505
776 494 767
800 64 959
764 769 64
764 769 252
764 768 511
767 767 767
793 756 959
592 959 425
592 959 450
593 959 556
607 959 773
689 959 959
959 64 64
959 64 64
959 64 415
959 64 760
959 64 959
959 64 64
959 64 64
959 64 415
959 64 760
959 64 959
959 442 64
959 442 64
959 440 417
959 417 760
959 64 959
959 763 64
959 763 64
959 763 429
959 762 761
959 750 959
959 959 64
959 959 209
959 959 507
959 959 767
959 959 959
