LutTests/3DL/Custom_14bits_17nodes.3dl
# Created with LUTCalc v4.06 by Ben Turley February 2024 #
# IDENTIFICATION: LUTCalc - 3DLUT
# CREATOR: LUTCalc v4.06
# USER: LUTCalc
# DATA: 2024-02-24T18:42:11 #
# NUMBER OF COLUMNS: 3
# NUMBER OF ROWS: 4913
# NUMBER OF NODES: 17
# INPUT RANGE: 14
# OUTPUT RANGE: 14
# TITLE : Custom LUT
# DESCRIPTION : S-Log3/Sony S-Gamut3.cine (Venice) -> S-Log3/Sony S-Gamut3.cine, Stop Shift 0.00, Black Level 3.54% IRE, Data Input -> Data Output
0 2048 4096 6144 8192 10240 12288 14336 16383
1025 1025 1025
1025 1025 2049
1025 1025 4097
1025 1025 6144
1412 1025 8192
3693 1025 10240
5870 1025 12288
7958 1025 14336
10018 1025 15358
1025 2082 1025
1025 2059 2061
1025 2022 4101
1025 1907 6146
1230 1554 8193
3606 1025 10240
5844 1025 12288
7949 1025 14336
10016 1025 15358
1025 4128 1025
1025 4120 2080
1025 4106 4108
1025 4063 6148
1025 3923 8193
3458 3407 10240
5802 1025 12288
7936 1025 14336
10011 1025 15358
1025 6174 1025
1025 6172 2140
1025 6167 4130
1025 6153 6155
1025 6110 8196
2903 5970 10241
5665 5454 12288
7895 1025 14336
9998 1025 15358
1025 8222 1025
1025 8221 2325
1025 8219 4197
1025 8215 6178
1025 8201 8203
1025 8158 10244
5163 8018 12289
7762 7502 14336
9957 1025 15358
1025 10269 1025
1025 10269 2859
1025 10269 4389
1025 10267 6244
1025 10263 8225
1025 10249 10251
1025 10206 12291
7275 10065 14337
9825 9549 15358
1025 12317 2607
1025 12317 3841
1025 12317 4878
1025 12316 6436
1025 12315 8292
1025 12311 10273
1025 12297 12299
1953 12254 14339
9343 12113 15358
1025 14365 4910
1025 14365 5345
1025 14365 5872
1025 14365 6926
1025 14364 8484
1025 14363 10340
1025 14358 12321
1025 14345 14347
4369 14301 15358
1025 15358 7027
1025 15358 7174
1025 15358 7385
1025 15358 7920
1025 15358 8973
1025 15358 10532
1025 15358 12388
1025 15358 14369
1025 15358 15358
2168 1025 1025
2230 1025 2036
2328 1025 4092
2635 1025 6143
3306 1025 8192
4499 1025 10240
6153 1025 12288
8052 1025 14336
10049 1025 15358
1986 2071 1025
2048 2048 2048
2146 2011 4096
2453 1896 6144
3197 1543 8192
4443 1025 10240
6131 1025 12288
8045 1025 14336
10047 1025 15358
1697 4124 1025
1760 4116 2067
1858 4102 4103
2164 4059 6147
3011 3918 8193
4352 3401 10240
6095 1025 12288
8032 1025 14336
10043 1025 15358
1025 6173 1025
1025 6170 2127
1025 6166 4126
1265 6152 6154
2210 6109 8195
4032 5969 10241
5979 5452 12288
7993 1025 14336
10030 1025 15358
1025 8221 1025
1025 8220 2312
1025 8219 4193
1025 8214 6176
1025 8201 8203
2351 8157 10243
5567 8017 12289
7867 7501 14336
9990 1025 15358
1025 10269 1025
1025 10269 2850
1025 10268 4385
1025 10267 6243
1025 10263 8225
1025 10249 10251
2775 10206 12291
7411 10065 14337
9860 9549 15358
1025 12317 2594
1025 12317 3835
1025 12317 4875
1025 12316 6435
1025 12315 8292
1025 12311 10273
1025 12297 12299
3595 12253 14339
9388 12113 15358
1025 14365 4907
1025 14365 5342
1025 14365 5870
1025 14365 6925
1025 14364 8484
1025 14363 10340
1025 14358 12321
1025 14345 14347
4960 14301 15358
1025 15358 7026
1025 15358 7173
1025 15358 7384
1025 15358 7919
1025 15358 8973
1025 15358 10532
1025 15358 12388
1025 15358 14369
1025 15358 15358
4208 1025 1025
4230 1025 2015
4264 1025 4084
4366 1025 6140
4648 1025 8191
5315 1025 10240
6527 1025 12288
8193 1025 14336
10097 1025 15358
4143 2054 1025
4166 2031 2027
4201 1994 4089
4306 1880 6142
4597 1526 8191
5280 1025 10240
6509 1025 12288
8186 1025 14336
10095 1025 15358
4035 4118 1025
4059 4109 2047
4096 4096 4096
4207 4052 6144
4513 3911 8192
5223 3392 10240
6480 1025 12288
8174 1025 14336
10091 1025 15358
3648 6171 1025
3677 6168 2107
3723 6164 4118
3859 6150 6151
4223 6107 8195
5032 5966 10241
6387 5449 12288
8138 1025 14336
10078 1025 15358
1457 8221 1025
1519 8220 2292
1617 8218 4185
1924 8214 6174
2839 8200 8202
4272 8157 10243
6065 8016 12289
8022 7500 14336
10039 1025 15358
1025 10269 1025
1025 10269 2835
1025 10268 4378
1025 10267 6241
1025 10262 8224
1025 10249 10250
4413 10205 12291
7608 10065 14337
9913 9549 15358
1025 12317 2573
1025 12317 3826
1025 12317 4870
1025 12316 6433
1025 12315 8291
1025 12310 10273
1025 12297 12299
4792 12253 14339
9457 12113 15358
1025 14365 4902
1025 14365 5338
1025 14365 5867
1025 14365 6923
1025 14364 8483
1025 14363 10340
1025 14358 12321
1025 14345 14347
5623 14301 15358
1025 15358 7025
1025 15358 7172
1025 15358 7383
1025 15358 7918
1025 15358 8972
1025 15358 10531
1025 15358 12388
1025 15358 14369
1025 15358 15358
6250 1025 1025
6257 1025 1951
6268 1025 4060
6303 1025 6132
6405 1025 8188
6689 1025 10239
7358 1025 12288
8572 1025 14336
10240 1025 15358
6229 2001 1025
6236 1978 1963
6248 1941 4064
6283 1827 6134
6386 1473 8189
6672 1025 10239
7347 1025 12288
8566 1025 14336
10237 1025 15358
6195 4098 1025
6203 4090 1983
6214 4076 4072
6250 4032 6136
6355 3889 8190
6646 3362 10239
7328 1025 12288
8557 1025 14336
10234 1025 15358
6086 6165 1025
6094 6162 2043
6106 6158 4094
6144 6144 6144
6255 6100 8192
6561 5959 10240
7271 5440 12288
8528 1025 14336
10222 1025 15358
5700 8219 1025
5709 8218 2228
5725 8216 4162
5771 8212 6166
5907 8198 8199
6271 8155 10242
7079 8014 12289
8434 7497 14336
10186 1025 15358
3324 10268 1025
3359 10268 2786
3413 10268 4358
3573 10266 6233
3993 10262 8222
4887 10248 10250
6320 10205 12291
8113 10064 14337
10070 9548 15358
1025 12317 2509
1025 12317 3798
1025 12317 4854
1025 12316 6426
1025 12315 8289
1025 12310 10272
1025 12296 12298
6461 12253 14339
9656 12113 15358
1025 14365 4887
1025 14365 5326
1025 14365 5858
1025 14365 6918
1025 14364 8481
1025 14363 10339
1025 14358 12321
1025 14345 14346
6840 14301 15358
1025 15358 7020
1025 15358 7167
1025 15358 7379
1025 15358 7915
1025 15358 8971
1025 15358 10531
1025 15358 12387
1025 15358 14369
1025 15358 15358
8296 1025 1025
8298 1025 1754
8302 1025 3983
8313 1025 6108
8348 1025 8181
8450 1025 10236
8734 1025 12287
9404 1025 14335
10619 1025 15358
8289 1838 1025
8292 1815 1766
8295 1778 3987
8307 1663 6110
8341 1310 8181
8444 1025 10236
8729 1025 12287
9401 1025 14335
10617 1025 15358
8278 4036 1025
8281 4027 1785
8285 4013 3995
8296 3967 6112
8331 3819 8182
8434 3268 10237
8720 1025 12287
9395 1025 14335
10614 1025 15358
8244 6145 1025
8247 6142 1845
8251 6138 4019
8262 6124 6119
8298 6080 8184
8403 5937 10237
8694 5410 12287
9376 1025 14336
10605 1025 15358
8135 8212 1025
8137 8211 2030
8141 8210 4090
8154 8205 6142
8192 8192 8192
8303 8148 10240
8609 8007 12288
9318 7487 14336
10576 1025 15358
7749 10266 1025
7752 10266 2601
7757 10266 4293
7772 10264 6210
7819 10260 8214
7955 10246 10247
8319 10202 12290
9127 10062 14337
10482 9545 15358
5377 12316 2312
5388 12316 3709
5406 12316 4805
5461 12315 6406
5621 12314 8281
6041 12310 10269
6935 12296 12298
8367 12252 14339
10161 12112 15358
1025 14365 4838
1025 14365 5288
1025 14365 5830
1025 14364 6902
1025 14364 8474
1025 14363 10336
1025 14358 12320
1025 14344 14346
8509 14301 15358
1025 15358 7005
1025 15358 7154
1025 15358 7367
1025 15358 7906
1025 15358 8966
1025 15358 10529
1025 15358 12387
1025 15358 14368
1025 15358 15358
10343 1025 1025
10344 1025 1145
10345 1025 3722
10349 1025 6031
10360 1025 8156
10395 1025 10229
10497 1025 12284
10781 1025 14335
11452 1025 15358
10341 1334 1025
10342 1311 1158
10343 1274 3728
10347 1160 6033
10358 1025 8157
10393 1025 10229
10495 1025 12284
10780 1025 14335
11450 1025 15358
10338 3830 1025
10338 3820 1177
10340 3804 3737
10343 3753 6035
10355 3585 8158
10389 2943 10229
10492 1025 12284
10777 1025 14335
11448 1025 15358
10327 6083 1025
10327 6080 1237
10329 6075 3764
10332 6061 6043
10344 6015 8160
10379 5867 10230
10482 5316 12285
10768 1025 14335
11443 1025 15358
10293 8192 1025
10293 8192 1422
10295 8190 3845
10298 8186 6067
10310 8172 8167
10346 8128 10232
10451 7985 12285
10742 7458 14335
11424 1025 15358
10183 10260 1025
10184 10260 1993
10185 10259 4075
10189 10258 6138
10202 10253 8190
10239 10239 10239
10351 10196 12288
10657 10055 14336
11366 9535 15358
9797 12314 1703
9798 12314 3403
9800 12314 4643
9805 12313 6340
9820 12312 8258
9867 12308 10262
10002 12294 12295
10367 12250 14338
11175 12110 15358
7426 14364 4680
7430 14364 5166
7436 14364 5740
7454 14364 6853
7509 14363 8453
7669 14362 10329
8089 14357 12317
8983 14344 14345
10415 14300 15358
1025 15358 6958
1025 15358 7111
1025 15358 7329
1025 15358 7878
1025 15358 8950
1025 15358 10522
1025 15358 12384
1025 15358 14368
1025 15358 15358
12391 1025 1025
12391 1025 1025
12392 1025 2513
12393 1025 5771
12397 1025 8079
12408 1025 10204
12442 1025 12276
12545 1025 14332
12829 1025 15358
12390 1025 1025
12391 1025 1025
12391 1025 2525
12392 1025 5773
12396 1025 8080
12407 1025 10204
12442 1025 12276
12544 1025 14332
12828 1025 15358
12389 2989 1025
12389 2973 1025
12390 2947 2544
12391 2864 5776
12395 2549 8081
12406 1460 10205
12441 1025 12277
12543 1025 14332
12827 1025 15358
12386 5876 1025
12386 5873 1025
12386 5868 2604
12387 5852 5784
12391 5800 8083
12403 5633 10205
12437 4991 12277
12540 1025 14332
12825 1025 15358
12375 8130 1025
12375 8129 1025
12375 8128 2779
12377 8123 5812
12380 8109 8091
12392 8063 10208
12427 7915 12278
12530 7364 14332
12816 1025 15358
12341 10240 1025
12341 10240 1025
12341 10239 3174
12342 10238 5893
12346 10233 8114
12358 10219 10215
12393 10175 12280
12499 10033 14333
12789 9506 15358
12231 12308 1025
12231 12308 1876
12232 12308 4031
12233 12307 6123
12237 12306 8185
12250 12301 10238
12287 12287 12287
12399 12244 14336
12704 12103 15358
11845 14362 4082
11846 14362 4726
11846 14362 5430
11848 14362 6691
11853 14361 8388
11868 14360 10306
11915 14355 12310
12050 14342 14343
12415 14298 15358
9475 15358 6806
9476 15358 6972
9478 15358 7206
9484 15358 7788
9502 15358 8901
9557 15358 10501
9717 15358 12377
10136 15358 14365
11031 15358 15358
14439 1025 1025
14439 1025 1025
14439 1025 1025
14439 1025 4601
14441 1025 7819
14444 1025 10127
14456 1025 12252
14490 1025 14324
14593 1025 15358
14439 1025 1025
14439 1025 1025
14439 1025 1025
14439 1025 4604
14440 1025 7820
14444 1025 10127
14455 1025 12252
14490 1025 14324
14592 1025 15358
14438 1025 1025
14438 1025 1025
14438 1025 1025
14439 1025 4610
14440 1025 7821
14444 1025 10128
14455 1025 12252
14490 1025 14324
14592 1025 15358
14437 5034 1025
14437 5029 1025
14437 5021 1025
14438 4995 4627
14439 4912 7823
14443 4631 10128
14454 3312 12253
14488 1025 14324
14591 1025 15358
14434 7924 1025
14434 7923 1025
14434 7921 1025
14434 7916 4678
14435 7899 7832
14439 7848 10131
14450 7681 12253
14485 7039 14325
14588 1025 15358
14423 10178 1025
14423 10178 1025
14423 10177 1025
14423 10176 4827
14424 10171 7860
14428 10156 10139
14440 10111 12256
14474 9963 14325
14578 9412 15358
14388 12288 1025
14389 12288 1025
14389 12288 1025
14389 12287 5222
14390 12286 7941
14394 12281 10162
14406 12267 12263
14441 12223 14328
14547 12081 15358
14279 14356 1025
14279 14356 1518
14279 14356 3886
14280 14355 6079
14281 14355 8171
14285 14353 10233
14297 14349 12286
14335 14335 14335
14447 14292 15358
13893 15358 6238
13893 15358 6460
13894 15358 6764
13894 15358 7478
13896 15358 8739
13901 15358 10436
13916 15358 12354
13962 15358 14357
14098 15358 15358
15358 1025 1025
15358 1025 1025
15358 1025 1025
15358 1025 1025
15358 1025 6649
15358 1025 9867
15358 1025 12175
15358 1025 14300
15358 1025 15358
15358 1025 1025
15358 1025 1025
15358 1025 1025
15358 1025 1025
15358 1025 6650
15358 1025 9867
15358 1025 12175
15358 1025 14300
15358 1025 15358
15358 1025 1025
15358 1025 1025
15358 1025 1025
15358 1025 1025
15358 1025 6652
15358 1025 9867
15358 1025 12175
15358 1025 14300
15358 1025 15358
15358 1025 1025
15358 1025 1025
15358 1025 1025
15358 1025 1025
15358 1025 6658
15358 1025 9868
15358 1025 12176
15358 1025 14300
15358 1025 15358
15358 7082 1025
15358 7080 1025
15358 7077 1025
15358 7069 1025
15358 7043 6675
15358 6960 9871
15358 6679 12176
15358 5360 14300
15358 1025 15358
15358 9971 1025
15358 9971 1025
15358 9971 1025
15358 9969 1025
15358 9964 6726
15358 9947 9880
15358 9896 12179
15358 9729 14301
15358 9087 15358
15358 12226 1025
15358 12226 1025
15358 12226 1025
15358 12225 1025
15358 12224 6875
15358 12219 9907
15358 12204 12187
15358 12159 14304
15358 12011 15358
15358 14336 1025
15358 14336 1025
15358 14336 1025
15358 14336 1025
15358 14335 7270
15358 14334 9989
15358 14329 12210
15358 14315 14311
15358 14271 15358
15358 15358 1025
15358 15358 1025
15358 15358 3349
15358 15358 5934
15358 15358 8127
15358 15358 10219
15358 15358 12281
15358 15358 14334
15358 15358 15358
