LutTests/3DL/Custom_14bits_17nodes.3dl
# Created with LUTCalc v4.06 by Ben Turley February 2024 #
# IDENTIFICATION: LUTCalc - 3DLUT
# CREATOR: LUTCalc v4.06
# USER: LUTCalc
# DATA: 2024-02-24T18:42:11 #
# NUMBER OF COLUMNS: 3
# NUMBER OF ROWS: 4913
# NUMBER OF NODES: 17
# INPUT RANGE: 14
# OUTPUT RANGE: 14
# TITLE : Custom LUT
# DESCRIPTION : S-Log3/Sony S-Gamut3.cine (Venice) -> S-Log3/Sony S-Gamut3.cine, Stop Shift 0.00, Black Level 3.54% IRE, Data Input -> Data Output
0 1024 2048 3072 4096 5120 6144 7168 8192 9216 10240 11264 12288 13312 14336 15360 16383
1025 1025 1025
1025 1025 1025
1025 1025 2049
1025 1025 3073
1025 1025 4097
1025 1025 5120
1025 1025 6144
1025 1025 7168
1412 1025 8192
2469 1025 9216
3693 1025 10240
4800 1025 11264
5870 1025 12288
6919 1025 13312
7958 1025 14336
8990 1025 15358
10018 1025 15358
1025 1041 1025
1025 1029 1030
1025 1025 2055
1025 1025 3077
1025 1025 4099
1025 1025 5122
1025 1025 6145
1025 1025 7169
1321 1025 8192
2378 1025 9216
3650 1025 10240
4777 1025 11264
5857 1025 12288
6912 1025 13312
7954 1025 14336
8987 1025 15358
10017 1025 15358
1025 2082 1025
1025 2070 1036
1025 2059 2061
1025 2046 3081
1025 2022 4101
1025 1980 5123
1025 1907 6146
1025 1779 7169
1230 1554 8193
2287 1158 9216
3606 1025 10240
4753 1025 11264
5844 1025 12288
6905 1025 13312
7949 1025 14336
8985 1025 15358
10016 1025 15358
1025 3106 1025
1025 3099 1043
1025 3091 2068
1025 3083 3085
1025 3067 4104
1025 3040 5124
1025 2990 6147
1025 2900 7170
1127 2725 8193
2184 2330 9217
3555 1636 10240
4726 1025 11264
5829 1025 12288
6897 1025 13312
7945 1025 14336
8982 1025 15358
10014 1025 15358
1025 4128 1025
1025 4124 1056
1025 4120 2080
1025 4115 3093
1025 4106 4108
1025 4091 5127
1025 4063 6148
1025 4013 7170
1025 3923 8193
1998 3752 9217
3458 3407 10240
4676 2541 11264
5802 1025 12288
6882 1025 13312
7936 1025 14336
8978 1025 15358
10011 1025 15358
1025 5151 1025
1025 5149 1078
1025 5146 2102
1025 5143 3107
1025 5138 4116
1025 5130 5132
1025 5114 6151
1025 5086 7172
1025 5037 8194
1672 4946 9217
3276 4776 10241
4585 4430 11264
5754 3599 12288
6855 1025 13312
7922 1025 14336
8969 1025 15358
10007 1025 15358
1025 6174 1025
1025 6173 1116
1025 6172 2140
1025 6170 3132
1025 6167 4130
1025 6162 5140
1025 6153 6155
1025 6138 7175
1025 6110 8196
1099 6061 9218
2903 5970 10241
4413 5799 11265
5665 5454 12288
6807 4622 13312
7895 1025 14336
8955 1025 15358
9998 1025 15358
1025 7198 1025
1025 7197 1183
1025 7196 2207
1025 7195 3174
1025 7194 4155
1025 7191 5154
1025 7186 6164
1025 7177 7179
1025 7162 8198
1025 7134 9220
1949 7084 10242
4065 6994 11265
5499 6823 12289
6720 6478 13312
7848 5646 14336
8928 1025 15358
9984 1025 15358
1025 8222 1025
1025 8221 1301
1025 8221 2325
1025 8220 3246
1025 8219 4197
1025 8218 5178
1025 8215 6178
1025 8210 7187
1025 8201 8203
1025 8186 9222
1025 8158 10244
3224 8108 11266
5163 8018 12289
6557 7847 13313
7762 7502 14336
8881 6670 15358
9957 1025 15358
1025 9245 1025
1025 9245 1508
1025 9245 2532
1025 9245 3366
1025 9244 4269
1025 9243 5221
1025 9242 6202
1025 9239 7201
1025 9234 8211
1025 9225 9227
1025 9209 10246
1025 9182 11268
4365 9132 12290
6228 9042 13313
7600 8871 14336
8796 8525 15358
9911 7694 15358
1025 10269 1025
1025 10269 1872
1025 10269 2859
1025 10269 3559
1025 10269 4389
1025 10268 5293
1025 10267 6244
1025 10266 7226
1025 10263 8225
1025 10258 9235
1025 10249 10251
1025 10233 11270
1025 10206 12291
5452 10156 13314
7275 10065 14337
8635 9895 15358
9825 9549 15358
1025 11293 1486
1025 11293 2510
1025 11293 3279
1025 11293 3855
1025 11293 4582
1025 11293 5413
1025 11292 6316
1025 11291 7268
1025 11289 8250
1025 11287 9249
1025 11282 10259
1025 11273 11275
1025 11257 12294
1101 11230 13315
6511 11180 14338
8312 11089 15358
9665 10919 15358
1025 12317 2607
1025 12317 3335
1025 12317 3841
1025 12317 4280
1025 12317 4878
1025 12317 5606
1025 12316 6436
1025 12316 7340
1025 12315 8292
1025 12313 9274
1025 12311 10273
1025 12306 11283
1025 12297 12299
1025 12281 13318
1953 12254 14339
7554 12204 15358
9343 12113 15358
1025 13341 3806
1025 13341 4208
1025 13341 4537
1025 13341 4848
1025 13341 5304
1025 13341 5902
1025 13341 6629
1025 13340 7460
1025 13340 8364
1025 13339 9316
1025 13337 10298
1025 13335 11297
1025 13330 12307
1025 13321 13323
1025 13305 14342
3229 13277 15358
8590 13228 15358
1025 14365 4910
1025 14365 5140
1025 14365 5345
1025 14365 5550
1025 14365 5872
1025 14365 6328
1025 14365 6926
1025 14365 7653
1025 14364 8484
1025 14364 9388
1025 14363 10340
1025 14361 11322
1025 14358 12321
1025 14353 13331
1025 14345 14347
1025 14329 15358
4369 14301 15358
1025 15358 5978
1025 15358 6110
1025 15358 6233
1025 15358 6361
1025 15358 6574
1025 15358 6896
1025 15358 7351
1025 15358 7949
1025 15358 8677
1025 15358 9508
1025 15358 10412
1025 15358 11364
1025 15358 12345
1025 15358 13345
1025 15358 14355
1025 15358 15358
1025 15353 15358
1025 15358 7027
1025 15358 7102
1025 15358 7174
1025 15358 7252
1025 15358 7385
1025 15358 7598
1025 15358 7920
1025 15358 8375
1025 15358 8973
1025 15358 9701
1025 15358 10532
1025 15358 11436
1025 15358 12388
1025 15358 13369
1025 15358 14369
1025 15358 15358
1025 15358 15358
1084 1025 1025
1115 1025 1025
1146 1025 2042
1181 1025 3068
1244 1025 4094
1356 1025 5119
1551 1025 6144
1894 1025 7168
2496 1025 8192
3290 1025 9216
4140 1025 10240
5057 1025 11264
6017 1025 12288
7003 1025 13312
8006 1025 14336
9017 1025 15358
10034 1025 15358
1025 1036 1025
1025 1025 1025
1055 1025 2048
1090 1025 3072
1153 1025 4096
1264 1025 5120
1460 1025 6144
1803 1025 7168
2405 1025 8192
3236 1025 9216
4106 1025 10240
5037 1025 11264
6005 1025 12288
6996 1025 13312
8002 1025 14336
9015 1025 15358
10033 1025 15358
1025 2076 1025
1025 2065 1030
1025 2053 2054
1025 2040 3076
1062 2016 4099
1173 1975 5122
1369 1902 6145
1712 1774 7169
2314 1548 8192
3181 1153 9216
4072 1025 10240
5016 1025 11264
5993 1025 12288
6989 1025 13312
7998 1025 14336
9012 1025 15358
10031 1025 15358
1025 3103 1025
1025 3095 1037
1025 3088 2061
1025 3079 3081
1025 3064 4101
1071 3036 5123
1266 2986 6146
1609 2896 7169
2211 2720 8193
3116 2325 9216
4033 1630 10240
4993 1025 11264
5979 1025 12288
6982 1025 13312
7993 1025 14336
9010 1025 15358
10030 1025 15358
1025 4126 1025
1025 4122 1049
1025 4118 2074
1025 4113 3089
1025 4104 4106
1025 4089 5126
1080 4061 6147
1423 4011 7170
2025 3921 8193
2992 3750 9217
3959 3404 10240
4950 2535 11264
5954 1025 12288
6967 1025 13312
7985 1025 14336
9005 1025 15358
10027 1025 15358
1025 5150 1025
1025 5148 1071
1025 5145 2095
1025 5142 3103
1025 5137 4114
1025 5129 5130
1025 5113 6150
1097 5085 7172
1699 5036 8194
2753 4945 9217
3822 4774 10241
4872 4429 11264
5910 3596 12288
6942 1025 13312
7970 1025 14336
8997 1025 15358
10022 1025 15358
1025 6174 1025
1025 6172 1109
1025 6171 2134
1025 6169 3128
1025 6167 4128
1025 6162 5138
1025 6153 6155
1025 6137 7174
1126 6110 8196
2183 6060 9218
3554 5969 10241
4726 5798 11265
5829 5453 12288
6896 4621 13312
7945 1025 14336
8982 1025 15358
10014 1025 15358
1025 7198 1025
1025 7197 1176
1025 7196 2201
1025 7195 3170
1025 7194 4153
1025 7191 5153
1025 7186 6163
1025 7177 7179
1025 7161 8198
1177 7134 9220
2958 7084 10242
4437 6993 11265
5677 6823 12289
6814 6477 13312
7899 5645 14336
8957 1025 15358
10000 1025 15358
1025 8221 1025
1025 8221 1294
1025 8221 2319
1025 8220 3242
1025 8219 4195
1025 8218 5177
1025 8215 6177
1025 8210 7187
1025 8201 8203
1025 8185 9222
1267 8158 10244
3784 8108 11266
5376 8017 12289
6659 7847 13313
7815 7501 14336
8910 6669 15358
9974 1025 15358
1025 9245 1025
1025 9245 1501
1025 9245 2526
1025 9245 3362
1025 9244 4267
1025 9243 5219
1025 9242 6201
1025 9239 7201
1025 9234 8211
1025 9225 9227
1025 9209 10246
1424 9182 11267
4685 9132 12290
6350 9041 13313
7658 8871 14336
8826 8525 15358
9927 7693 15358
1025 10269 1025
1025 10269 1865
1025 10269 2855
1025 10269 3555
1025 10269 4387
1025 10268 5291
1025 10267 6244
1025 10265 7226
1025 10263 8225
1025 10258 9235
1025 10249 10251
1025 10233 11270
1700 10206 12291
5635 10156 13314
7345 10065 14337
8668 9895 15358
9842 9549 15358
1025 11293 1479
1025 11293 2503
1025 11293 3275
1025 11293 3852
1025 11293 4580
1025 11293 5411
1025 11292 6316
1025 11291 7268
1025 11289 8250
1025 11287 9249
1025 11282 10259
1025 11273 11275
1025 11257 12294
2185 11230 13315
6615 11180 14338
8352 11089 15358
9684 10919 15358
1025 12317 2600
1025 12317 3331
1025 12317 3838
1025 12317 4278
1025 12317 4877
1025 12317 5605
1025 12316 6436
1025 12316 7340
1025 12315 8292
1025 12313 9274
1025 12311 10273
1025 12306 11283
1025 12297 12299
1025 12281 13318
2961 12253 14339
7614 12204 15358
9366 12113 15358
1025 13341 3803
1025 13341 4206
1025 13341 4536
1025 13341 4847
1025 13341 5303
1025 13341 5901
1025 13341 6629
1025 13340 7460
1025 13340 8364
1025 13339 9316
1025 13337 10298
1025 13334 11297
1025 13329 12307
1025 13321 13323
1025 13305 14342
3788 13277 15358
8624 13228 15358
1025 14365 4909
1025 14365 5139
1025 14365 5343
1025 14365 5549
1025 14365 5871
1025 14365 6327
1025 14365 6925
1025 14365 7653
1025 14364 8484
1025 14364 9388
1025 14363 10340
1025 14361 11322
1025 14358 12321
1025 14353 13331
1025 14345 14347
1025 14329 15358
4689 14301 15358
1025 15358 5978
1025 15358 6109
1025 15358 6232
1025 15358 6361
1025 15358 6573
1025 15358 6895
1025 15358 7351
1025 15358 7949
1025 15358 8677
1025 15358 9508
1025 15358 10412
1025 15358 11364
1025 15358 12345
1025 15358 13345
1025 15358 14355
1025 15358 15358
1025 15353 15358
1025 15358 7027
1025 15358 7102
1025 15358 7174
1025 15358 7252
1025 15358 7385
1025 15358 7597
1025 15358 7919
1025 15358 8375
1025 15358 8973
1025 15358 9701
1025 15358 10532
1025 15358 11436
1025 15358 12388
1025 15358 13369
1025 15358 14369
1025 15358 15358
1025 15358 15358
2168 1025 1025
2199 1025 1025
2230 1025 2036
2265 1025 3064
2328 1025 4092
2440 1025 5118
2635 1025 6143
2919 1025 7167
3306 1025 8192
3833 1025 9216
4499 1025 10240
5282 1025 11264
6153 1025 12288
7084 1025 13312
8052 1025 14336
9044 1025 15358
10049 1025 15358
2077 1030 1025
2108 1025 1025
2139 1025 2042
2174 1025 3068
2237 1025 4094
2348 1025 5119
2544 1025 6144
2853 1025 7168
3252 1025 8192
3793 1025 9216
4471 1025 10240
5264 1025 11264
6142 1025 12288
7077 1025 13312
8048 1025 14336
9042 1025 15358
10048 1025 15358
1986 2071 1025
2017 2059 1025
2048 2048 2048
2083 2035 3072
2146 2011 4096
2257 1970 5120
2453 1896 6144
2784 1768 7168
3197 1543 8192
3752 1148 9216
4443 1025 10240
5246 1025 11264
6131 1025 12288
7070 1025 13312
8045 1025 14336
9039 1025 15358
10047 1025 15358
1883 3099 1025
1914 3092 1030
1945 3084 2055
1980 3076 3077
2044 3060 4099
2155 3032 5122
2350 2983 6145
2693 2892 7169
3133 2715 8192
3705 2319 9216
4411 1625 10240
5225 1025 11264
6118 1025 12288
7063 1025 13312
8040 1025 14336
9037 1025 15358
10045 1025 15358
1697 4124 1025
1728 4120 1043
1760 4116 2067
1794 4111 3085
1858 4102 4103
1969 4087 5124
2164 4059 6147
2507 4009 7170
3011 3918 8193
3617 3747 9217
4352 3401 10240
5188 2530 11264
6095 1025 12288
7049 1025 13312
8032 1025 14336
9032 1025 15358
10043 1025 15358
1371 5149 1025
1402 5146 1065
1433 5144 2089
1468 5141 3099
1531 5136 4112
1643 5127 5129
1838 5112 6149
2181 5084 7171
2774 5034 8194
3450 4944 9217
4242 4773 10241
5119 4427 11264
6054 3594 12288
7025 1025 13312
8018 1025 14336
9024 1025 15358
10038 1025 15358
1025 6173 1025
1025 6172 1103
1025 6170 2127
1025 6169 3124
1025 6166 4126
1070 6161 5137
1265 6152 6154
1608 6137 7174
2210 6109 8195
3115 6059 9218
4032 5969 10241
4993 5798 11265
5979 5452 12288
6982 4619 13312
7993 1025 14336
9010 1025 15358
10030 1025 15358
1025 7197 1025
1025 7196 1170
1025 7196 2194
1025 7195 3166
1025 7193 4150
1025 7190 5151
1025 7185 6162
1025 7176 7178
1204 7161 8198
2261 7133 9219
3593 7084 10242
4746 6993 11265
5840 6822 12289
6903 6477 13312
7948 5644 14336
8984 1025 15358
10015 1025 15358
1025 8221 1025
1025 8221 1288
1025 8220 2312
1025 8220 3238
1025 8219 4193
1025 8217 5176
1025 8214 6176
1025 8209 7186
1025 8201 8203
1025 8185 9222
2351 8157 10243
4212 8108 11266
5567 8017 12289
6755 7846 13313
7867 7501 14336
8939 6669 15358
9990 1025 15358
1025 9245 1025
1025 9245 1495
1025 9245 2519
1025 9244 3359
1025 9244 4265
1025 9243 5218
1025 9241 6201
1025 9239 7201
1025 9234 8211
1025 9225 9227
1025 9209 10246
2508 9182 11267
4958 9132 12290
6464 9041 13313
7714 8870 14336
8856 8525 15358
9943 7693 15358
1025 10269 1025
1025 10269 1859
1025 10269 2850
1025 10269 3552
1025 10268 4385
1025 10268 5290
1025 10267 6243
1025 10265 7225
1025 10263 8225
1025 10258 9235
1025 10249 10251
1025 10233 11270
2775 10206 12291
5802 10156 13314
7411 10065 14337
8700 9894 15358
9860 9549 15358
1025 11293 1473
1025 11293 2497
1025 11293 3272
1025 11293 3849
1025 11293 4578
1025 11292 5410
1025 11292 6315
1025 11291 7267
1025 11289 8249
1025 11287 9249
1025 11282 10259
1025 11273 11275
1025 11257 12294
3117 11230 13315
6714 11180 14338
8390 11089 15358
9702 10918 15358
1025 12317 2594
1025 12317 3328
1025 12317 3835
1025 12317 4276
1025 12317 4875
1025 12317 5604
1025 12316 6435
1025 12316 7339
1025 12315 8292
1025 12313 9273
1025 12311 10273
1025 12306 11283
1025 12297 12299
1025 12281 13318
3595 12253 14339
7672 12204 15358
9388 12113 15358
1025 13341 3800
1025 13341 4204
1025 13341 4534
1025 13341 4845
1025 13341 5301
1025 13341 5900
1025 13341 6628
1025 13340 7459
1025 13340 8364
1025 13339 9316
1025 13337 10297
1025 13334 11297
1025 13329 12307
1025 13321 13323
1025 13305 14342
4215 13277 15358
8657 13228 15358
1025 14365 4907
1025 14365 5138
1025 14365 5342
1025 14365 5548
1025 14365 5870
1025 14365 6326
1025 14365 6925
1025 14365 7653
1025 14364 8484
1025 14364 9388
1025 14363 10340
1025 14361 11321
1025 14358 12321
1025 14353 13331
1025 14345 14347
1025 14329 15358
4960 14301 15358
1025 15358 5977
1025 15358 6108
1025 15358 6231
1025 15358 6360
1025 15358 6573
1025 15358 6895
1025 15358 7351
1025 15358 7949
1025 15358 8677
1025 15358 9508
1025 15358 10412
1025 15358 11364
1025 15358 12345
1025 15358 13345
1025 15358 14355
1025 15358 15358
1025 15353 15358
1025 15358 7026
1025 15358 7101
1025 15358 7173
1025 15358 7251
1025 15358 7384
1025 15358 7597
1025 15358 7919
1025 15358 8375
1025 15358 8973
1025 15358 9701
1025 15358 10532
1025 15358 11436
1025 15358 12388
1025 15358 13369
1025 15358 14369
1025 15358 15358
1025 15358 15358
3191 1025 1025
3210 1025 1025
3229 1025 2028
3250 1025 3059
3288 1025 4089
3351 1025 5116
3458 1025 6142
3632 1025 7167
3902 1025 8191
4297 1025 9216
4832 1025 10240
5506 1025 11264
6295 1025 12288
7170 1025 13312
8104 1025 14336
9074 1025 15358
10067 1025 15358
3134 1025 1025
3154 1025 1025
3173 1025 2034
3195 1025 3063
3233 1025 4091
3299 1025 5117
3409 1025 6143
3588 1025 7167
3864 1025 8192
4266 1025 9216
4810 1025 10240
5490 1025 11264
6285 1025 12288
7164 1025 13312
8100 1025 14336
9072 1025 15358
