LutTests/3DL/Custom_14bits_17nodes.3dl
# Created with LUTCalc v4.06 by Ben Turley February 2024 #
# IDENTIFICATION: LUTCalc - 3DLUT
# CREATOR: LUTCalc v4.06
# USER: LUTCalc
# DATA: 2024-02-24T18:42:11 #
# NUMBER OF COLUMNS: 3
# NUMBER OF ROWS: 4913
# NUMBER OF NODES: 17
# INPUT RANGE: 14
# OUTPUT RANGE: 14
# TITLE : Custom LUT
# DESCRIPTION : S-Log3/Sony S-Gamut3.cine (Venice) -> S-Log3/Sony S-Gamut3.cine, Stop Shift 0.00, Black Level 3.54% IRE, Data Input -> Data Output
0 4096 8192 12288 16383
1025 1025 1025
1025 1025 4097
1412 1025 8192
5870 1025 12288
10018 1025 15358
1025 4128 1025
1025 4106 4108
1025 3923 8193
5802 1025 12288
10011 1025 15358
1025 8222 1025
1025 8219 4197
1025 8201 8203
5163 8018 12289
9957 1025 15358
1025 12317 2607
1025 12317 4878
1025 12315 8292
1025 12297 12299
9343 12113 15358
1025 15358 7027
1025 15358 7385
1025 15358 8973
1025 15358 12388
1025 15358 15358
4208 1025 1025
4264 1025 4084
4648 1025 8191
6527 1025 12288
10097 1025 15358
4035 4118 1025
4096 4096 4096
4513 3911 8192
6480 1025 12288
10091 1025 15358
1457 8221 1025
1617 8218 4185
2839 8200 8202
6065 8016 12289
10039 1025 15358
1025 12317 2573
1025 12317 4870
1025 12315 8291
1025 12297 12299
9457 12113 15358
1025 15358 7025
1025 15358 7383
1025 15358 8972
1025 15358 12388
1025 15358 15358
8296 1025 1025
8302 1025 3983
8348 1025 8181
8734 1025 12287
10619 1025 15358
8278 4036 1025
8285 4013 3995
8331 3819 8182
8720 1025 12287
10614 1025 15358
8135 8212 1025
8141 8210 4090
8192 8192 8192
8609 8007 12288
10576 1025 15358
5377 12316 2312
5406 12316 4805
5621 12314 8281
6935 12296 12298
10161 12112 15358
1025 15358 7005
1025 15358 7367
1025 15358 8966
1025 15358 12387
1025 15358 15358
12391 1025 1025
12392 1025 2513
12397 1025 8079
12442 1025 12276
12829 1025 15358
12389 2989 1025
12390 2947 2544
12395 2549 8081
12441 1025 12277
12827 1025 15358
12375 8130 1025
12375 8128 2779
12380 8109 8091
12427 7915 12278
12816 1025 15358
12231 12308 1025
12232 12308 4031
12237 12306 8185
12287 12287 12287
12704 12103 15358
9475 15358 6806
9478 15358 7206
9502 15358 8901
9717 15358 12377
11031 15358 15358
15358 1025 1025
15358 1025 1025
15358 1025 6649
15358 1025 12175
15358 1025 15358
15358 1025 1025
15358 1025 1025
15358 1025 6652
15358 1025 12175
15358 1025 15358
15358 7082 1025
15358 7077 1025
15358 7043 6675
15358 6679 12176
15358 1025 15358
15358 12226 1025
15358 12226 1025
15358 12224 6875
15358 12204 12187
15358 12011 15358
15358 15358 1025
15358 15358 3349
15358 15358 8127
15358 15358 12281
15358 15358 15358
