LutTests/3DL/Test.3DL
#Created by: Adobe Photoshop Export
#Description: 3DL LUT for test
0 146 292 438 585 731 877 1023
1587 922 1021
1609 948 1169
1593 936 1422
1569 916 1834
1793 1020 2477
2064 1147 3157
2319 1265 3768
2460 1332 4095
1576 1043 1012
1557 1049 1156
1542 1038 1409
1518 1020 1824
1742 1119 2470
2013 1240 3153
2267 1354 3766
2409 1417 4095
1540 1367 957
1522 1377 1107
1512 1364 1393
1488 1348 1811
1711 1436 2460
1982 1543 3147
2237 1644 3764
2378 1700 4095
1500 1917 878
1481 1925 1032
1471 1914 1325
1455 1899 1790
1663 1961 2444
1934 2046 3138
2188 2125 3761
2330 2170 4095
1741 2651 961
1723 2656 1111
1712 2649 1397
1696 2638 1849
1676 2624 2440
1876 2665 3126
2130 2719 3757
2272 2749 4095
1973 3315 1041
1954 3318 1188
1944 3314 1465
1928 3308 1905
1908 3300 2481
1886 3292 3124
2075 3313 3753
2216 3330 4095
2171 3849 1110
2152 3850 1253
2142 3849 1524
2126 3847 1954
2106 3844 2516
2083 3841 3145
2063 3839 3751
2169 3843 4095
2266 4095 1143
2247 4095 1285
2237 4095 1552
2221 4095 1977
2200 4095 2533
2178 4095 3155
2158 4095 3755
2146 4095 4095
1662 867 957
1712 928 1135
1729 952 1422
1706 933 1835
1919 1037 2477
2176 1163 3158
2418 1282 3768
2552 1348 4095
1658 988 953
1652 1022 1120
1669 1047 1408
1646 1029 1824
1859 1128 2469
2116 1250 3153
2357 1363 3766
2492 1427 4095
1650 1318 917
1619 1345 1080
1595 1350 1385
1572 1334 1804
1784 1422 2455
2042 1529 3144
2283 1630 3763
2417 1686 4095
1612 1878 838
1581 1899 1005
1556 1903 1317
1541 1888 1783
1738 1950 2439
1995 2035 3135
2237 2114 3760
2371 2159 4095
1841 2624 922
1810 2639 1085
1785 2641 1389
1770 2631 1842
1751 2617 2435
1941 2657 3124
2182 2712 3756
2316 2742 4095
2061 3300 1002
2030 3308 1161
2005 3310 1458
1990 3304 1899
1971 3296 2476
1950 3288 3121
2129 3309 3752
2263 3326 4095
2249 3844 1071
2217 3847 1227
2193 3847 1516
2178 3845 1947
2158 3843 2511
2137 3840 3142
2118 3837 3750
2218 3841 4095
2339 4095 1104
2307 4095 1258
2283 4095 1544
2268 4095 1970
2249 4095 2528
2228 4095 3152
2208 4095 3754
2197 4095 4095
1819 765 836
1864 825 1009
1957 951 1390
1963 965 1836
2153 1068 2478
2385 1195 3158
2602 1314 3768
2722 1380 4095
1816 880 832
1810 914 994
1903 1044 1376
1909 1059 1825
2099 1159 2470
2331 1280 3153
2548 1394 3766
2668 1457 4095
1851 1219 832
1823 1245 989
1765 1300 1340
1769 1320 1795
1960 1408 2448
2191 1515 3140
2408 1616 3762
2529 1672 4095
1830 1805 764
1802 1826 924
1744 1869 1282
1718 1867 1771
1895 1929 2430
2126 2014 3129
2343 2093 3758
2464 2138 4095
2036 2574 848
2008 2588 1004
1949 2618 1354
1924 2616 1830
1906 2602 2426
2077 2643 3118
2294 2697 3754
2414 2727 4095
2234 3272 928
2205 3280 1080
2147 3297 1423
2121 3296 1886
2104 3288 2467
2085 3280 3116
2246 3301 3750
2367 3318 4095
2402 3835 997
2374 3838 1146
2315 3843 1481
2290 3843 1935
2273 3840 2502
2254 3837 3136
2236 3835 3748
2327 3839 4095
2483 4095 1029
2455 4095 1177
2396 4095 1509
2371 4095 1958
2354 4095 2519
2335 4095 3146
2317 4095 3752
2307 4095 4095
2115 605 648
2152 666 813
2229 791 1178
2348 987 1811
2520 1118 2480
2710 1245 3159
2888 1364 3768
2987 1430 4095
2113 713 644
2108 746 798
2185 876 1164
2304 1078 1800
2476 1207 2472
2665 1328 3154
2843 1442 3767
2942 1505 4095
2142 1029 644
2119 1056 793
2071 1111 1128
2189 1331 1770
2361 1451 2450
2551 1558 3141
2729 1658 3762
2828 1714 4095
2192 1688 647
2169 1709 795
2121 1753 1130
2047 1821 1731
2180 1891 2408
2370 1976 3117
2548 2055 3753
2647 2099 4095
2361 2494 730
2338 2509 875
2290 2539 1202
2215 2585 1790
2190 2576 2404
2330 2617 3105
2508 2671 3749
2607 2701 4095
2523 3227 810
2500 3236 952
2452 3252 1271
2378 3278 1847
2352 3273 2445
2337 3265 3103
2469 3286 3745
2568 3303 4095
2662 3821 879
2638 3823 1017
2591 3829 1329
2516 3837 1896
2490 3835 2481
2475 3833 3124
2460 3830 3743
2535 3834 4095
2728 4095 912
2705 4095 1048
2657 4095 1358
2582 4095 1919
2557 4095 2497
2541 4095 3134
2527 4095 3747
2519 4095 4095
2708 537 571
2735 597 719
2789 723 1046
2875 918 1673
2984 1167 2469
3118 1310 3160
3246 1429 3769
3317 1495 4095
2706 627 567
2703 661 703
2758 791 1032
2843 993 1661
2952 1251 2461
3086 1390 3155
3214 1504 3767
3285 1567 4095
2727 901 567
2710 927 698
2676 983 997
2761 1202 1632
2870 1483 2439
3004 1613 3142
3132 1713 3762
3203 1769 4095
2760 1492 567
2744 1513 698
2709 1557 997
2656 1625 1591
2734 1894 2386
2868 2008 3110
2996 2088 3751
3067 2132 4095
2810 2391 578
2794 2406 708
2759 2435 1006
2706 2482 1596
2590 2420 2112
2677 2453 2919
2804 2507 3683
2875 2538 4095
2927 3170 658
2910 3178 785
2876 3195 1074
2822 3221 1653
2706 3186 2153
2682 3173 2917
2777 3195 3679
2848 3212 4095
3026 3802 727
3009 3804 850
2975 3810 1133
2921 3818 1701
2806 3807 2188
2781 3803 2938
2771 3800 3677
2824 3804 4095
3073 4095 760
3057 4095 882
3023 4095 1161
2969 4095 1724
2853 4095 2205
2829 4095 2948
2818 4095 3681
2812 4095 4095
3304 464 491
3320 525 620
3352 650 908
3402 845 1527
3466 1095 2363
3535 1366 3156
3609 1497 3769
3650 1563 4095
3303 537 487
3301 571 604
3333 701 894
3383 903 1516
3447 1161 2355
3516 1441 3151
3590 1569 3767
3632 1632 4095
3315 765 487
3306 792 599
3285 847 858
3335 1067 1486
3399 1348 2333
3468 1653 3138
3542 1771 3763
3584 1827 4095
3335 1283 487
3325 1304 599
3305 1348 858
3274 1416 1445
3319 1685 2279
3389 2031 3106
3463 2133 3751
3504 2178 4095
3358 2252 487
3348 2267 599
3328 2296 858
3297 2343 1442
3229 2281 2000
3263 2441 2888
3337 2511 3674
3378 2542 4095
3387 3109 498
3377 3117 609
3357 3134 868
3325 3160 1448
3258 3125 2004
3181 3080 2730
3230 3098 3609
3272 3115 4095
3445 3782 566
3435 3785 675
3415 3790 926
3384 3799 1496
3316 3787 2039
3239 3773 2751
3227 3769 3607
3258 3773 4095
3472 4095 599
3463 4095 706
3443 4095 955
3411 4095 1519
3344 4095 2056
3267 4095 2761
3255 4095 3611
3251 4095 4095
3823 398 418
3829 459 529
3840 584 782
3858 779 1394
3880 1028 2267
3904 1299 3098
3927 1554 3769
3942 1625 4095
3823 455 413
3822 489 513
3834 618 768
3851 820 1383
3874 1079 2258
3898 1359 3093
3921 1622 3767
3935 1692 4095
3827 641 413
3824 668 508
3817 723 732
3834 943 1353
3857 1224 2237
3881 1530 3080
3904 1816 3762
3918 1880 4095
3834 1093 413
3831 1114 508
3824 1157 732
3813 1225 1312
3829 1495 2183
3853 1840 3049
3876 2165 3751
3890 2219 4095
3842 2121 413
3839 2136 508
3832 2165 732
3821 2212 1309
3797 2150 1903
3809 2310 2831
3832 2533 3673
3846 2570 4095
3850 3039 413
3847 3047 508
3840 3064 732
3829 3089 1306
3805 3055 1901
3778 3010 2669
3789 3095 3598
3804 3115 4095
3858 3764 420
3855 3767 514
3848 3772 738
3837 3781 1309
3813 3769 1903
3786 3755 2670
3761 3741 3545
3771 3744 4095
3868 4095 453
3865 4095 546
3857 4095 766
3846 4095 1332
3823 4095 1920
3796 4095 2680
3770 4095 3548
3768 4095 4095
4095 362 378
4095 423 480
4095 548 713
4095 743 1322
4095 993 2214
4095 1264 3067
4095 1518 3757
4095 1659 4095
4095 411 374
4095 444 464
4095 574 699
4095 776 1311
4095 1034 2206
4095 1315 3062
4095 1578 3756
4095 1724 4095
4095 574 374
4095 601 459
4095 656 663
4095 876 1281
4095 1157 2184
4095 1463 3049
4095 1749 3751
4095 1909 4095
4095 989 374
4095 1010 459
4095 1054 663
4095 1122 1240
4095 1391 2130
4095 1737 3017
4095 2062 3740
4095 2242 4095
4095 2050 374
4095 2065 459
4095 2094 663
4095 2141 1237
4095 2079 1851
4095 2239 2800
4095 2462 3662
4095 2585 4095
4095 2999 374
4095 3007 459
4095 3024 663
4095 3050 1234
4095 3015 1848
4095 2970 2638
4095 3055 3587
4095 3124 4095
4095 3752 374
4095 3754 459
4095 3760 663
4095 3768 1232
4095 3757 1847
4095 3742 2637
4095 3729 3533
4095 3744 4095
4095 4095 374
4095 4095 459
4095 4095 663
4095 4095 1231
4095 4095 1846
4095 4095 2637
4095 4095 3533
4095 4095 4095
