LutTests/3DL/Test.3DL
#Created by: Adobe Photoshop Export
#Description: 3DL LUT for test
0 341 682 1023
1587 922 1021
1586 930 1541
1974 1105 2935
2460 1332 4095
1523 1528 930
1489 1520 1504
1878 1658 2919
2364 1838 4095
1899 3109 1016
1866 3105 1574
1820 3083 2899
2234 3143 4095
2266 4095 1143
2232 4095 1677
2186 4095 2946
2146 4095 4095
1899 717 779
2071 961 1510
2408 1168 2936
2801 1395 4095
1946 1349 775
1838 1450 1449
2161 1615 2907
2553 1796 4095
2257 3039 868
2149 3079 1524
2101 3063 2886
2436 3123 4095
2553 4095 995
2445 4095 1627
2397 4095 2933
2365 4095 4095
3113 488 517
3189 732 1102
3369 1299 2931
3543 1541 4095
3133 953 513
3085 1054 1041
3258 1710 2902
3432 1912 4095
3206 2876 525
3158 2917 1051
2984 2859 2496
3125 2914 4095
3338 4095 652
3290 4095 1154
3116 4095 2544
3093 4095 4095
4095 362 378
4095 606 831
4095 1174 2797
4095 1659 4095
4095 680 374
4095 781 770
4095 1437 2768
4095 2006 4095
4095 2706 374
4095 2746 770
4095 2688 2358
4095 2931 4095
4095 4095 374
4095 4095 770
4095 4095 2355
4095 4095 4095
