LutTests/3DL/Test.3DL
#Created by: Adobe Photoshop Export
#Description: 3DL LUT for test
0 16 32 49 65 81 97 114 130 146 162 179 195 211 227 244 260 276 292 309 325 341 357 373 390 406 422 438 455 471 487 503 520 536 552 568 585 601 617 633 650 666 682 698 714 731 747 763 779 796 812 828 844 861 877 893 909 926 942 958 974 991 1007 1023
1587 922 1021
1591 926 1034
1595 931 1048
1600 936 1064
1605 942 1081
1611 948 1101
1612 950 1118
1611 950 1133
1610 949 1150
1609 948 1169
1607 947 1190
1606 946 1212
1605 944 1237
1603 943 1262
1601 942 1290
1599 940 1320
1598 939 1352
1595 937 1386
1593 936 1422
1591 934 1459
1589 932 1499
1586 930 1541
1584 928 1585
1581 926 1631
1578 923 1679
1575 921 1729
1572 919 1780
1569 916 1834
1569 915 1891
1596 928 1961
1622 940 2032
1650 953 2103
1677 966 2177
1706 979 2251
1735 993 2325
1764 1006 2401
1793 1020 2477
1823 1034 2553
1853 1048 2630
1883 1062 2706
1914 1076 2783
1944 1090 2859
1974 1105 2935
2005 1119 3010
2035 1133 3084
2064 1147 3157
2094 1160 3229
2123 1174 3300
2152 1187 3370
2180 1201 3439
2209 1214 3506
2236 1227 3573
2264 1240 3639
2292 1253 3704
2319 1265 3768
2346 1278 3831
2372 1290 3893
2399 1303 3954
2425 1315 4015
2452 1327 4075
2460 1332 4095
2460 1332 4095
2460 1332 4095
2460 1332 4095
1583 927 1020
1587 931 1033
1591 936 1047
1596 942 1063
1601 947 1080
1607 954 1100
1608 956 1117
1607 955 1132
1606 954 1150
1605 953 1168
1604 952 1189
1602 951 1211
1601 950 1236
1599 949 1262
1598 948 1289
1596 946 1319
1594 945 1351
1592 943 1385
1590 941 1421
1587 939 1459
1585 938 1499
1582 936 1540
1580 934 1584
1577 931 1630
1574 929 1678
1572 927 1728
1569 925 1780
1566 922 1834
1566 921 1891
1592 933 1960
1618 946 2031
1646 959 2103
1674 972 2176
1702 985 2250
1731 998 2325
1760 1012 2400
1789 1025 2476
1819 1039 2553
1849 1053 2629
1880 1067 2706
1910 1081 2783
1940 1096 2859
1971 1110 2935
2001 1124 3010
2031 1138 3084
2061 1152 3157
2090 1165 3229
2119 1179 3300
2148 1192 3370
2176 1206 3439
2205 1219 3506
2233 1232 3573
2260 1245 3639
2288 1258 3704
2315 1270 3768
2342 1283 3831
2369 1295 3892
2395 1308 3954
2422 1320 4015
2448 1332 4075
2457 1336 4095
2457 1336 4095
2457 1336 4095
2457 1336 4095
1579 933 1019
1583 938 1032
1587 943 1046
1591 948 1061
1597 954 1079
1602 960 1099
1604 962 1115
1603 962 1131
1602 961 1148
1601 960 1167
1599 959 1188
1598 958 1210
1596 957 1235
1595 955 1261
1593 954 1288
1591 952 1318
1589 951 1350
1587 949 1384
1585 948 1420
1583 946 1458
1581 944 1498
1578 942 1539
1576 940 1583
1573 938 1629
1570 936 1677
1567 933 1727
1564 931 1779
1561 929 1833
1561 928 1890
1587 940 1960
1614 952 2030
1641 965 2102
1669 978 2175
1698 991 2249
1726 1004 2324
1756 1018 2400
1785 1032 2476
1815 1045 2552
1845 1059 2629
1875 1073 2705
1906 1088 2782
1936 1102 2858
1966 1116 2934
1996 1130 3009
2027 1144 3083
2056 1158 3157
2086 1171 3229
2115 1185 3300
2144 1198 3369
2172 1211 3438
2200 1225 3506
2228 1238 3573
2256 1250 3639
2284 1263 3703
2311 1276 3767
2338 1288 3830
2364 1301 3892
2391 1313 3954
2417 1325 4015
2443 1337 4075
2452 1342 4095
2452 1342 4095
2452 1342 4095
2452 1342 4095
1574 941 1018
1577 945 1030
1582 950 1045
1586 955 1060
1591 961 1078
1597 968 1098
1599 970 1114
1598 969 1130
1597 968 1147
1596 967 1166
1594 966 1187
1593 965 1209
1591 964 1233
1590 963 1259
1588 962 1287
1586 960 1317
1584 959 1349
1582 957 1383
1580 955 1419
1578 954 1457
1576 952 1497
1573 950 1538
1570 948 1582
1568 946 1628
1565 943 1676
1562 941 1726
1559 939 1778
1556 936 1832
1556 935 1889
1582 948 1959
1609 960 2029
1636 973 2101
1664 985 2174
1693 999 2249
1721 1012 2323
1751 1025 2399
1780 1039 2475
1810 1053 2552
1840 1067 2628
1870 1081 2705
1901 1095 2782
1931 1109 2858
1961 1123 2934
1991 1137 3009
2021 1151 3083
2051 1165 3156
2081 1178 3228
2110 1192 3299
2139 1205 3369
2167 1218 3438
2195 1231 3506
2223 1244 3572
2251 1257 3638
2278 1270 3703
2306 1282 3767
2333 1295 3830
2359 1307 3892
2386 1319 3954
2412 1332 4015
2438 1344 4075
2447 1348 4095
2447 1348 4095
2447 1348 4095
2447 1348 4095
1572 952 1017
1572 954 1029
1576 959 1043
1580 964 1059
1586 970 1076
1591 977 1096
1593 979 1113
1592 978 1128
1591 977 1146
1590 976 1165
1588 975 1185
1587 974 1208
1585 973 1232
1584 972 1258
1582 970 1286
1580 969 1316
1578 967 1348
1576 966 1382
1574 964 1417
1572 962 1455
1570 960 1495
1567 959 1537
1565 957 1581
1562 954 1627
1559 952 1675
1556 950 1725
1553 948 1777
1550 945 1831
1550 944 1888
1576 956 1958
1603 969 2028
1630 981 2100
1658 994 2174
1687 1007 2248
1715 1020 2323
1745 1034 2398
1774 1047 2474
1804 1061 2551
1834 1075 2628
1864 1089 2704
1895 1103 2781
1925 1117 2857
1955 1131 2933
1986 1145 3008
2016 1159 3083
2045 1172 3156
2075 1186 3228
2104 1199 3299
2133 1213 3369
2161 1226 3438
2189 1239 3506
2217 1252 3572
2245 1265 3638
2273 1277 3703
2300 1290 3767
2327 1302 3830
2353 1314 3892
2380 1327 3954
2406 1339 4015
2432 1351 4075
2441 1355 4095
2441 1355 4095
2441 1355 4095
2441 1355 4095
1574 966 1017
1571 967 1029
1569 969 1041
1574 974 1057
1579 980 1074
1585 987 1094
1586 989 1111
1585 988 1127
1584 987 1144
1583 986 1163
1582 985 1184
1580 984 1206
1579 983 1230
1577 982 1256
1576 980 1284
1574 979 1314
1572 977 1346
1570 976 1380
1568 974 1416
1565 972 1454
1563 971 1494
1560 969 1536
1558 967 1580
1555 965 1626
1552 962 1674
1550 960 1724
1547 958 1776
1544 955 1830
1544 955 1887
1570 967 1957
1596 979 2027
1624 991 2099
1652 1004 2173
1680 1017 2247
1709 1030 2322
1738 1044 2397
1767 1057 2474
1797 1071 2550
1827 1085 2627
1858 1098 2703
1888 1112 2780
1918 1126 2856
1949 1140 2932
1979 1154 3008
2009 1168 3082
2039 1182 3155
2068 1195 3227
2097 1208 3298
2126 1222 3368
2154 1235 3437
2183 1248 3505
2211 1261 3572
2238 1273 3638
2266 1286 3703
2293 1298 3767
2320 1311 3830
2347 1323 3892
2373 1335 3954
2400 1347 4015
2426 1359 4075
2435 1363 4095
2435 1363 4095
2435 1363 4095
2435 1363 4095
1576 982 1017
1573 983 1029
1571 985 1041
1568 986 1055
1571 992 1073
1577 998 1092
1579 1000 1109
1578 1000 1125
1576 999 1142
1575 998 1161
1574 997 1182
1573 996 1204
1571 995 1229
1570 993 1255
1568 992 1283
1566 991 1313
1564 989 1345
1562 987 1378
1560 986 1414
1558 984 1452
1555 982 1492
1553 980 1534
1550 978 1578
1548 976 1624
1545 974 1672
1542 972 1722
1539 969 1774
1536 967 1828
1536 966 1885
1562 978 1955
1589 990 2026
1616 1003 2098
1644 1015 2171
1672 1028 2246
1701 1041 2320
1730 1055 2396
1760 1068 2472
1790 1082 2549
1820 1096 2626
1850 1109 2703
1880 1123 2780
1911 1137 2856
1941 1151 2932
1971 1165 3007
2001 1178 3081
2031 1192 3155
2060 1205 3227
2089 1219 3298
2118 1232 3368
2147 1245 3437
2175 1258 3505
2203 1271 3572
2231 1283 3638
2258 1296 3703
2285 1308 3767
2312 1320 3830
2339 1333 3892
2366 1345 3954
2392 1357 4015
2418 1369 4075
2427 1373 4095
2427 1373 4095
2427 1373 4095
2427 1373 4095
1578 1000 1017
1576 1002 1029
1573 1003 1041
1570 1005 1055
1567 1007 1071
1568 1011 1090
1570 1013 1107
1569 1013 1123
1568 1012 1140
1567 1011 1159
1565 1010 1180
1564 1009 1202
1562 1008 1227
1561 1007 1252
1559 1005 1280
1557 1004 1311
1555 1002 1343
1553 1001 1376
1551 999 1412
1549 997 1450
1547 995 1490
1544 994 1532
1541 992 1576
1539 990 1623
1536 987 1671
1533 985 1721
1530 983 1773
1527 981 1827
1527 980 1884
1553 991 1954
1580 1004 2025
1607 1016 2097
1635 1029 2170
1664 1041 2244
1692 1054 2319
1722 1068 2395
1751 1081 2471
1781 1095 2548
1811 1108 2625
1841 1122 2702
1872 1136 2779
1902 1150 2855
1932 1163 2931
1962 1177 3006
1992 1191 3081
2022 1204 3154
2052 1218 3226
2081 1231 3297
2110 1244 3367
2138 1257 3436
2166 1270 3504
2194 1282 3571
2222 1295 3637
2249 1307 3702
2277 1320 3766
2304 1332 3830
2330 1344 3892
2357 1356 3954
2383 1368 4015
2409 1380 4075
2418 1384 4095
2418 1384 4095
2418 1384 4095
2418 1384 4095
1579 1021 1016
1577 1022 1027
1574 1024 1040
1571 1025 1054
1568 1027 1070
1564 1030 1088
1562 1030 1105
1561 1029 1121
1560 1028 1138
1559 1027 1157
1558 1026 1178
1556 1025 1200
1555 1024 1225
1553 1023 1251
1552 1022 1279
1550 1020 1309
1548 1019 1341
1546 1017 1375
1544 1016 1410
1541 1014 1449
1539 1012 1489
1537 1010 1531
1534 1008 1575
1532 1006 1621
1529 1004 1669
1526 1002 1719
1523 1000 1771
1520 997 1825
1520 996 1882
1546 1008 1952
1573 1020 2023
1600 1032 2095
1628 1045 2169
1656 1058 2243
1685 1071 2318
1714 1084 2394
1744 1097 2470
1773 1111 2547
1804 1124 2624
1834 1138 2701
1864 1151 2778
1894 1165 2854
1925 1179 2930
1955 1192 3005
1985 1206 3080
2015 1219 3153
2044 1233 3226
2073 1246 3297
2102 1259 3367
2131 1272 3436
2159 1284 3504
2187 1297 3571
2215 1309 3637
2242 1322 3702
2269 1334 3766
2296 1346 3829
2323 1358 3892
2349 1370 3953
2376 1382 4015
2402 1394 4075
2411 1398 4095
2411 1398 4095
2411 1398 4095
2411 1398 4095
1576 1043 1012
1574 1044 1024
1571 1046 1036
1569 1048 1051
1565 1050 1066
1562 1052 1084
1560 1052 1102
1559 1051 1119
1558 1050 1137
1557 1049 1156
1556 1048 1176
1554 1047 1199
1553 1046 1223
1551 1045 1249
1550 1044 1277
1548 1042 1307
1546 1041 1340
1544 1039 1373
1542 1038 1409
1539 1036 1447
1537 1034 1488
1535 1032 1530
1532 1030 1574
1529 1028 1620
1527 1026 1668
1524 1024 1718
1521 1022 1770
1518 1020 1824
1518 1019 1882
1544 1030 1951
1571 1042 2022
1598 1054 2095
1626 1067 2168
1654 1080 2242
1683 1092 2317
1712 1105 2393
1742 1119 2470
1771 1132 2546
1801 1145 2623
1832 1159 2700
1862 1173 2777
1892 1186 2853
1923 1200 2930
1953 1213 3005
1983 1227 3079
2013 1240 3153
2042 1253 3225
2071 1266 3296
2100 1279 3367
2129 1292 3436
2157 1304 3504
2185 1317 3571
2213 1329 3637
2240 1342 3702
2267 1354 3766
2294 1366 3829
2321 1378 3892
2347 1390 3953
2374 1401 4015
2400 1413 4075
2409 1417 4095
2409 1417 4095
2409 1417 4095
2409 1417 4095
1574 1067 1008
1571 1069 1019
1569 1070 1032
1566 1072 1046
1563 1074 1062
1559 1077 1080
1557 1077 1098
1557 1076 1115
1556 1075 1135
1555 1074 1154
1553 1073 1175
1552 1072 1197
1551 1071 1222
1549 1070 1248
1547 1069 1276
1545 1067 1306
1543 1066 1338
1541 1064 1372
1539 1063 1408
1537 1061 1446
1535 1059 1486
1532 1057 1528
1530 1055 1572
1527 1053 1619
1524 1051 1667
1522 1049 1717
1519 1047 1769
1516 1044 1823
1516 1044 1881
1542 1055 1951
1568 1067 2021
1596 1079 2094
1623 1091 2167
1652 1104 2241
1680 1117 2316
1710 1130 2392
1739 1143 2469
1769 1156 2546
1799 1169 2622
1829 1183 2699
1860 1196 2777
1890 1210 2853
1920 1223 2929
1951 1236 3004
1981 1250 3079
2010 1263 3152
2040 1276 3225
2069 1289 3296
2098 1302 3366
2126 1314 3435
2154 1327 3503
2182 1339 3570
2210 1352 3636
2238 1364 3702
2265 1376 3766
2292 1388 3829
2318 1399 3891
2345 1411 3953
2371 1423 4015
2397 1435 4075
2406 1438 4095
2406 1438 4095
2406 1438 4095
2406 1438 4095
1571 1094 1003
1568 1096 1015
1566 1098 1027
1563 1100 1042
1559 1102 1058
1556 1104 1076
1554 1105 1093
1553 1104 1111
1553 1103 1130
1552 1102 1152
1551 1101 1174
1549 1100 1196
1548 1098 1220
1546 1097 1246
1545 1096 1275
1543 1095 1305
1541 1093 1337
1539 1092 1371
1537 1090 1407
1535 1088 1445
1532 1087 1485
1530 1085 1527
1527 1083 1571
1525 1081 1617
1522 1079 1666
1519 1077 1716
1516 1074 1768
1513 1072 1822
1513 1071 1879
1539 1083 1949
1566 1094 2020
1593 1106 2093
1621 1119 2166
1649 1131 2240
1678 1144 2316
1707 1157 2392
1737 1169 2468
1767 1183 2545
1797 1196 2622
1827 1209 2699
1857 1222 2776
1887 1236 2852
1918 1249 2928
1948 1262 3004
1978 1275 3078
2008 1288 3152
2037 1301 3224
2066 1314 3296
2095 1327 3366
2124 1339 3435
2152 1352 3503
2180 1364 3570
2208 1376 3636
2235 1388 3701
2262 1400 3766
2289 1412 3829
2316 1424 3891
2342 1435 3953
2369 1447 4014
2395 1458 4075
2404 1462 4095
2404 1462 4095
2404 1462 4095
2404 1462 4095
1567 1124 998
1565 1126 1010
1562 1128 1022
1559 1130 1036
1556 1132 1052
1552 1135 1070
1551 1135 1088
1550 1134 1106
1549 1133 1125
1549 1132 1147
1548 1131 1170
1547 1130 1194
1545 1129 1219
1544 1128 1245
1542 1126 1273
1540 1125 1303
1538 1124 1335
1536 1122 1369
1534 1120 1405
1532 1119 1443
1529 1117 1483
1527 1115 1526
1524 1113 1570
1522 1111 1616
1519 1109 1664
1516 1107 1714
1513 1105 1767
1510 1103 1821
1510 1102 1878
1536 1113 1948
1563 1125 2019
1590 1137 2091
1618 1149 2165
1646 1161 2239
1675 1173 2315
1704 1186 2391
1734 1199 2467
1764 1212 2544
1794 1225 2621
1824 1238 2698
1854 1251 2775
1885 1264 2851
1915 1278 2928
1945 1291 3003
1975 1304 3078
2005 1317 3151
2034 1329 3224
2063 1342 3295
2092 1355 3365
2121 1367 3435
2149 1379 3503
2177 1391 3570
2205 1403 3636
2232 1415 3701
2259 1427 3766
2286 1439 3829
2313 1450 3891
2340 1462 3953
2366 1473 4014
2392 1485 4075
2401 1488 4095
2401 1488 4095
2401 1488 4095
2401 1488 4095
1563 1157 992
1561 1159 1004
1558 1161 1017
1556 1163 1031
1552 1166 1047
1549 1168 1065
1547 1169 1082
1546 1168 1100
1546 1167 1120
1545 1166 1141
1544 1165 1165
1543 1163 1190
1542 1162 1217
1540 1161 1243
1539 1160 1271
1537 1158 1301
1535 1157 1333
1533 1155 1367
1531 1154 1403
1529 1152 1442
1526 1150 1482
1524 1149 1524
1521 1147 1568
1519 1145 1615
1516 1143 1663
1513 1141 1713
1510 1138 1765
1507 1136 1819
1507 1135 1877
1533 1147 1947
1560 1158 2018
1587 1170 2090
1615 1182 2164
1643 1194 2238
1672 1206 2313
1701 1219 2389
1731 1231 2466
1761 1244 2543
1791 1257 2620
1821 1270 2697
1851 1283 2774
1882 1296 2851
1912 1309 2927
1942 1322 3003
1972 1335 3077
2002 1348 3151
2031 1360 3223
2060 1373 3295
2089 1385 3365
2118 1397 3434
2146 1409 3502
2174 1421 3569
2202 1433 3636
2229 1445 3701
2256 1457 3765
2283 1468 3829
2310 1480 3891
2336 1491 3953
2363 1502 4014
2389 1514 4075
2398 1517 4095
2398 1517 4095
2398 1517 4095
2398 1517 4095
1559 1193 986
1557 1195 998
1554 1197 1010
1552 1199 1025
