LutTests/Cube/3D/Small25.cube
TITLE "Smal 3D LUT for tests"
LUT_3D_SIZE 25
0.0782 0.0000 0.0687
0.0823 0.0000 0.0684
0.0889 0.0000 0.0679
0.0986 0.0000 0.0673
0.1136 0.0000 0.0662
0.1338 0.0000 0.0648
0.1592 0.0000 0.0630
0.1908 0.0000 0.0608
0.2275 0.0000 0.0580
0.2627 0.0000 0.0550
0.3025 0.0000 0.0519
0.3489 0.0000 0.0487
0.4001 0.0000 0.0445
0.4568 0.0000 0.0401
0.5170 0.0000 0.0356
0.5798 0.0000 0.0304
0.6465 0.0000 0.0258
0.7119 0.0010 0.0211
0.7758 0.0000 0.0167
0.8330 0.0000 0.0127
0.8812 0.0000 0.0093
0.9192 0.0000 0.0066
0.9480 0.0000 0.0043
0.9677 0.0000 0.0027
0.9792 0.0000 0.0017
0.0780 0.0507 0.0687
0.0806 0.0253 0.0685
0.0887 0.0000 0.0679
0.0982 0.0000 0.0673
0.1134 0.0000 0.0662
0.1338 0.0000 0.0648
0.1592 0.0000 0.0630
0.1909 0.0000 0.0608
0.2275 0.0000 0.0580
0.2627 0.0000 0.0550
0.3025 0.0000 0.0519
0.3489 0.0000 0.0487
0.4002 0.0000 0.0445
0.4569 0.0000 0.0401
0.5171 0.0000 0.0356
0.5799 0.0000 0.0304
0.6466 0.0000 0.0257
0.7120 0.0000 0.0211
0.7755 0.0000 0.0167
0.8331 0.0000 0.0127
0.8812 0.0000 0.0093
0.9193 0.0000 0.0066
0.9480 0.0000 0.0043
0.9678 0.0000 0.0027
0.9793 0.0000 0.0017
0.0797 0.0949 0.0686
0.0819 0.0730 0.0685
0.0860 0.0503 0.0682
0.0974 0.0067 0.0673
0.1130 0.0027 0.0663
0.1338 0.0000 0.0648
0.1593 0.0000 0.0630
0.1911 0.0000 0.0608
0.2275 0.0000 0.0580
0.2627 0.0000 0.0551
0.3026 0.0000 0.0519
0.3491 0.0000 0.0487
0.4004 0.0000 0.0445
0.4571 0.0000 0.0401
0.5174 0.0000 0.0356
0.5802 0.0000 0.0304
0.6469 0.0000 0.0257
0.7123 0.0000 0.0211
0.7758 0.0000 0.0167
0.8334 0.0000 0.0127
0.8814 0.0000 0.0093
0.9194 0.0000 0.0066
0.9481 0.0000 0.0043
0.9679 0.0000 0.0027
0.9794 0.0000 0.0017
0.0778 0.0572 0.0687
0.0814 0.1071 0.0685
0.0880 0.0904 0.0680
0.0948 0.0660 0.0676
0.1123 0.0237 0.0663
0.1340 0.0109 0.0648
0.1598 0.0075 0.0630
0.1914 0.0044 0.0607
0.2275 0.0002 0.0580
0.2627 0.0000 0.0551
0.3028 0.0000 0.0519
0.3495 0.0000 0.0487
0.4008 0.0000 0.0445
0.4575 0.0000 0.0401
0.5178 0.0000 0.0356
0.5807 0.0000 0.0303
0.6474 0.0000 0.0257
0.7127 0.0000 0.0211
0.7762 0.0000 0.0167
0.8337 0.0000 0.0126
0.8817 0.0000 0.0093
0.9197 0.0000 0.0066
0.9484 0.0000 0.0043
0.9681 0.0000 0.0027
0.9795 0.0000 0.0017
0.0755 0.0429 0.0689
0.0786 0.0427 0.0687
0.0863 0.1175 0.0681
0.0980 0.1119 0.0673
0.1102 0.0849 0.0665
0.1338 0.0491 0.0648
0.1608 0.0295 0.0629
0.1928 0.0227 0.0607
0.2275 0.0181 0.0580
0.2627 0.0111 0.0551
0.3032 0.0037 0.0519
0.3500 0.0000 0.0486
0.4014 0.0000 0.0444
0.4583 0.0000 0.0400
0.5185 0.0000 0.0355
0.5815 0.0000 0.0303
0.6482 0.0000 0.0256
0.7135 0.0000 0.0210
0.7770 0.0000 0.0166
0.8344 0.0000 0.0126
0.8822 0.0000 0.0092
0.9201 0.0000 0.0066
0.9487 0.0000 0.0043
0.9684 0.0000 0.0026
0.9798 0.0000 0.0017
0.0727 0.0666 0.0691
0.0755 0.0663 0.0689
0.0823 0.0659 0.0684
0.0947 0.1423 0.0676
0.1150 0.1320 0.0661
0.1335 0.1098 0.0649
0.1618 0.0826 0.0629
0.1945 0.0659 0.0605
0.2282 0.0517 0.0580
0.2629 0.0408 0.0550
0.3039 0.0333 0.0518
0.3509 0.0251 0.0486
0.4026 0.0148 0.0443
0.4595 0.0009 0.0400
0.5198 0.0000 0.0354
0.5829 0.0000 0.0302
0.6495 0.0000 0.0255
0.7148 0.0000 0.0209
0.7783 0.0000 0.0165
0.8355 0.0000 0.0125
0.8831 0.0000 0.0092
0.9208 0.0000 0.0065
0.9493 0.0000 0.0042
0.9689 0.0000 0.0026
0.9803 0.0000 0.0016
0.0721 0.0958 0.0691
0.0738 0.0958 0.0690
0.0811 0.0957 0.0685
0.0920 0.1142 0.0677
0.1109 0.1808 0.0664
0.1392 0.1577 0.0645
0.1638 0.1414 0.0627
0.1957 0.1178 0.0605
0.2285 0.1032 0.0580
0.2645 0.0872 0.0549
0.3053 0.0777 0.0517
0.3526 0.0704 0.0485
0.4045 0.0639 0.0442
0.4616 0.0558 0.0398
0.5219 0.0431 0.0352
0.5852 0.0237 0.0300
0.6518 0.0000 0.0254
0.7171 0.0000 0.0208
0.7804 0.0000 0.0164
0.8373 0.0000 0.0124
0.8846 0.0000 0.0091
0.9220 0.0000 0.0064
0.9503 0.0000 0.0041
0.9697 0.0000 0.0025
0.9810 0.0019 0.0016
0.0721 0.1320 0.0691
0.0721 0.1321 0.0691
0.0791 0.1322 0.0686
0.0914 0.1325 0.0678
0.1110 0.1952 0.0664
0.1371 0.2182 0.0646
0.1696 0.1901 0.0623
0.1960 0.1752 0.0605
0.2292 0.1519 0.0579
0.2663 0.1398 0.0548
0.3089 0.1295 0.0515
0.3558 0.1216 0.0482
0.4075 0.1163 0.0439
0.4649 0.1115 0.0396
0.5252 0.1063 0.0349
0.5888 0.1001 0.0298
0.6553 0.0921 0.0251
0.7206 0.0829 0.0205
0.7838 0.0755 0.0162
0.8401 0.0738 0.0122
0.8868 0.0783 0.0089
0.9238 0.0877 0.0063
0.9518 0.0988 0.0040
0.9710 0.1084 0.0024
0.9822 0.1148 0.0015
0.0721 0.1724 0.0691
0.0721 0.1724 0.0691
0.0763 0.1723 0.0688
0.0882 0.1721 0.0680
0.1086 0.1938 0.0666
0.1356 0.2497 0.0647
0.1649 0.2441 0.0626
0.2010 0.2232 0.0601
0.2311 0.2118 0.0578
0.2697 0.1921 0.0545
0.3126 0.1835 0.0513
0.3612 0.1779 0.0478
0.4132 0.1724 0.0434
0.4700 0.1692 0.0392
0.5302 0.1668 0.0345
0.5942 0.1647 0.0294
0.6606 0.1627 0.0248
0.7258 0.1611 0.0202
0.7888 0.1613 0.0158
0.8441 0.1640 0.0119
0.8899 0.1689 0.0087
0.9263 0.1755 0.0061
0.9539 0.1826 0.0038
0.9728 0.1887 0.0023
0.9838 0.1928 0.0014
0.0721 0.2118 0.0691
0.0721 0.2118 0.0691
0.0721 0.2117 0.0691
0.0833 0.2116 0.0683
0.1031 0.2116 0.0670
0.1326 0.2703 0.0649
0.1639 0.2951 0.0627
0.1981 0.2775 0.0603
0.2400 0.2640 0.0570
0.2745 0.2568 0.0541
0.3189 0.2404 0.0508
0.3670 0.2346 0.0474
0.4205 0.2315 0.0428
0.4786 0.2304 0.0386
0.5379 0.2292 0.0338
0.6016 0.2298 0.0289
0.6678 0.2309 0.0243
0.7330 0.2327 0.0197
0.7954 0.2361 0.0153
0.8493 0.2402 0.0115
0.8941 0.2453 0.0084
0.9296 0.2511 0.0059
0.9566 0.2569 0.0036
0.9751 0.2617 0.0021
0.9858 0.2649 0.0012
0.0721 0.2574 0.0691
0.0721 0.2574 0.0691
0.0721 0.2574 0.0691
0.0800 0.2575 0.0686
0.0983 0.2577 0.0673
0.1293 0.2862 0.0651
0.1642 0.3329 0.0627
0.2000 0.3389 0.0602
0.2395 0.3210 0.0570
0.2866 0.3133 0.0531
0.3264 0.3104 0.0503
0.3765 0.2968 0.0466
0.4289 0.2934 0.0421
0.4878 0.2933 0.0380
0.5488 0.2945 0.0329
0.6131 0.2972 0.0281
0.6780 0.3003 0.0236
0.7423 0.3041 0.0190
0.8033 0.3086 0.0148
0.8556 0.3135 0.0111
0.8990 0.3188 0.0080
0.9336 0.3242 0.0055
0.9598 0.3293 0.0034
0.9777 0.3334 0.0019
0.9882 0.3361 0.0010
0.0721 0.3100 0.0691
0.0721 0.3100 0.0691
0.0721 0.3101 0.0691
0.0777 0.3103 0.0687
0.0958 0.3107 0.0674
0.1263 0.3114 0.0653
0.1632 0.3714 0.0628
0.2034 0.3930 0.0599
0.2438 0.3849 0.0567
0.2890 0.3740 0.0529
0.3422 0.3721 0.0492
0.3867 0.3728 0.0457
0.4414 0.3614 0.0412
0.4990 0.3609 0.0372
0.5604 0.3629 0.0319
0.6259 0.3669 0.0272
0.6917 0.3704 0.0226
0.7553 0.3755 0.0181
0.8129 0.3812 0.0141
0.8627 0.3866 0.0106
0.9045 0.3919 0.0077
0.9379 0.3969 0.0052
0.9632 0.4014 0.0031
0.9806 0.4050 0.0016
0.9907 0.4072 0.0008
0.0721 0.3688 0.0691
0.0721 0.3689 0.0691
0.0721 0.3690 0.0691
0.0746 0.3693 0.0689
0.0937 0.3698 0.0676
0.1249 0.3706 0.0654
0.1622 0.4112 0.0628
0.2047 0.4448 0.0598
0.2495 0.4548 0.0562
0.2960 0.4416 0.0524
0.3485 0.4373 0.0488
0.4056 0.4391 0.0441
0.4549 0.4435 0.0403
0.5140 0.4347 0.0359
0.5747 0.4359 0.0308
0.6400 0.4381 0.0262
0.7053 0.4425 0.0216
0.7685 0.4485 0.0172
0.8245 0.4540 0.0133
0.8717 0.4594 0.0100
0.9107 0.4646 0.0072
0.9424 0.4692 0.0048
0.9666 0.4730 0.0028
0.9832 0.4759 0.0014
0.9929 0.4777 0.0006
0.0721 0.4337 0.0691
0.0721 0.4338 0.0691
0.0721 0.4340 0.0691
0.0721 0.4343 0.0691
0.0901 0.4349 0.0678
0.1238 0.4358 0.0655
0.1616 0.4531 0.0629
0.2056 0.4987 0.0597
0.2544 0.5154 0.0558
0.3039 0.5133 0.0518
0.3569 0.5072 0.0482
0.4156 0.5075 0.0432
0.4770 0.5134 0.0387
0.5294 0.5192 0.0346
0.5914 0.5090 0.0296
0.6567 0.5107 0.0250
0.7198 0.5161 0.0206
0.7802 0.5216 0.0164
0.8335 0.5265 0.0126
0.8794 0.5309 0.0094
0.9175 0.5349 0.0067
0.9480 0.5386 0.0043
0.9702 0.5418 0.0025
0.9854 0.5443 0.0012
0.9943 0.5459 0.0005
0.0721 0.5026 0.0691
0.0721 0.5027 0.0691
0.0721 0.5029 0.0691
0.0721 0.5032 0.0691
0.0837 0.5038 0.0683
0.1209 0.5048 0.0657
0.1622 0.5065 0.0628
0.2053 0.5542 0.0597
0.2572 0.5790 0.0555
0.3126 0.5897 0.0512
0.3670 0.5824 0.0473
0.4253 0.5809 0.0424
0.4910 0.5820 0.0377
0.5532 0.5855 0.0325
0.6096 0.5939 0.0283
0.6729 0.5890 0.0239
0.7356 0.5918 0.0195
0.7910 0.5958 0.0156
0.8418 0.5995 0.0121
0.8855 0.6030 0.0090
0.9218 0.6061 0.0064
0.9508 0.6087 0.0041
0.9726 0.6109 0.0023
0.9876 0.6126 0.0010
0.9963 0.6137 0.0003
0.0721 0.5756 0.0691
0.0721 0.5757 0.0691
0.0721 0.5759 0.0691
0.0721 0.5763 0.0691
0.0739 0.5770 0.0689
0.1152 0.5781 0.0661
0.1616 0.5800 0.0628
0.2079 0.6154 0.0596
0.2591 0.6458 0.0553
0.3177 0.6602 0.0509
0.3775 0.6614 0.0464
0.4372 0.6499 0.0415
0.5012 0.6484 0.0370
0.5702 0.6559 0.0311
0.6347 0.6658 0.0266
0.6892 0.6752 0.0227
0.7464 0.6689 0.0187
0.8023 0.6691 0.0148
0.8491 0.6707 0.0115
0.8904 0.6725 0.0086
0.9248 0.6741 0.0062
0.9525 0.6756 0.0039
0.9733 0.6769 0.0022
0.9875 0.6780 0.0010
0.9959 0.6787 0.0003
0.0721 0.6516 0.0691
0.0721 0.6517 0.0691
0.0721 0.6519 0.0691
0.0721 0.6523 0.0691
0.0721 0.6530 0.0691
0.1058 0.6541 0.0667
0.1597 0.6560 0.0630
0.2098 0.6769 0.0594
0.2620 0.7136 0.0551
0.3214 0.7308 0.0506
0.3862 0.7236 0.0457
0.4490 0.7157 0.0407
0.5135 0.7171 0.0359
0.5791 0.7238 0.0304
0.6508 0.7356 0.0254
0.7087 0.7426 0.0214
0.7585 0.7490 0.0179
0.8079 0.7411 0.0144
0.8553 0.7386 0.0111
0.8949 0.7380 0.0083
0.9265 0.7379 0.0061
0.9530 0.7382 0.0039
0.9729 0.7386 0.0023
0.9865 0.7390 0.0011
0.9945 0.7393 0.0005
0.0721 0.7270 0.0691
0.0721 0.7271 0.0691
0.0721 0.7273 0.0691
0.0721 0.7277 0.0691
0.0721 0.7283 0.0691
0.0956 0.7294 0.0674
0.1575 0.7312 0.0631
0.2117 0.7376 0.0593
0.2666 0.7811 0.0547
0.3248 0.7847 0.0504
0.3914 0.7827 0.0453
0.4598 0.7809 0.0399
0.5236 0.7828 0.0351
0.5884 0.7882 0.0298
0.6543 0.7959 0.0252
0.7218 0.8065 0.0205
0.7730 0.8093 0.0169
0.8162 0.8119 0.0139
0.8567 0.8033 0.0110
0.8959 0.7986 0.0083
0.9275 0.7966 0.0060
0.9526 0.7955 0.0039
0.9716 0.7949 0.0024
0.9849 0.7946 0.0012
0.9927 0.7945 0.0006
0.0721 0.7990 0.0691
0.0721 0.7991 0.0691
0.0721 0.7993 0.0691
0.0721 0.7996 0.0691
0.0721 0.8002 0.0691
0.0901 0.8012 0.0678
0.1579 0.8029 0.0631
0.2150 0.8054 0.0591
0.2719 0.8344 0.0543
0.3316 0.8388 0.0499
0.3943 0.8391 0.0450
0.4646 0.8400 0.0396
0.5309 0.8419 0.0344
0.5950 0.8461 0.0293
0.6594 0.8516 0.0248
0.7210 0.8576 0.0205
0.7818 0.8645 0.0163
0.8255 0.8637 0.0132
0.8620 0.8632 0.0106
0.8943 0.8556 0.0084
0.9261 0.8495 0.0061
0.9509 0.8467 0.0041
0.9693 0.8450 0.0025
0.9820 0.8441 0.0496
0.9894 0.8436 0.1014
0.0721 0.8622 0.0691
0.0721 0.8622 0.0691
0.0721 0.8624 0.0691
0.0721 0.8627 0.0691
0.0721 0.8631 0.0691
0.0925 0.8638 0.0677
0.1616 0.8651 0.0628
0.2195 0.8669 0.0587
0.2772 0.8835 0.0538
0.3375 0.8879 0.0495
0.3996 0.8891 0.0446
0.4660 0.8908 0.0395
0.5357 0.8930 0.0340
0.5994 0.8961 0.0290
0.6626 0.8998 0.0246
0.7227 0.9035 0.0204
0.7795 0.9070 0.0165
0.8303 0.9096 0.0129
0.8675 0.9065 0.0103
0.8979 0.9040 0.0081
0.9226 0.8992 0.0064
0.9485 0.8918 0.0043
0.9667 0.8887 0.0537
0.9791 0.8870 0.1332
0.9853 0.8861 0.1629
0.0721 0.9141 0.0691
0.0721 0.9142 0.0691
0.0721 0.9143 0.0691
0.0721 0.9145 0.0691
0.0721 0.9148 0.0691
0.1034 0.9154 0.0669
0.1686 0.9162 0.0623
0.2254 0.9176 0.0582
0.2827 0.9267 0.0534
0.3429 0.9301 0.0491
0.4048 0.9316 0.0441
0.4688 0.9332 0.0393
0.5356 0.9352 0.0340
0.6023 0.9377 0.0288
0.6642 0.9398 0.0245
0.7230 0.9417 0.0204
0.7786 0.9433 0.0165
0.8286 0.9448 0.0130
0.8696 0.9437 0.0101
0.9008 0.9399 0.0079
0.9257 0.9367 0.0062
0.9419 0.9361 0.0048
0.9632 0.9265 0.1233
0.9743 0.9234 0.1789
0.9819 0.9220 0.2049
0.0721 0.9551 0.0691
0.0721 0.9551 0.0691
0.0721 0.9552 0.0691
0.0721 0.9553 0.0691
0.0721 0.9556 0.0691
0.1203 0.9560 0.0657
0.1778 0.9566 0.0617
0.2323 0.9576 0.0576
0.2885 0.9622 0.0529
0.3482 0.9645 0.0488
0.4095 0.9658 0.0437
0.4728 0.9673 0.0390
0.5357 0.9687 0.0340
0.6033 0.9705 0.0288
0.6649 0.9715 0.0245
0.7227 0.9721 0.0204
0.7773 0.9724 0.0166
0.8263 0.9724 0.0132
0.8686 0.9720 0.0102
0.9013 0.9694 0.0079
0.9267 0.9650 0.0061
0.9464 0.9614 0.0045
0.9573 0.9591 0.1504
0.9685 0.9543 0.2180
0.9775 0.9517 0.2356
0.0721 0.9856 0.0691
0.0721 0.9856 0.0691
0.0721 0.9856 0.0691
0.0721 0.9858 0.0691
0.0826 0.9859 0.0683
0.1363 0.9862 0.0646
0.1872 0.9867 0.0610
0.2391 0.9874 0.0570
0.2941 0.9892 0.0525
0.3528 0.9905 0.0484
0.4134 0.9917 0.0434
0.4761 0.9929 0.0388
0.5381 0.9939 0.0338
0.6016 0.9947 0.0289
0.6652 0.9954 0.0244
0.7222 0.9951 0.0204
0.7759 0.9943 0.0167
0.8235 0.9931 0.0134
0.8650 0.9916 0.0104
0.9004 0.9901 0.0079
0.9262 0.9869 0.0061
0.9463 0.9826 0.0481
0.9583 0.9792 0.1730
0.9679 0.9769 0.2276
0.9733 0.9759 0.2568
0.0721 1.0000 0.0691
0.0721 1.0000 0.0691
0.0721 1.0000 0.0691
0.0721 1.0000 0.0691
0.1013 1.0000 0.0670
0.1484 1.0000 0.0638
0.1951 1.0000 0.0605
0.2448 1.0000 0.0566
0.2986 1.0000 0.0522
0.3565 1.0000 0.0482
0.4163 1.0000 0.0432
0.4784 1.0000 0.0386
0.5398 1.0000 0.0337
0.6018 1.0000 0.0289
0.6652 1.0000 0.0244
0.7217 1.0000 0.0205
0.7747 1.0000 0.0168
0.8213 1.0000 0.0135
0.8623 1.0000 0.0106
0.8976 1.0000 0.0081
0.9249 1.0000 0.0062
0.9454 0.9974 0.1026
0.9576 0.9938 0.1954
0.9678 0.9911 0.2425
0.9741 0.9895 0.2679
0.0721 1.0000 0.0691
0.0721 1.0000 0.0691
0.0721 1.0000 0.0691
0.0796 1.0000 0.0685
0.1142 1.0000 0.0661
0.1560 1.0000 0.0632
0.2001 1.0000 0.0601
0.2486 1.0000 0.0562
0.3016 1.0000 0.0520
0.3589 1.0000 0.0480
0.4182 1.0000 0.0430
0.4799 1.0000 0.0385
0.5409 1.0000 0.0336
0.6026 1.0000 0.0288
0.6649 1.0000 0.0245
0.7213 1.0000 0.0205
0.7736 1.0000 0.0169
0.8199 1.0000 0.0136
0.8606 1.0000 0.0107
0.8956 1.0000 0.0083
0.9240 1.0000 0.0063
0.9414 1.0000 0.1442
0.9567 1.0000 0.2087
0.9673 0.9996 0.2531
0.9737 0.9980 0.2768
0.0719 0.0002 0.0712
0.0746 0.0000 0.0697
0.0886 0.0000 0.0679
0.0984 0.0000 0.0673
0.1135 0.0000 0.0662
0.1338 0.0000 0.0648
0.1592 0.0000 0.0630
0.1909 0.0000 0.0608
0.2275 0.0000 0.0580
0.2627 0.0000 0.0550
0.3025 0.0000 0.0519
0.3490 0.0000 0.0487
0.4002 0.0000 0.0445
0.4569 0.0000 0.0401
0.5172 0.0000 0.0356
0.5799 0.0000 0.0304
0.6467 0.0000 0.0257
0.7120 0.0000 0.0211
0.7755 0.0000 0.0167
0.8331 0.0000 0.0127
0.8812 0.0000 0.0093
0.9193 0.0000 0.0066
0.9480 0.0000 0.0043
0.9678 0.0000 0.0027
0.9793 0.0000 0.0017
0.0735 0.0701 0.0693
0.0783 0.0021 0.0687
0.0883 0.0000 0.0680
0.0980 0.0000 0.0673
0.1133 0.0000 0.0662
0.1337 0.0000 0.0648
0.1592 0.0000 0.0630
0.1910 0.0000 0.0608
0.2275 0.0000 0.0580
0.2627 0.0000 0.0550
0.3026 0.0000 0.0519
0.3490 0.0000 0.0487
0.4003 0.0000 0.0445
0.4570 0.0000 0.0401
0.5172 0.0000 0.0356
0.5801 0.0000 0.0304
0.6468 0.0000 0.0257
0.7121 0.0000 0.0211
0.7756 0.0000 0.0167
0.8332 0.0000 0.0127
0.8813 0.0000 0.0093
0.9194 0.0000 0.0066
0.9481 0.0000 0.0043
0.9678 0.0000 0.0027
0.9793 0.0000 0.0017
0.0795 0.0882 0.0686
0.0817 0.0690 0.0685
0.0858 0.0468 0.0682
0.0976 0.0051 0.0673
0.1128 0.0022 0.0663
0.1338 0.0000 0.0648
0.1594 0.0000 0.0630
0.1912 0.0000 0.0608
0.2275 0.0000 0.0580
0.2627 0.0000 0.0550
0.3027 0.0000 0.0519
0.3492 0.0000 0.0487
0.4005 0.0000 0.0445
0.4572 0.0000 0.0401
0.5175 0.0000 0.0356
0.5803 0.0000 0.0304
0.6470 0.0000 0.0257
0.7124 0.0000 0.0211
0.7759 0.0000 0.0167
0.8335 0.0000 0.0127
0.8815 0.0000 0.0093
0.9195 0.0000 0.0066
0.9482 0.0000 0.0043
0.9679 0.0000 0.0027
0.9794 0.0000 0.0017
0.0784 0.0734 0.0687
0.0819 0.1110 0.0684
0.0881 0.0876 0.0680
0.0948 0.0649 0.0675
0.1124 0.0222 0.0663
0.1340 0.0106 0.0648
0.1599 0.0072 0.0630
0.1916 0.0042 0.0607
0.2275 0.0000 0.0580
0.2627 0.0000 0.0550
0.3029 0.0000 0.0519
0.3495 0.0000 0.0487
0.4009 0.0000 0.0445
0.4577 0.0000 0.0401
0.5179 0.0000 0.0356
0.5808 0.0000 0.0303
0.6475 0.0000 0.0257
0.7128 0.0000 0.0211
0.7763 0.0000 0.0167
0.8338 0.0000 0.0126
0.8818 0.0000 0.0093
0.9198 0.0000 0.0066
0.9484 0.0000 0.0043
0.9681 0.0000 0.0027
0.9796 0.0000 0.0017
0.0759 0.0422 0.0689
0.0791 0.0420 0.0686
0.0869 0.1209 0.0681
0.0983 0.1100 0.0673
0.1103 0.0844 0.0665
0.1339 0.0481 0.0648
0.1610 0.0290 0.0629
0.1930 0.0225 0.0606
0.2275 0.0179 0.0580
0.2627 0.0109 0.0550
0.3033 0.0035 0.0519
0.3501 0.0000 0.0486
0.4016 0.0000 0.0444
0.4584 0.0000 0.0400
0.5187 0.0000 0.0355
0.5816 0.0000 0.0303
0.6483 0.0000 0.0256
0.7136 0.0000 0.0210
0.7771 0.0000 0.0166
0.8345 0.0000 0.0126
0.8823 0.0000 0.0092
0.9202 0.0000 0.0066
0.9488 0.0000 0.0043
0.9684 0.0000 0.0026
0.9798 0.0000 0.0017
0.0731 0.0662 0.0691
0.0758 0.0660 0.0689
0.0832 0.0657 0.0684
0.0954 0.1445 0.0675
0.1156 0.1311 0.0661
0.1336 0.1098 0.0649
0.1620 0.0823 0.0629
0.1947 0.0655 0.0605
0.2282 0.0514 0.0580
0.2630 0.0406 0.0550
0.3040 0.0331 0.0518
0.3510 0.0249 0.0486
0.4027 0.0146 0.0443
0.4596 0.0007 0.0399
0.5199 0.0000 0.0354
0.5830 0.0000 0.0302
0.6496 0.0000 0.0255
0.7150 0.0000 0.0209
0.7784 0.0000 0.0165
0.8356 0.0000 0.0125
0.8832 0.0000 0.0092
0.9209 0.0000 0.0065
0.9494 0.0000 0.0042
0.9689 0.0000 0.0026
0.9803 0.0000 0.0016
0.0721 0.0957 0.0691
0.0744 0.0957 0.0690
0.0815 0.0956 0.0685
0.0924 0.1176 0.0677
0.1117 0.1817 0.0664
0.1398 0.1573 0.0644
0.1639 0.1414 0.0627
0.1958 0.1176 0.0605
0.2286 0.1029 0.0580
0.2646 0.0870 0.0549
0.3054 0.0775 0.0517
0.3527 0.0703 0.0485
0.4046 0.0637 0.0441
0.4617 0.0556 0.0398
0.5220 0.0428 0.0352
0.5853 0.0234 0.0300
0.6519 0.0000 0.0254
0.7172 0.0000 0.0208
0.7805 0.0000 0.0164
0.8374 0.0000 0.0124
0.8847 0.0000 0.0091
0.9221 0.0000 0.0064
0.9503 0.0000 0.0041
0.9698 0.0000 0.0025
0.9811 0.0020 0.0016
0.0721 0.1320 0.0691
0.0725 0.1321 0.0691
0.0797 0.1322 0.0686
0.0921 0.1326 0.0677
0.1115 0.1963 0.0664
0.1373 0.2178 0.0646
0.1699 0.1899 0.0623
0.1961 0.1752 0.0605
0.2293 0.1517 0.0579
0.2664 0.1397 0.0548
0.3090 0.1294 0.0515
0.3560 0.1215 0.0482
0.4076 0.1162 0.0439
0.4650 0.1114 0.0396
0.5253 0.1062 0.0349
0.5889 0.1000 0.0298
0.6554 0.0920 0.0251
0.7207 0.0828 0.0205
0.7839 0.0754 0.0161
0.8402 0.0737 0.0122
0.8869 0.0782 0.0089
0.9239 0.0877 0.0063
0.9518 0.0988 0.0040
0.9710 0.1084 0.0024
0.9822 0.1148 0.0015
0.0721 0.1723 0.0691
0.0721 0.1723 0.0691
0.0769 0.1722 0.0688
0.0888 0.1721 0.0680
0.1092 0.1964 0.0665
0.1358 0.2498 0.0647
0.1651 0.2439 0.0626
0.2012 0.2231 0.0601
0.2312 0.2118 0.0578
0.2698 0.1921 0.0545
0.3127 0.1834 0.0513
0.3613 0.1779 0.0478
0.4133 0.1723 0.0434
0.4701 0.1692 0.0392
0.5303 0.1667 0.0345
0.5943 0.1647 0.0294
0.6607 0.1627 0.0248
0.7259 0.1611 0.0202
0.7888 0.1613 0.0158
0.8442 0.1640 0.0119
0.8900 0.1689 0.0087
0.9264 0.1755 0.0061
0.9539 0.1826 0.0038
0.9728 0.1887 0.0023
0.9838 0.1928 0.0013
0.0721 0.2117 0.0691
0.0721 0.2117 0.0691
0.0725 0.2117 0.0691
0.0840 0.2116 0.0683
0.1037 0.2116 0.0669
0.1330 0.2709 0.0649
0.1641 0.2952 0.0627
0.1983 0.2775 0.0603
0.2402 0.2640 0.0570
0.2746 0.2568 0.0541
0.3191 0.2404 0.0508
0.3671 0.2346 0.0473
0.4207 0.2315 0.0428
0.4787 0.2304 0.0386
0.5380 0.2292 0.0338
0.6017 0.2298 0.0289
0.6680 0.2308 0.0243
0.7331 0.2327 0.0197
0.7955 0.2361 0.0153
0.8494 0.2402 0.0115
0.8941 0.2453 0.0084
0.9297 0.2511 0.0059
0.9566 0.2569 0.0036
0.9751 0.2618 0.0021
0.9859 0.2650 0.0012
0.0721 0.2574 0.0691
0.0721 0.2574 0.0691
0.0721 0.2574 0.0691
0.0801 0.2575 0.0685
0.0989 0.2578 0.0672
0.1298 0.2874 0.0651
0.1645 0.3331 0.0627
0.2001 0.3388 0.0602
0.2397 0.3210 0.0570
0.2868 0.3134 0.0531
0.3265 0.3105 0.0503
0.3766 0.2968 0.0465
0.4291 0.2934 0.0421
0.4879 0.2933 0.0380
0.5490 0.2945 0.0329
0.6132 0.2972 0.0281
0.6781 0.3003 0.0235
0.7424 0.3041 0.0190
0.8034 0.3086 0.0148
0.8557 0.3135 0.0111
0.8991 0.3188 0.0080
0.9336 0.3242 0.0055
0.9598 0.3293 0.0033
0.9778 0.3334 0.0019
0.9882 0.3361 0.0010
