LutTests/Cube/3D/Small25_with_Blob.cube
TITLE "Small LUT with BLOB"
LUT_3D_SIZE 5
0.0037 0.0300 0.0270
0.0557 0.0300 0.0270
0.3687 0.0300 0.0270
1.0000 0.0300 0.0270
1.0000 0.0300 0.0270
0.0000 0.1164 0.0245
0.0705 0.1011 0.0251
0.3805 0.0300 0.0270
1.0000 0.0300 0.0270
1.0000 0.0300 0.0270
0.0000 0.4928 0.0146
0.0000 0.4953 0.0145
0.5191 0.5227 0.0138
1.0000 0.5236 0.0138
1.0000 0.5466 0.0131
0.0000 1.0000 0.0000
0.0000 1.0000 0.0000
0.5961 0.9846 0.0004
0.9794 0.9702 0.3354
0.9645 0.9145 0.5366
0.3378 0.8558 0.3866
0.3442 0.8538 0.3881
0.5483 0.8578 0.4637
0.9339 0.9401 0.6299
0.9744 0.9611 0.7210
0.0000 0.0282 0.0957
0.0772 0.0285 0.0819
0.3720 0.0300 0.0270
1.0000 0.0300 0.0270
1.0000 0.0300 0.0270
0.0000 0.0965 0.0795
0.0862 0.0770 0.0641
0.3839 0.0300 0.0270
1.0000 0.0300 0.0270
1.0000 0.0300 0.0270
0.0000 0.4918 0.0146
0.0000 0.4941 0.0146
0.5200 0.5222 0.0138
1.0000 0.5209 0.0138
1.0000 0.5450 0.0132
0.0000 1.0000 0.0000
0.0000 1.0000 0.0000
0.5948 0.9846 0.0004
0.9786 0.9687 0.3494
0.9644 0.9137 0.5424
0.3406 0.8582 0.3990
0.3456 0.8563 0.4001
0.5462 0.8571 0.4718
0.9331 0.9404 0.6346
0.9746 0.9615 0.7241
0.0000 0.0204 0.3405
0.0000 0.0204 0.3405
0.3032 0.0202 0.3463
0.9779 0.0179 0.4057
0.9764 0.0173 0.4290
0.0000 0.0204 0.3405
0.0000 0.0204 0.3405
0.3032 0.0202 0.3462
0.9779 0.0179 0.4057
0.9764 0.0173 0.4289
0.0000 0.4379 0.3766
0.0000 0.4379 0.3766
0.3345 0.3550 0.3172
0.9439 0.4378 0.3470
0.9466 0.4864 0.4126
0.0000 0.9998 0.5315
0.0000 0.9998 0.5315
0.4319 0.8578 0.4644
0.9648 0.9266 0.5443
0.9685 0.9072 0.6621
0.3962 0.8996 0.6243
0.3962 0.8996 0.6243
0.5377 0.8666 0.6417
0.9212 0.9492 0.7368
0.9807 0.9710 0.7930
0.0000 0.0061 0.8070
0.0000 0.0061 0.8070
0.3171 0.0044 0.8649
0.9158 0.0031 0.8970
0.9894 0.0881 0.8786
0.0000 0.0061 0.8070
0.0000 0.0061 0.8070
0.3170 0.0044 0.8648
0.9157 0.0031 0.8970
0.9894 0.0880 0.8786
0.0000 0.3666 0.8895
0.0000 0.3665 0.8895
0.3687 0.3820 0.8998
0.9303 0.3615 0.8918
0.9854 0.4758 0.8782
0.2048 0.9669 0.9441
0.2048 0.9668 0.9441
0.5502 0.9299 0.9123
0.9130 0.8948 0.8871
0.9902 0.9078 0.8969
0.5680 0.9831 0.9301
0.5680 0.9831 0.9301
0.6800 0.9762 0.9242
0.9089 0.9743 0.9236
0.9926 0.9883 0.9147
0.0000 0.0000 1.0000
0.0000 0.0000 1.0000
0.1063 0.0000 1.0000
0.8890 0.0000 1.0000
1.0000 0.4216 1.0000
0.0000 0.0000 1.0000
0.0000 0.0000 1.0000
0.1059 0.0000 1.0000
0.8890 0.0000 1.0000
1.0000 0.4216 1.0000
0.0000 0.2699 1.0000
0.0000 0.2698 1.0000
0.0000 0.1673 1.0000
0.8937 0.2989 1.0000
1.0000 0.5014 1.0000
0.3548 0.9131 1.0000
0.3548 0.9131 1.0000
0.4995 0.9108 1.0000
0.9109 0.9101 0.9999
0.9999 0.8838 0.9999
0.5944 0.9998 0.9998
0.5943 0.9998 0.9998
0.6773 0.9998 0.9998
0.9138 1.0000 1.0000
0.9995 0.9977 0.9947
