LutTests/Cube/3D/Small25.cube
TITLE "Smal 3D LUT for tests"
LUT_3D_SIZE 9
0.0782 0.0000 0.0687
0.0986 0.0000 0.0673
0.1592 0.0000 0.0630
0.2627 0.0000 0.0550
0.4001 0.0000 0.0445
0.5798 0.0000 0.0304
0.7758 0.0000 0.0167
0.9192 0.0000 0.0066
0.9792 0.0000 0.0017
0.0778 0.0572 0.0687
0.0948 0.0660 0.0676
0.1598 0.0075 0.0630
0.2627 0.0000 0.0551
0.4008 0.0000 0.0445
0.5807 0.0000 0.0303
0.7762 0.0000 0.0167
0.9197 0.0000 0.0066
0.9795 0.0000 0.0017
0.0721 0.0958 0.0691
0.0920 0.1142 0.0677
0.1638 0.1414 0.0627
0.2645 0.0872 0.0549
0.4045 0.0639 0.0442
0.5852 0.0237 0.0300
0.7804 0.0000 0.0164
0.9220 0.0000 0.0064
0.9810 0.0019 0.0016
0.0721 0.2118 0.0691
0.0833 0.2116 0.0683
0.1639 0.2951 0.0627
0.2745 0.2568 0.0541
0.4205 0.2315 0.0428
0.6016 0.2298 0.0289
0.7954 0.2361 0.0153
0.9296 0.2511 0.0059
0.9858 0.2649 0.0012
0.0721 0.3688 0.0691
0.0746 0.3693 0.0689
0.1622 0.4112 0.0628
0.2960 0.4416 0.0524
0.4549 0.4435 0.0403
0.6400 0.4381 0.0262
0.8245 0.4540 0.0133
0.9424 0.4692 0.0048
0.9929 0.4777 0.0006
0.0721 0.5756 0.0691
0.0721 0.5763 0.0691
0.1616 0.5800 0.0628
0.3177 0.6602 0.0509
0.5012 0.6484 0.0370
0.6892 0.6752 0.0227
0.8491 0.6707 0.0115
0.9525 0.6756 0.0039
0.9959 0.6787 0.0003
0.0721 0.7990 0.0691
0.0721 0.7996 0.0691
0.1579 0.8029 0.0631
0.3316 0.8388 0.0499
0.5309 0.8419 0.0344
0.7210 0.8576 0.0205
0.8620 0.8632 0.0106
0.9509 0.8467 0.0041
0.9894 0.8436 0.1014
0.0721 0.9551 0.0691
0.0721 0.9553 0.0691
0.1778 0.9566 0.0617
0.3482 0.9645 0.0488
0.5357 0.9687 0.0340
0.7227 0.9721 0.0204
0.8686 0.9720 0.0102
0.9464 0.9614 0.0045
0.9775 0.9517 0.2356
0.0721 1.0000 0.0691
0.0796 1.0000 0.0685
0.2001 1.0000 0.0601
0.3589 1.0000 0.0480
0.5409 1.0000 0.0336
0.7213 1.0000 0.0205
0.8606 1.0000 0.0107
0.9414 1.0000 0.1442
0.9737 0.9980 0.2768
0.0693 0.0000 0.1027
0.0734 0.0000 0.0882
0.1580 0.0000 0.0651
0.2629 0.0000 0.0550
0.4010 0.0000 0.0444
0.5808 0.0000 0.0303
0.7763 0.0000 0.0167
0.9198 0.0000 0.0066
0.9796 0.0000 0.0017
0.0708 0.0761 0.0853
0.0823 0.0687 0.0758
0.1607 0.0052 0.0629
0.2629 0.0000 0.0550
0.4016 0.0000 0.0444
0.5816 0.0000 0.0303
0.7771 0.0000 0.0166
0.9202 0.0000 0.0065
0.9799 0.0000 0.0017
0.0755 0.0949 0.0689
0.0971 0.1467 0.0674
0.1648 0.1418 0.0627
0.2651 0.0857 0.0549
0.4053 0.0629 0.0441
0.5861 0.0217 0.0300
0.7813 0.0000 0.0163
0.9225 0.0000 0.0064
0.9814 0.0021 0.0016
0.0721 0.2115 0.0691
0.0882 0.2114 0.0680
0.1656 0.2956 0.0626
0.2753 0.2572 0.0540
0.4216 0.2314 0.0427
0.6025 0.2297 0.0288
0.7961 0.2360 0.0153
0.9300 0.2511 0.0058
0.9861 0.2651 0.0012
0.0721 0.3693 0.0691
0.0757 0.3698 0.0688
0.1651 0.4153 0.0626
0.2971 0.4420 0.0523
0.4559 0.4442 0.0402
0.6409 0.4383 0.0262
0.8252 0.4541 0.0132
0.9426 0.4693 0.0048
0.9930 0.4778 0.0006
0.0721 0.5764 0.0691
0.0721 0.5770 0.0691
0.1624 0.5807 0.0628
0.3192 0.6610 0.0508
0.5021 0.6489 0.0369
0.6899 0.6758 0.0227
0.8495 0.6708 0.0115
0.9527 0.6756 0.0039
0.9960 0.6788 0.0003
0.0721 0.7997 0.0691
0.0721 0.8003 0.0691
0.1590 0.8035 0.0630
0.3322 0.8391 0.0499
0.5316 0.8422 0.0344
0.7214 0.8578 0.0205
0.8623 0.8633 0.0106
0.9509 0.8467 0.0041
0.9894 0.8436 0.1187
0.0721 0.9553 0.0691
0.0721 0.9556 0.0691
0.1793 0.9568 0.0616
0.3487 0.9646 0.0487
0.5360 0.9688 0.0340
0.7231 0.9721 0.0204
0.8688 0.9720 0.0102
0.9464 0.9613 0.0045
0.9775 0.9517 0.2429
0.0721 1.0000 0.0691
0.0836 1.0000 0.0683
0.2016 1.0000 0.0600
0.3595 1.0000 0.0480
0.5412 1.0000 0.0335
0.7216 1.0000 0.0205
0.8608 1.0000 0.0107
0.9408 1.0000 0.1549
0.9737 0.9979 0.2827
0.0643 0.0000 0.1668
0.0643 0.0000 0.1668
0.0883 0.0053 0.1500
0.2318 0.0000 0.1086
0.3908 0.0000 0.0815
0.5859 0.0000 0.0300
0.7811 0.0000 0.0163
0.9224 0.0000 0.0064
0.9812 0.0000 0.0016
0.0643 0.0118 0.1664
0.0641 0.0111 0.1700
0.0870 0.0308 0.1518
0.2339 0.0000 0.1069
0.3929 0.0000 0.0783
0.5868 0.0000 0.0299
0.7819 0.0000 0.0163
0.9229 0.0000 0.0064
0.9816 0.0000 0.0015
0.0644 0.1354 0.1662
0.0647 0.1381 0.1609
0.1068 0.1137 0.1207
0.2466 0.0791 0.0962
0.4008 0.0574 0.0671
0.5912 0.0109 0.0296
0.7860 0.0000 0.0160
0.9251 0.0000 0.0062
0.9831 0.0034 0.0014
0.0748 0.2684 0.1130
0.0854 0.2695 0.0980
0.1762 0.2916 0.0639
0.2791 0.2597 0.0537
0.4271 0.2306 0.0423
0.6075 0.2287 0.0285
0.8002 0.2353 0.0150
0.9322 0.2513 0.0057
0.9875 0.2659 0.0010
0.0723 0.3722 0.0838
0.0930 0.3728 0.0737
0.1789 0.4315 0.0616
0.3030 0.4438 0.0519
0.4607 0.4478 0.0399
0.6459 0.4394 0.0258
0.8282 0.4546 0.0130
0.9439 0.4699 0.0047
0.9937 0.4785 0.0005
0.0721 0.5802 0.0691
0.0721 0.5809 0.0691
0.1698 0.5846 0.0622
0.3272 0.6652 0.0502
0.5069 0.6516 0.0365
0.6937 0.6790 0.0224
0.8515 0.6714 0.0114
0.9536 0.6759 0.0039
0.9965 0.6790 0.0003
0.0721 0.8031 0.0691
0.0721 0.8037 0.0691
0.1650 0.8067 0.0626
0.3352 0.8411 0.0497
0.5354 0.8437 0.0340
0.7238 0.8587 0.0203
0.8636 0.8642 0.0105
0.9513 0.8465 0.0041
0.9887 0.8434 0.1843
0.0721 0.9566 0.0691
0.0721 0.9568 0.0691
0.1868 0.9580 0.0611
0.3518 0.9654 0.0485
0.5396 0.9691 0.0337
0.7248 0.9720 0.0203
0.8701 0.9719 0.0101
0.9450 0.9609 0.1257
0.9775 0.9513 0.2778
0.0721 1.0000 0.0691
0.1053 1.0000 0.0668
0.2093 1.0000 0.0595
0.3627 1.0000 0.0477
0.5428 1.0000 0.0334
0.7233 1.0000 0.0204
0.8620 1.0000 0.0106
0.9403 1.0000 0.2047
0.9730 0.9967 0.3117
0.0557 0.0000 0.2760
0.0558 0.0000 0.2757
0.0720 0.0000 0.2714
0.1379 0.0265 0.2405
0.3565 0.0000 0.2106
0.5567 0.0000 0.2142
0.7734 0.0000 0.2177
0.9232 0.0000 0.2341
0.9846 0.0000 0.2503
0.0557 0.0000 0.2769
0.0556 0.0000 0.2778
0.0684 0.0004 0.2742
0.1359 0.0477 0.2426
0.3575 0.0000 0.2100
0.5580 0.0000 0.2135
0.7744 0.0000 0.2167
0.9237 0.0000 0.2332
0.9849 0.0000 0.2497
0.0557 0.0923 0.2775
0.0556 0.0935 0.2786
0.0549 0.0953 0.2874
0.1323 0.1103 0.2486
0.3647 0.0055 0.2058
0.5645 0.0000 0.2090
0.7796 0.0000 0.2114
0.9265 0.0000 0.2288
0.9868 0.0181 0.2465
0.0552 0.2516 0.2829
0.0551 0.2519 0.2838
0.0599 0.2564 0.2749
0.1799 0.1950 0.2078
0.3878 0.2076 0.1893
0.5864 0.2178 0.1927
0.7941 0.2310 0.1997
0.9339 0.2520 0.2215
0.9913 0.2695 0.2426
0.0987 0.4144 0.2159
0.1048 0.4052 0.2085
0.1279 0.3731 0.1783
0.2932 0.4246 0.1275
0.4762 0.4609 0.0388
0.6434 0.4400 0.1223
0.8249 0.4555 0.1482
0.9440 0.4717 0.2148
0.9954 0.4810 0.2475
0.0934 0.6300 0.2155
0.1012 0.6207 0.2070
0.1309 0.5848 0.1722
0.3147 0.6408 0.1211
0.5318 0.6621 0.0343
0.7047 0.6872 0.0216
0.8551 0.6729 0.0482
0.9531 0.6765 0.2054
0.9980 0.6798 0.2595
0.0572 0.8371 0.2587
0.0743 0.8452 0.2499
0.1247 0.8131 0.2026
0.3140 0.8374 0.1473
0.5487 0.8484 0.0329
0.7361 0.8626 0.0195
0.8680 0.8669 0.0102
0.9489 0.8458 0.2524
0.9884 0.8426 0.3210
0.0594 0.9641 0.2908
0.0822 0.9652 0.2811
0.1313 0.9573 0.2478
0.2855 0.9442 0.2191
0.5214 0.9694 0.1379
0.7309 0.9712 0.0198
0.8733 0.9708 0.0099
0.9411 0.9582 0.2898
0.9758 0.9489 0.3780
0.0975 1.0000 0.2981
0.1107 1.0000 0.2924
0.1519 0.9900 0.2690
0.2922 0.9722 0.2455
0.4976 0.9864 0.2257
0.7017 0.9979 0.1837
0.8502 0.9976 0.2253
0.9394 0.9983 0.3247
0.9722 0.9941 0.3985
0.0440 0.0000 0.4276
0.0440 0.0000 0.4278
0.0438 0.0000 0.4314
0.1403 0.0000 0.4188
0.2884 0.0817 0.4205
0.5690 0.0000 0.4225
0.7995 0.0000 0.4391
0.9338 0.0000 0.4627
0.9908 0.0000 0.4739
0.0439 0.0000 0.4288
0.0439 0.0000 0.4299
0.0437 0.0000 0.4330
0.1390 0.0070 0.4205
0.2871 0.0969 0.4219
0.5699 0.0000 0.4229
0.8001 0.0000 0.4389
0.9341 0.0000 0.4625
0.9910 0.0000 0.4738
0.0435 0.0813 0.4348
0.0435 0.0811 0.4360
0.0430 0.0650 0.4420
0.1336 0.0921 0.4292
0.2807 0.1537 0.4293
0.5748 0.0000 0.4258
0.8032 0.0000 0.4380
0.9359 0.0000 0.4615
0.9921 0.0801 0.4729
0.0427 0.2384 0.4467
0.0427 0.2385 0.4477
0.0422 0.2466 0.4551
0.0402 0.2610 0.4822
0.2947 0.2629 0.4357
0.6188 0.1676 0.4088
0.8144 0.2162 0.4332
0.9420 0.2580 0.4570
0.9958 0.2828 0.4696
0.0408 0.4408 0.4744
0.0407 0.4414 0.4753
0.0404 0.4445 0.4798
0.1630 0.4272 0.4339
0.3989 0.4046 0.4066
0.6554 0.4250 0.3862
0.8343 0.4520 0.4191
0.9500 0.4745 0.4513
0.9981 0.4878 0.4699
0.1447 0.6133 0.4251
0.1613 0.6098 0.4178
0.2088 0.6026 0.3937
0.3135 0.5977 0.3529
0.5185 0.6502 0.2720
0.6838 0.6878 0.2895
0.8503 0.6675 0.3962
0.9561 0.6760 0.4436
0.9992 0.6819 0.4708
0.1597 0.8283 0.4288
0.1693 0.8259 0.4263
0.2120 0.8149 0.4135
0.3294 0.7998 0.3761
0.5237 0.8232 0.3277
0.7308 0.8610 0.2416
0.8557 0.8626 0.3373
0.9504 0.8426 0.4591
0.9874 0.8410 0.4987
0.1795 0.9567 0.4503
0.1881 0.9544 0.4483
0.2273 0.9440 0.4384
0.3378 0.9292 0.4156
0.5220 0.9396 0.3908
0.7048 0.9505 0.3854
0.8638 0.9618 0.3663
0.9421 0.9557 0.4690
0.9743 0.9454 0.5292
0.1821 0.9916 0.4736
0.1906 0.9892 0.4717
0.2296 0.9790 0.4630
0.3399 0.9649 0.4448
0.5207 0.9734 0.4301
0.7036 0.9837 0.4261
0.8503 0.9933 0.4496
0.9408 0.9950 0.4930
0.9720 0.9898 0.5378
0.0289 0.0000 0.6290
0.0289 0.0000 0.6292
0.0286 0.0000 0.6329
0.1390 0.0000 0.6313
0.3163 0.0125 0.6503
0.5340 0.1629 0.6901
0.7691 0.1803 0.6892
0.9344 0.0000 0.6851
0.9971 0.0000 0.6790
0.0288 0.0000 0.6302
0.0287 0.0000 0.6313
0.0285 0.0000 0.6344
0.1362 0.0000 0.6332
0.3154 0.0437 0.6515
0.5330 0.1750 0.6910
0.7693 0.1906 0.6892
0.9353 0.0000 0.6855
0.9972 0.0000 0.6788
0.0284 0.0432 0.6364
0.0283 0.0393 0.6375
0.0279 0.0000 0.6431
0.1226 0.0368 0.6432
0.3076 0.1353 0.6586
0.5282 0.2283 0.6956
0.7706 0.2371 0.6891
0.9410 0.0000 0.6864
0.9978 0.1268 0.6778
0.0271 0.2480 0.6530
0.0270 0.2486 0.6542
0.0265 0.2512 0.6600
0.0246 0.2471 0.6829
0.2944 0.2729 0.6815
0.5127 0.3543 0.7118
0.7755 0.3549 0.6885
0.9525 0.2531 0.6733
0.9980 0.3039 0.6760
0.0244 0.4516 0.6858
0.0243 0.4519 0.6866
0.0239 0.4536 0.6912
0.0224 0.4661 0.7098
0.1333 0.5026 0.7478
0.5500 0.5108 0.7076
0.8199 0.4745 0.6783
0.9577 0.4764 0.6629
0.9978 0.4985 0.6720
0.0215 0.6738 0.7207
0.0215 0.6742 0.7213
0.0213 0.6761 0.7240
0.0206 0.6826 0.7335
0.4040 0.6753 0.6703
0.6632 0.6649 0.6624
0.8690 0.6619 0.6299
0.9571 0.6771 0.6552
0.9940 0.6861 0.6696
0.0800 0.8506 0.6860
0.0997 0.8504 0.6832
0.1660 0.8479 0.6737
0.3291 0.8254 0.6542
0.5688 0.8204 0.6093
0.7556 0.8544 0.5336
0.8626 0.8643 0.5869
0.9505 0.8393 0.6560
0.9847 0.8393 0.6774
0.2844 0.9373 0.6517
0.2906 0.9369 0.6509
0.3222 0.9362 0.6478
0.4181 0.9367 0.6370
0.5735 0.9417 0.6182
0.7394 0.9483 0.5991
0.8772 0.9577 0.5887
0.9442 0.9528 0.6467
0.9739 0.9412 0.6879
0.2851 0.9810 0.6634
0.2911 0.9806 0.6628
0.3219 0.9798 0.6608
0.4157 0.9804 0.6538
0.5694 0.9846 0.6402
0.7333 0.9898 0.6276
0.8642 0.9914 0.6347
0.9445 0.9902 0.6578
0.9719 0.9858 0.6874
0.0122 0.0000 0.8423
0.0122 0.0000 0.8424
0.0120 0.0000 0.8449
0.1454 0.0000 0.8490
0.3486 0.0000 0.8675
0.5626 0.1795 0.8842
0.7426 0.2884 0.8866
0.8629 0.3600 0.8812
0.9201 0.3828 0.8748
0.0121 0.0000 0.8432
0.0121 0.0000 0.8441
0.0119 0.0000 0.8461
0.1446 0.0000 0.8497
0.3483 0.0117 0.8681
0.5623 0.1903 0.8845
0.7423 0.2952 0.8868
0.8625 0.3655 0.8813
0.9197 0.3877 0.8748
0.0117 0.0000 0.8482
0.0117 0.0000 0.8490
0.0113 0.0000 0.8532
0.1312 0.0000 0.8556
0.3469 0.1296 0.8709
0.5605 0.2388 0.8862
0.7407 0.3282 0.8875
0.8601 0.3930 0.8821
0.9180 0.4123 0.8751
0.0105 0.2682 0.8640
0.0105 0.2686 0.8649
0.0102 0.2699 0.8691
0.0093 0.2512 0.8815
0.3317 0.2859 0.8852
0.5488 0.3618 0.8943
0.7320 0.4270 0.8912
0.8564 0.4725 0.8820
0.9176 0.4827 0.8729
0.0094 0.4691 0.8795
0.0094 0.4693 0.8800
0.0092 0.4722 0.8829
0.0085 0.4817 0.8930
0.2544 0.4957 0.9143
0.5373 0.5193 0.9105
0.7102 0.5801 0.9016
0.8614 0.5975 0.8743
0.9331 0.5917 0.8597
0.0083 0.6839 0.8952
0.0083 0.6840 0.8955
0.0082 0.6847 0.8968
0.0079 0.6870 0.9013
0.3186 0.6917 0.9033
0.4640 0.7266 0.9332
0.7447 0.7252 0.8857
0.8910 0.7296 0.8542
0.9581 0.7121 0.8488
0.0085 0.8567 0.8924
0.0085 0.8568 0.8925
0.0084 0.8571 0.8932
0.1226 0.8582 0.8923
0.3758 0.8547 0.8901
0.6457 0.8544 0.8526
0.8323 0.8375 0.8375
0.9510 0.8310 0.8177
0.9809 0.8361 0.8269
0.1168 0.9634 0.8748
0.1322 0.9633 0.8737
0.1946 0.9622 0.8700
0.3291 0.9548 0.8598
0.5283 0.9486 0.8410
0.7218 0.9303 0.8307
0.8840 0.9457 0.7704
0.9434 0.9468 0.7980
0.9713 0.9354 0.8249
0.3038 0.9928 0.8465
0.3094 0.9927 0.8462
0.3377 0.9921 0.8448
0.4246 0.9923 0.8413
0.5661 0.9858 0.8364
0.7518 0.9713 0.8144
0.8707 0.9796 0.7985
0.9463 0.9832 0.7982
0.9705 0.9804 0.8168
0.0014 0.0000 0.9835
0.0014 0.0000 0.9832
0.0014 0.0000 0.9836
0.1984 0.0000 0.9891
0.3971 0.0769 0.9996
0.5892 0.2310 0.9999
0.7577 0.3330 0.9936
0.8720 0.3971 0.9806
0.9252 0.4200 0.9720
0.0013 0.0000 0.9840
0.0013 0.0000 0.9844
0.0013 0.0000 0.9844
0.1980 0.0000 0.9894
0.3970 0.0982 0.9998
0.5887 0.2396 0.9999
0.7575 0.3386 0.9936
0.8716 0.4017 0.9807
0.9249 0.4241 0.9720
0.0011 0.0207 0.9865
0.0011 0.0174 0.9869
0.0009 0.0000 0.9891
0.1972 0.0714 0.9910
0.3962 0.1727 1.0000
0.5863 0.2797 0.9999
0.7563 0.3662 0.9937
0.8696 0.4248 0.9809
0.9231 0.4455 0.9721
0.0004 0.2844 0.9950
0.0004 0.2845 0.9953
0.0002 0.2847 0.9972
0.1278 0.2724 1.0000
0.3926 0.3148 1.0000
0.5792 0.3872 1.0000
0.7525 0.4500 0.9937
0.8647 0.4951 0.9807
0.9166 0.5125 0.9725
0.0000 0.4883 1.0000
0.0000 0.4888 1.0000
0.0000 0.4912 1.0000
0.0076 0.4994 1.0000
0.3410 0.5055 1.0000
0.5748 0.5365 0.9994
0.7437 0.5865 0.9942
0.8579 0.6166 0.9788
0.9057 0.6308 0.9724
0.0000 0.6876 0.9998
0.0000 0.6876 0.9998
0.0000 0.6881 0.9998
0.1904 0.6896 0.9999
0.3872 0.7000 1.0000
0.5464 0.7172 0.9995
0.7414 0.7285 0.9988
0.8449 0.7576 0.9811
0.8937 0.7660 0.9726
0.0121 0.8507 0.9903
0.0417 0.8507 0.9903
0.1323 0.8508 0.9906
0.2752 0.8513 0.9907
0.4508 0.8513 0.9903
0.6236 0.8509 0.9885
0.7263 0.8707 0.9988
0.8631 0.8621 0.9739
0.9122 0.8706 0.9576
0.2682 0.9516 0.9749
0.2737 0.9515 0.9748
0.3008 0.9507 0.9741
0.3832 0.9492 0.9728
0.5141 0.9473 0.9718
0.6578 0.9451 0.9711
0.8033 0.9424 0.9546
0.9122 0.9314 0.9377
0.9467 0.9306 0.9383
0.3290 0.9930 0.9678
0.3333 0.9929 0.9678
0.3550 0.9925 0.9676
0.4233 0.9907 0.9666
0.5426 0.9874 0.9645
0.6790 0.9834 0.9625
0.8335 0.9757 0.9350
0.9268 0.9659 0.9242
0.9677 0.9740 0.9076
0.0000 0.0000 1.0000
0.0000 0.0000 1.0000
0.0301 0.0000 1.0000
0.2389 0.0000 1.0000
0.4230 0.1370 1.0000
0.6078 0.2607 0.9999
0.7664 0.3595 1.0000
0.8784 0.4194 1.0000
0.9314 0.4403 1.0000
0.0000 0.0000 1.0000
0.0000 0.0000 1.0000
0.0309 0.0000 1.0000
0.2388 0.0074 1.0000
0.4229 0.1507 1.0000
0.6074 0.2682 0.9999
0.7662 0.3646 1.0000
0.8780 0.4235 1.0000
0.9311 0.4440 1.0000
0.0000 0.0964 1.0000
0.0000 0.0957 1.0000
0.0000 0.0825 1.0000
0.2387 0.1315 1.0000
0.4226 0.2077 1.0000
0.6054 0.3039 0.9999
0.7647 0.3899 1.0000
0.8764 0.4445 1.0000
0.9295 0.4634 1.0000
0.0000 0.2991 1.0000
0.0000 0.2994 1.0000
0.0000 0.3003 1.0000
0.2051 0.2934 1.0000
0.4245 0.3359 1.0000
0.5995 0.4035 1.0000
0.7616 0.4667 1.0000
0.8721 0.5094 0.9999
0.9238 0.5249 0.9998
0.0000 0.4994 1.0000
0.0000 0.4998 1.0000
0.0000 0.5023 1.0000
0.1441 0.5104 1.0000
0.3876 0.5139 1.0000
0.5977 0.5478 0.9995
0.7576 0.5944 0.9996
0.8665 0.6242 0.9997
0.9135 0.6372 0.9998
0.0000 0.6907 0.9999
0.0000 0.6908 0.9999
0.0489 0.6913 0.9999
0.2562 0.6928 1.0000
0.4401 0.6999 1.0000
0.5890 0.7147 0.9996
0.7571 0.7335 0.9997
0.8616 0.7566 0.9998
0.9087 0.7633 0.9998
0.2149 0.8475 1.0000
0.2218 0.8475 1.0000
0.2555 0.8476 1.0000
0.3495 0.8479 1.0000
0.4940 0.8486 1.0000
0.6498 0.8493 0.9997
0.7500 0.8653 0.9998
0.8655 0.8617 0.9999
0.9036 0.8717 0.9999
0.3428 0.9459 1.0000
0.3468 0.9458 1.0000
0.3679 0.9456 1.0000
0.4350 0.9447 1.0000
0.5488 0.9429 0.9997
0.6802 0.9412 0.9998
0.7979 0.9390 0.9999
0.8654 0.9446 0.9999
0.9134 0.9346 0.9999
0.3932 0.9870 1.0000
0.3967 0.9869 1.0000
0.4143 0.9865 1.0000
0.4718 0.9852 1.0000
0.5759 0.9822 0.9998
0.7013 0.9784 0.9983
0.8098 0.9754 0.9960
0.8907 0.9728 0.9893
0.9362 0.9676 0.9804
