LutTests/Cube/3D/Small25_with_Blob.cube
TITLE "Small LUT with BLOB"
LUT_3D_SIZE 9
0.0037 0.0300 0.0270
0.0195 0.0300 0.0270
0.0557 0.0300 0.0270
0.1589 0.0300 0.0270
0.3687 0.0300 0.0270
0.6994 0.0300 0.0270
1.0000 0.0300 0.0270
1.0000 0.0300 0.0270
1.0000 0.0300 0.0270
0.0011 0.0456 0.0266
0.0211 0.0402 0.0267
0.0551 0.0300 0.0270
0.1588 0.0300 0.0270
0.3687 0.0300 0.0270
0.6994 0.0300 0.0270
1.0000 0.0300 0.0270
1.0000 0.0300 0.0270
1.0000 0.0300 0.0270
0.0000 0.1164 0.0245
0.0032 0.1161 0.0246
0.0705 0.1011 0.0251
0.1624 0.0590 0.0262
0.3805 0.0300 0.0270
0.7120 0.0300 0.0270
1.0000 0.0300 0.0270
1.0000 0.0300 0.0270
1.0000 0.0300 0.0270
0.0000 0.2563 0.0200
0.0000 0.2562 0.0200
0.0452 0.2400 0.0204
0.1968 0.2339 0.0205
0.4550 0.2251 0.0208
0.7620 0.1224 0.0243
1.0000 0.0300 0.0270
1.0000 0.0300 0.0270
1.0000 0.0300 0.0270
0.0000 0.4928 0.0146
0.0000 0.4928 0.0146
0.0000 0.4953 0.0145
0.2179 0.4721 0.0152
0.5191 0.5227 0.0138
0.8512 0.5341 0.0135
1.0000 0.5236 0.0138
1.0000 0.5383 0.0134
1.0000 0.5466 0.0131
0.0000 0.8538 0.0039
0.0000 0.8538 0.0039
0.0000 0.8569 0.0038
0.1942 0.8442 0.0042
0.5807 0.8579 0.0038
0.8846 0.8591 0.0038
1.0000 0.8225 0.0047
0.9827 0.7940 0.2144
0.9716 0.7861 0.3010
0.0000 1.0000 0.0000
0.0000 1.0000 0.0000
0.0000 1.0000 0.0000
0.2062 0.9825 0.0005
0.5961 0.9846 0.0004
0.8667 0.9964 0.0001
0.9794 0.9702 0.3354
0.9673 0.9245 0.4945
0.9645 0.9145 0.5366
0.2719 0.8897 0.2619
0.2719 0.8897 0.2619
0.2794 0.8811 0.2608
0.3253 0.8304 0.2660
0.5284 0.8618 0.3365
0.7392 0.9011 0.4407
0.9545 0.9450 0.5460
0.9683 0.9512 0.6461
0.9716 0.9565 0.6868
0.3378 0.8558 0.3866
0.3378 0.8558 0.3866
0.3442 0.8538 0.3881
0.4101 0.8501 0.4072
0.5483 0.8578 0.4637
0.7223 0.8821 0.5431
0.9339 0.9401 0.6299
0.9736 0.9598 0.7120
0.9744 0.9611 0.7210
0.0000 0.0296 0.0422
0.0263 0.0298 0.0346
0.0546 0.0300 0.0270
0.1584 0.0300 0.0270
0.3698 0.0300 0.0270
0.7009 0.0300 0.0270
1.0000 0.0300 0.0270
1.0000 0.0300 0.0270
1.0000 0.0300 0.0270
0.0000 0.0394 0.0312
0.0169 0.0339 0.0269
0.0549 0.0300 0.0270
0.1590 0.0300 0.0270
0.3698 0.0300 0.0270
0.7009 0.0300 0.0270
1.0000 0.0300 0.0270
1.0000 0.0300 0.0270
1.0000 0.0300 0.0270
0.0000 0.1157 0.0246
0.0026 0.1154 0.0246
0.0703 0.1006 0.0251
0.1623 0.0571 0.0263
0.3816 0.0300 0.0270
0.7124 0.0300 0.0270
1.0000 0.0300 0.0270
1.0000 0.0300 0.0270
1.0000 0.0300 0.0270
0.0000 0.2561 0.0200
0.0000 0.2560 0.0200
0.0450 0.2399 0.0204
0.1968 0.2338 0.0205
0.4551 0.2249 0.0208
0.7625 0.1209 0.0244
1.0000 0.0300 0.0270
1.0000 0.0300 0.0270
1.0000 0.0300 0.0270
0.0000 0.4927 0.0146
0.0000 0.4927 0.0146
0.0000 0.4953 0.0145
0.2178 0.4720 0.0152
0.5190 0.5227 0.0138
0.8511 0.5340 0.0135
1.0000 0.5236 0.0138
1.0000 0.5382 0.0134
1.0000 0.5465 0.0131
0.0000 0.8537 0.0039
0.0000 0.8537 0.0039
0.0000 0.8568 0.0038
0.1940 0.8442 0.0042
0.5807 0.8579 0.0038
0.8846 0.8591 0.0038
1.0000 0.8225 0.0047
0.9827 0.7940 0.2143
0.9716 0.7861 0.3010
0.0000 1.0000 0.0000
0.0000 1.0000 0.0000
0.0000 1.0000 0.0000
0.2060 0.9825 0.0005
0.5961 0.9846 0.0004
0.8667 0.9964 0.0001
0.9794 0.9702 0.3354
0.9673 0.9245 0.4944
0.9645 0.9145 0.5366
0.2719 0.8897 0.2619
0.2719 0.8897 0.2619
0.2794 0.8812 0.2608
0.3253 0.8304 0.2659
0.5283 0.8618 0.3364
0.7392 0.9011 0.4407
0.9545 0.9450 0.5459
0.9683 0.9512 0.6461
0.9716 0.9565 0.6868
0.3378 0.8558 0.3866
0.3378 0.8558 0.3866
0.3441 0.8538 0.3881
0.4101 0.8501 0.4072
0.5483 0.8578 0.4637
0.7223 0.8821 0.5431
0.9339 0.9401 0.6299
0.9736 0.9598 0.7120
0.9744 0.9611 0.7210
0.0000 0.0282 0.0957
0.0000 0.0282 0.0957
0.0772 0.0285 0.0819
0.1568 0.0296 0.0405
0.3720 0.0300 0.0270
0.7053 0.0300 0.0270
1.0000 0.0300 0.0270
1.0000 0.0300 0.0270
1.0000 0.0300 0.0270
0.0000 0.0282 0.0957
0.0000 0.0282 0.0957
0.0772 0.0285 0.0818
0.1568 0.0296 0.0405
0.3720 0.0300 0.0270
0.7053 0.0300 0.0270
1.0000 0.0300 0.0270
1.0000 0.0300 0.0270
1.0000 0.0300 0.0270
0.0000 0.0965 0.0795
0.0000 0.0964 0.0795
0.0862 0.0770 0.0641
0.1595 0.0332 0.0269
0.3839 0.0300 0.0270
0.7176 0.0300 0.0270
1.0000 0.0300 0.0270
1.0000 0.0300 0.0270
1.0000 0.0300 0.0270
0.0000 0.2468 0.0432
0.0000 0.2468 0.0432
0.0393 0.2367 0.0235
0.1953 0.2304 0.0206
0.4568 0.2185 0.0210
0.7658 0.0932 0.0253
1.0000 0.0300 0.0270
1.0000 0.0300 0.0270
1.0000 0.0300 0.0270
0.0000 0.4918 0.0146
0.0000 0.4918 0.0146
0.0000 0.4941 0.0146
0.2154 0.4706 0.0152
0.5200 0.5222 0.0138
0.8514 0.5311 0.0136
1.0000 0.5209 0.0138
1.0000 0.5372 0.0134
1.0000 0.5450 0.0132
0.0000 0.8539 0.0039
0.0000 0.8539 0.0039
0.0000 0.8566 0.0038
0.1885 0.8439 0.0042
0.5792 0.8558 0.0038
0.8828 0.8571 0.0038
1.0000 0.8209 0.0048
0.9790 0.7897 0.2411
0.9706 0.7838 0.3168
0.0000 1.0000 0.0000
0.0000 1.0000 0.0000
0.0000 1.0000 0.0000
0.2024 0.9831 0.0005
0.5948 0.9846 0.0004
0.8653 0.9963 0.0001
0.9786 0.9687 0.3494
0.9670 0.9234 0.4995
0.9644 0.9137 0.5424
0.2724 0.8919 0.2809
0.2724 0.8919 0.2809
0.2795 0.8850 0.2795
0.3232 0.8317 0.2823
0.5258 0.8615 0.3492
0.7347 0.8987 0.4484
0.9530 0.9446 0.5518
0.9686 0.9517 0.6504
0.9719 0.9569 0.6904
0.3406 0.8582 0.3990
0.3406 0.8582 0.3990
0.3456 0.8563 0.4001
0.4103 0.8514 0.4179
0.5462 0.8571 0.4718
0.7188 0.8803 0.5485
0.9331 0.9404 0.6346
0.9739 0.9602 0.7151
0.9746 0.9615 0.7241
0.0000 0.0243 0.2014
0.0000 0.0243 0.2014
0.0061 0.0244 0.1998
0.1766 0.0251 0.1749
0.3824 0.0264 0.1412
0.7079 0.0291 0.0608
1.0000 0.0300 0.0270
1.0000 0.0300 0.0270
1.0000 0.0300 0.0270
0.0000 0.0244 0.2014
0.0000 0.0244 0.2014
0.0061 0.0244 0.1998
0.1766 0.0251 0.1749
0.3824 0.0264 0.1412
0.7079 0.0291 0.0608
1.0000 0.0300 0.0270
1.0000 0.0300 0.0270
1.0000 0.0300 0.0270
0.0000 0.0370 0.1959
0.0000 0.0370 0.1959
0.0000 0.0268 0.1997
0.1833 0.0251 0.1738
0.3897 0.0265 0.1387
0.7234 0.0300 0.0270
1.0000 0.0300 0.0270
1.0000 0.0300 0.0270
1.0000 0.0300 0.0270
0.0000 0.2107 0.1763
0.0000 0.2107 0.1763
0.0225 0.2054 0.1708
0.2069 0.1800 0.1423
0.4295 0.1655 0.1083
0.7711 0.0300 0.0270
1.0000 0.0300 0.0270
1.0000 0.0300 0.0270
1.0000 0.0300 0.0270
0.0000 0.4685 0.1837
0.0000 0.4685 0.1837
0.0000 0.4699 0.1813
0.2197 0.4364 0.1133
0.5186 0.5154 0.0140
0.8480 0.5154 0.0140
1.0000 0.5075 0.0142
0.9935 0.5201 0.1085
0.9864 0.5210 0.1474
0.0000 0.8477 0.1058
0.0000 0.8477 0.1058
0.0000 0.8485 0.0995
0.1570 0.8407 0.0043
0.5697 0.8434 0.0042
0.8728 0.8461 0.0041
0.9904 0.8001 0.1456
0.9680 0.7735 0.3434
0.9650 0.7718 0.3889
0.0000 1.0000 0.1017
0.0000 1.0000 0.1017
0.0000 1.0000 0.1011
0.2029 0.9610 0.0674
0.5558 0.9372 0.1237
0.7915 0.9417 0.2710
0.9731 0.9552 0.4186
0.9645 0.9154 0.5369
0.9645 0.9102 0.5766
0.2761 0.9043 0.3854
0.2761 0.9043 0.3854
0.2766 0.9040 0.3853
0.3332 0.8565 0.3830
0.5096 0.8587 0.4243
0.7103 0.8855 0.4954
0.9448 0.9424 0.5885
0.9710 0.9554 0.6785
0.9737 0.9600 0.7133
0.3514 0.8676 0.4728
0.3514 0.8676 0.4728
0.3514 0.8676 0.4728
0.4121 0.8590 0.4850
0.5302 0.8504 0.5230
0.7039 0.8739 0.5881
0.9289 0.9427 0.6658
0.9757 0.9631 0.7358
0.9765 0.9644 0.7449
0.0000 0.0204 0.3405
0.0000 0.0204 0.3405
0.0000 0.0204 0.3405
0.1222 0.0206 0.3371
0.3032 0.0202 0.3463
0.6081 0.0179 0.4049
0.9779 0.0179 0.4057
0.9768 0.0175 0.4222
0.9764 0.0173 0.4290
0.0000 0.0204 0.3405
0.0000 0.0204 0.3405
0.0000 0.0204 0.3405
0.1222 0.0206 0.3371
0.3032 0.0202 0.3463
0.6081 0.0179 0.4049
0.9779 0.0179 0.4057
0.9768 0.0175 0.4222
0.9764 0.0173 0.4290
0.0000 0.0204 0.3405
0.0000 0.0204 0.3405
0.0000 0.0204 0.3405
0.1221 0.0206 0.3371
0.3032 0.0202 0.3462
0.6081 0.0179 0.4049
0.9779 0.0179 0.4057
0.9769 0.0175 0.4222
0.9764 0.0173 0.4289
0.0000 0.1643 0.3365
0.0000 0.1643 0.3365
0.0000 0.1642 0.3365
0.1377 0.1663 0.3162
0.3182 0.0196 0.3617
0.6538 0.0179 0.4074
0.9782 0.0181 0.4003
0.9770 0.0175 0.4194
0.9766 0.0173 0.4264
0.0000 0.4379 0.3766
0.0000 0.4379 0.3766
0.0000 0.4379 0.3766
0.1871 0.3974 0.3346
0.3345 0.3550 0.3172
0.6780 0.4039 0.3390
0.9439 0.4378 0.3470
0.9461 0.4768 0.4002
0.9466 0.4864 0.4126
0.0000 0.8146 0.4932
0.0000 0.8146 0.4932
0.0000 0.8146 0.4932
0.0956 0.7942 0.4691
0.3971 0.6737 0.3817
0.7362 0.7429 0.3479
0.9618 0.7486 0.4272
0.9581 0.7468 0.5029
0.9576 0.7492 0.5223
0.0000 0.9998 0.5315
0.0000 0.9998 0.5315
0.0000 0.9998 0.5315
0.1693 0.9569 0.5035
0.4319 0.8578 0.4644
0.6771 0.8750 0.4974
0.9648 0.9266 0.5443
0.9660 0.9064 0.6315
0.9685 0.9072 0.6621
0.2819 0.9353 0.5770
0.2819 0.9353 0.5770
0.2818 0.9353 0.5770
0.3429 0.9051 0.5711
0.4813 0.8617 0.5741
0.6552 0.8581 0.6167
0.9239 0.9429 0.6805
0.9762 0.9640 0.7420
0.9784 0.9674 0.7669
0.3962 0.8996 0.6243
0.3962 0.8996 0.6243
0.3962 0.8996 0.6243
0.4332 0.8869 0.6255
0.5377 0.8666 0.6417
0.6998 0.8800 0.6827
0.9212 0.9492 0.7368
0.9800 0.9699 0.7846
0.9807 0.9710 0.7930
0.0000 0.0139 0.5533
0.0000 0.0139 0.5533
0.0000 0.0139 0.5533
0.0000 0.0135 0.5680
0.3240 0.0126 0.6048
0.5626 0.0105 0.6633
0.9707 0.0104 0.6655
0.9712 0.0101 0.6727
0.9715 0.0100 0.6757
0.0000 0.0139 0.5533
0.0000 0.0139 0.5533
0.0000 0.0139 0.5533
0.0000 0.0135 0.5680
0.3240 0.0126 0.6048
0.5626 0.0105 0.6633
0.9707 0.0104 0.6655
0.9712 0.0101 0.6727
0.9715 0.0100 0.6757
0.0000 0.0139 0.5533
0.0000 0.0139 0.5533
0.0000 0.0139 0.5533
0.0000 0.0135 0.5680
0.3239 0.0126 0.6048
0.5626 0.0105 0.6632
0.9707 0.0104 0.6654
0.9712 0.0101 0.6727
0.9715 0.0100 0.6757
0.0000 0.0133 0.5790
0.0000 0.0133 0.5790
0.0000 0.0133 0.5790
0.0000 0.0128 0.5950
0.3396 0.0118 0.6322
0.5827 0.0100 0.6748
0.9711 0.0102 0.6709
0.9711 0.0102 0.6712
0.9713 0.0101 0.6738
0.0000 0.4172 0.6356
0.0000 0.4172 0.6356
0.0000 0.4172 0.6356
0.0000 0.4206 0.6424
0.3723 0.4167 0.6176
0.6071 0.3383 0.6529
0.9526 0.3668 0.6403
0.9554 0.4522 0.6504
0.9568 0.4743 0.6580
0.0000 0.7757 0.7353
0.0000 0.7757 0.7353
0.0000 0.7756 0.7353
0.0000 0.7741 0.7304
0.4526 0.6784 0.6712
0.6298 0.6462 0.6611
0.9643 0.7167 0.6656
0.9681 0.7392 0.7005
0.9693 0.7461 0.7117
0.0831 0.9948 0.7732
0.0831 0.9948 0.7732
0.0831 0.9948 0.7732
0.2177 0.9803 0.7655
0.4859 0.9143 0.7437
0.6673 0.8587 0.7236
0.9222 0.9041 0.7232
0.9775 0.9085 0.7702
0.9789 0.9097 0.7841
0.3408 0.9678 0.7861
0.3408 0.9678 0.7861
0.3408 0.9678 0.7861
0.3755 0.9611 0.7838
0.5531 0.9269 0.7748
0.7118 0.9119 0.7817
0.9191 0.9594 0.8023
0.9840 0.9759 0.8271
0.9855 0.9780 0.8408
0.4747 0.9446 0.7950
0.4747 0.9446 0.7950
0.4747 0.9446 0.7950
0.4917 0.9422 0.7950
0.6101 0.9272 0.7965
0.7531 0.9277 0.8101
0.9246 0.9655 0.8318
0.9867 0.9797 0.8526
0.9872 0.9803 0.8574
0.0000 0.0061 0.8070
0.0000 0.0061 0.8070
0.0000 0.0061 0.8070
0.0000 0.0061 0.8070
0.3171 0.0044 0.8649
0.6637 0.0029 0.9032
0.9158 0.0031 0.8970
0.9896 0.0037 0.8832
0.9894 0.0881 0.8786
0.0000 0.0061 0.8070
0.0000 0.0061 0.8070
0.0000 0.0061 0.8070
0.0000 0.0061 0.8070
0.3171 0.0044 0.8649
0.6637 0.0029 0.9032
0.9158 0.0031 0.8970
0.9896 0.0037 0.8832
0.9894 0.0881 0.8786
0.0000 0.0061 0.8070
0.0000 0.0061 0.8070
0.0000 0.0061 0.8070
0.0000 0.0061 0.8070
0.3170 0.0044 0.8648
0.6637 0.0029 0.9032
0.9157 0.0031 0.8970
0.9896 0.0037 0.8832
0.9894 0.0880 0.8786
0.0000 0.0058 0.8190
0.0000 0.0058 0.8190
0.0000 0.0058 0.8190
0.0000 0.0058 0.8189
0.3032 0.0035 0.8870
0.6719 0.0024 0.9146
0.9218 0.0029 0.9016
0.9898 0.0036 0.8853
0.9896 0.1228 0.8783
0.0000 0.3666 0.8895
0.0000 0.3666 0.8895
0.0000 0.3665 0.8895
0.0000 0.3662 0.8895
0.3687 0.3820 0.8998
0.6993 0.3189 0.9158
0.9303 0.3615 0.8918
0.9856 0.4449 0.8793
0.9854 0.4758 0.8782
0.0000 0.7320 0.9421
0.0000 0.7320 0.9421
0.0000 0.7319 0.9421
0.0000 0.7317 0.9421
0.4689 0.7176 0.9113
0.7036 0.7185 0.8690
0.9222 0.7094 0.8832
0.9883 0.7311 0.8896
0.9878 0.7480 0.8843
0.2048 0.9669 0.9441
0.2048 0.9669 0.9441
0.2048 0.9668 0.9441
0.2045 0.9668 0.9441
0.5502 0.9299 0.9123
0.7547 0.8852 0.8842
0.9130 0.8948 0.8871
0.9899 0.9066 0.8940
0.9902 0.9078 0.8969
0.4662 0.9893 0.9350
0.4662 0.9893 0.9350
0.4661 0.9893 0.9350
0.4661 0.9893 0.9350
0.6297 0.9771 0.9204
0.7867 0.9697 0.9211
0.9064 0.9725 0.9134
0.9921 0.9874 0.9082
0.9923 0.9843 0.9112
0.5680 0.9831 0.9301
0.5680 0.9831 0.9301
0.5680 0.9831 0.9301
0.5680 0.9831 0.9301
0.6800 0.9762 0.9242
0.8022 0.9702 0.9245
0.9089 0.9743 0.9236
0.9930 0.9888 0.9185
0.9926 0.9883 0.9147
0.0000 0.0000 1.0000
0.0000 0.0000 1.0000
0.0000 0.0000 1.0000
0.0000 0.0000 1.0000
0.2178 0.0000 1.0000
0.6697 0.0000 0.9998
0.9093 0.0000 1.0000
1.0000 0.2200 1.0000
0.9998 0.3509 0.9969
0.0000 0.0000 1.0000
0.0000 0.0000 1.0000
0.0000 0.0000 1.0000
0.0000 0.0000 1.0000
0.2178 0.0000 1.0000
0.6697 0.0000 0.9998
0.9093 0.0000 1.0000
1.0000 0.2200 1.0000
0.9998 0.3509 0.9969
0.0000 0.0000 1.0000
0.0000 0.0000 1.0000
0.0000 0.0000 1.0000
0.0000 0.0000 1.0000
0.2176 0.0000 1.0000
0.6697 0.0000 0.9998
0.9092 0.0000 1.0000
1.0000 0.2200 1.0000
0.9998 0.3509 0.9969
0.0000 0.0000 1.0000
0.0000 0.0000 1.0000
0.0000 0.0000 1.0000
0.0000 0.0000 1.0000
0.2168 0.0000 1.0000
0.6695 0.0000 0.9998
0.9091 0.0000 1.0000
1.0000 0.2196 1.0000
0.9998 0.3508 0.9969
0.0000 0.3028 1.0000
0.0000 0.3028 1.0000
0.0000 0.3027 1.0000
0.0000 0.3022 1.0000
0.2156 0.2680 1.0000
0.6792 0.2484 1.0000
0.9175 0.3353 1.0000
1.0000 0.4190 1.0000
1.0000 0.4567 1.0000
0.0000 0.6970 0.9998
0.0000 0.6970 0.9998
0.0000 0.6970 0.9998
0.0000 0.6968 0.9998
0.3871 0.6950 1.0000
0.7271 0.7257 0.9997
0.9193 0.7181 0.9998
0.9999 0.7379 0.9999
0.9994 0.7462 0.9955
0.3048 0.9296 1.0000
0.3048 0.9296 1.0000
0.3048 0.9295 1.0000
0.3047 0.9294 1.0000
0.5314 0.9237 0.9998
0.7865 0.9137 0.9998
0.9128 0.9125 0.9774
0.9984 0.9024 0.9840
0.9982 0.8982 0.9821
0.5024 1.0000 1.0000
0.5024 1.0000 1.0000
0.5024 1.0000 1.0000
0.5023 1.0000 1.0000
0.6406 0.9998 0.9998
0.8173 0.9994 0.9982
0.9245 0.9870 0.9819
0.9896 0.9805 0.9757
0.9971 0.9732 0.9696
0.6008 0.9998 0.9998
0.6008 0.9998 0.9998
0.6008 0.9998 0.9998
0.6008 0.9998 0.9998
0.6944 0.9998 0.9998
0.8338 0.9991 0.9974
0.9246 0.9947 0.9859
0.9750 0.9926 0.9747
0.9962 0.9939 0.9555
0.0000 0.0000 1.0000
0.0000 0.0000 1.0000
0.0000 0.0000 1.0000
0.0000 0.0000 1.0000
0.1063 0.0000 1.0000
0.6484 0.0000 0.9998
0.8890 0.0000 1.0000
1.0000 0.3153 1.0000
1.0000 0.4216 1.0000
0.0000 0.0000 1.0000
0.0000 0.0000 1.0000
0.0000 0.0000 1.0000
0.0000 0.0000 1.0000
0.1063 0.0000 1.0000
0.6483 0.0000 0.9998
0.8890 0.0000 1.0000
1.0000 0.3153 1.0000
1.0000 0.4216 1.0000
0.0000 0.0000 1.0000
0.0000 0.0000 1.0000
0.0000 0.0000 1.0000
0.0000 0.0000 1.0000
0.1059 0.0000 1.0000
0.6483 0.0000 0.9998
0.8890 0.0000 1.0000
1.0000 0.3153 1.0000
1.0000 0.4216 1.0000
0.0000 0.0000 1.0000
0.0000 0.0000 1.0000
0.0000 0.0000 1.0000
0.0000 0.0000 1.0000
0.1041 0.0000 1.0000
0.6481 0.0000 0.9998
0.8889 0.0000 1.0000
1.0000 0.3150 1.0000
1.0000 0.4214 1.0000
0.0000 0.2699 1.0000
0.0000 0.2699 1.0000
0.0000 0.2698 1.0000
0.0000 0.2692 1.0000
0.0000 0.1673 1.0000
0.6444 0.1848 0.9999
0.8937 0.2989 1.0000
1.0000 0.4246 1.0000
1.0000 0.5014 1.0000
0.0000 0.6831 0.9998
0.0000 0.6831 0.9998
0.0000 0.6830 0.9998
0.0000 0.6829 0.9998
0.3069 0.6758 1.0000
0.7026 0.7049 0.9996
0.8988 0.7085 0.9998
0.9999 0.7257 0.9999
0.9999 0.7299 0.9999
0.3548 0.9131 1.0000
0.3548 0.9131 1.0000
0.3548 0.9131 1.0000
0.3547 0.9130 1.0000
0.4995 0.9108 1.0000
0.7642 0.9042 0.9998
0.9109 0.9101 0.9999
0.9914 0.8937 0.9999
0.9999 0.8838 0.9999
0.5185 0.9999 0.9999
0.5185 0.9999 0.9999
0.5185 0.9999 0.9999
0.5184 0.9999 0.9999
0.6249 0.9998 0.9998
0.8018 0.9999 0.9999
0.9182 0.9891 1.0000
0.9812 0.9799 1.0000
1.0000 0.9570 1.0000
0.5944 0.9998 0.9998
0.5944 0.9998 0.9998
0.5943 0.9998 0.9998
0.5938 0.9998 0.9998
0.6773 0.9998 0.9998
0.8185 0.9999 0.9999
0.9138 1.0000 1.0000
0.9681 1.0000 1.0000
0.9995 0.9977 0.9947
