LutTests/Cube/3D/Small25_with_Blob.cube
TITLE "Small LUT with BLOB"
LUT_3D_SIZE 25
0.0037 0.0300 0.0270
0.0065 0.0300 0.0270
0.0122 0.0300 0.0270
0.0195 0.0300 0.0270
0.0288 0.0300 0.0270
0.0401 0.0300 0.0270
0.0557 0.0300 0.0270
0.0788 0.0300 0.0270
0.1132 0.0300 0.0270
0.1589 0.0300 0.0270
0.2140 0.0300 0.0270
0.2846 0.0300 0.0270
0.3687 0.0300 0.0270
0.4669 0.0300 0.0270
0.5770 0.0300 0.0270
0.6994 0.0300 0.0270
0.8271 0.0300 0.0270
0.9508 0.0300 0.0270
1.0000 0.0300 0.0270
1.0000 0.0300 0.0270
1.0000 0.0300 0.0270
1.0000 0.0300 0.0270
1.0000 0.0300 0.0270
1.0000 0.0300 0.0270
1.0000 0.0300 0.0270
0.0042 0.0329 0.0269
0.0092 0.0319 0.0269
0.0110 0.0300 0.0270
0.0185 0.0300 0.0270
0.0288 0.0300 0.0270
0.0401 0.0300 0.0270
0.0557 0.0300 0.0270
0.0788 0.0300 0.0270
0.1132 0.0300 0.0270
0.1589 0.0300 0.0270
0.2140 0.0300 0.0270
0.2846 0.0300 0.0270
0.3687 0.0300 0.0270
0.4669 0.0300 0.0270
0.5770 0.0300 0.0270
0.6994 0.0300 0.0270
0.8271 0.0300 0.0270
0.9508 0.0300 0.0270
1.0000 0.0300 0.0270
1.0000 0.0300 0.0270
1.0000 0.0300 0.0270
1.0000 0.0300 0.0270
1.0000 0.0300 0.0270
1.0000 0.0300 0.0270
1.0000 0.0300 0.0270
0.0016 0.0378 0.0268
0.0040 0.0371 0.0268
0.0136 0.0353 0.0269
0.0153 0.0300 0.0270
0.0260 0.0300 0.0270
0.0388 0.0300 0.0270
0.0554 0.0300 0.0270
0.0788 0.0300 0.0270
0.1132 0.0300 0.0270
0.1589 0.0300 0.0270
0.2140 0.0300 0.0270
0.2846 0.0300 0.0270
0.3687 0.0300 0.0270
0.4669 0.0300 0.0270
0.5770 0.0300 0.0270
0.6994 0.0300 0.0270
0.8271 0.0300 0.0270
0.9508 0.0300 0.0270
1.0000 0.0300 0.0270
1.0000 0.0300 0.0270
1.0000 0.0300 0.0270
1.0000 0.0300 0.0270
1.0000 0.0300 0.0270
1.0000 0.0300 0.0270
1.0000 0.0300 0.0270
0.0011 0.0456 0.0266
0.0012 0.0455 0.0266
0.0058 0.0427 0.0267
0.0211 0.0402 0.0267
0.0222 0.0335 0.0269
0.0374 0.0300 0.0270
0.0551 0.0300 0.0270
0.0790 0.0300 0.0270
0.1133 0.0300 0.0270
0.1588 0.0300 0.0270
0.2143 0.0300 0.0270
0.2846 0.0300 0.0270
0.3687 0.0300 0.0270
0.4669 0.0300 0.0270
0.5770 0.0300 0.0270
0.6994 0.0300 0.0270
0.8271 0.0300 0.0270
0.9508 0.0300 0.0270
1.0000 0.0300 0.0270
1.0000 0.0300 0.0270
1.0000 0.0300 0.0270
1.0000 0.0300 0.0270
1.0000 0.0300 0.0270
1.0000 0.0300 0.0270
1.0000 0.0300 0.0270
0.0009 0.0582 0.0262
0.0009 0.0582 0.0262
0.0022 0.0576 0.0263
0.0096 0.0526 0.0264
0.0349 0.0495 0.0265
0.0662 0.0425 0.0267
0.0554 0.0339 0.0269
0.0797 0.0300 0.0270
0.1139 0.0300 0.0270
0.1591 0.0300 0.0270
0.2156 0.0300 0.0270
0.2868 0.0300 0.0270
0.3710 0.0300 0.0270
0.4690 0.0300 0.0270
0.5788 0.0300 0.0270
0.7005 0.0300 0.0270
0.8271 0.0300 0.0270
0.9508 0.0300 0.0270
1.0000 0.0300 0.0270
1.0000 0.0300 0.0270
1.0000 0.0300 0.0270
1.0000 0.0300 0.0270
1.0000 0.0300 0.0270
1.0000 0.0300 0.0270
1.0000 0.0300 0.0270
0.0004 0.0819 0.0256
0.0004 0.0819 0.0256
0.0010 0.0817 0.0256
0.0048 0.0805 0.0257
0.0193 0.0718 0.0259
0.0489 0.0701 0.0259
0.0877 0.0622 0.0261
0.1024 0.0525 0.0264
0.1151 0.0347 0.0269
0.1600 0.0300 0.0270
0.2179 0.0300 0.0270
0.2898 0.0300 0.0270
0.3745 0.0300 0.0270
0.4728 0.0300 0.0270
0.5830 0.0300 0.0270
0.7052 0.0300 0.0270
0.8322 0.0300 0.0270
0.9544 0.0300 0.0270
1.0000 0.0300 0.0270
1.0000 0.0300 0.0270
1.0000 0.0300 0.0270
1.0000 0.0300 0.0270
1.0000 0.0300 0.0270
1.0000 0.0300 0.0270
1.0000 0.0300 0.0270
0.0000 0.1164 0.0245
0.0000 0.1164 0.0245
0.0000 0.1164 0.0245
0.0032 0.1161 0.0246
0.0139 0.1125 0.0247
0.0407 0.1026 0.0251
0.0705 0.1011 0.0251
0.1050 0.0908 0.0254
0.1509 0.0815 0.0256
0.1624 0.0590 0.0262
0.2223 0.0300 0.0270
0.2950 0.0300 0.0270
0.3805 0.0300 0.0270
0.4791 0.0300 0.0270
0.5900 0.0300 0.0270
0.7120 0.0300 0.0270
0.8388 0.0300 0.0270
0.9595 0.0300 0.0270
1.0000 0.0300 0.0270
1.0000 0.0300 0.0270
1.0000 0.0300 0.0270
1.0000 0.0300 0.0270
1.0000 0.0300 0.0270
1.0000 0.0300 0.0270
1.0000 0.0300 0.0270
0.0000 0.1598 0.0228
0.0000 0.1598 0.0228
0.0000 0.1598 0.0228
0.0000 0.1595 0.0228
0.0102 0.1585 0.0229
0.0323 0.1451 0.0234
0.0644 0.1373 0.0237
0.0943 0.1343 0.0238
0.1383 0.1244 0.0242
0.1996 0.1165 0.0245
0.2559 0.1034 0.0250
0.3039 0.0691 0.0260
0.3903 0.0300 0.0270
0.4892 0.0300 0.0270
0.6009 0.0300 0.0270
0.7230 0.0300 0.0270
0.8493 0.0300 0.0270
0.9672 0.0300 0.0270
1.0000 0.0300 0.0270
1.0000 0.0300 0.0270
1.0000 0.0300 0.0270
1.0000 0.0300 0.0270
1.0000 0.0300 0.0270
1.0000 0.0300 0.0270
1.0000 0.0300 0.0270
0.0000 0.2061 0.0213
0.0000 0.2061 0.0213
0.0000 0.2061 0.0213
0.0000 0.2059 0.0213
0.0013 0.2049 0.0213
0.0235 0.2013 0.0214
0.0546 0.1785 0.0221
0.0887 0.1742 0.0222
0.1326 0.1753 0.0222
0.1939 0.1703 0.0224
0.2697 0.1651 0.0226
0.3471 0.1573 0.0229
0.4225 0.1358 0.0238
0.5048 0.0828 0.0256
0.6171 0.0300 0.0270
0.7391 0.0300 0.0270
0.8645 0.0300 0.0270
0.9780 0.0300 0.0270
1.0000 0.0300 0.0270
1.0000 0.0300 0.0270
1.0000 0.0300 0.0270
1.0000 0.0300 0.0270
1.0000 0.0300 0.0270
1.0000 0.0300 0.0270
1.0000 0.0300 0.0270
0.0000 0.2563 0.0200
0.0000 0.2563 0.0200
0.0000 0.2563 0.0200
0.0000 0.2562 0.0200
0.0000 0.2558 0.0200
0.0093 0.2548 0.0200
0.0452 0.2400 0.0204
0.0825 0.2229 0.0208
0.1328 0.2263 0.0207
0.1968 0.2339 0.0205
0.2743 0.2323 0.0206
0.3590 0.2300 0.0206
0.4550 0.2251 0.0208
0.5512 0.2120 0.0211
0.6522 0.1828 0.0219
0.7620 0.1224 0.0243
0.8839 0.0300 0.0270
0.9917 0.0300 0.0270
1.0000 0.0300 0.0270
1.0000 0.0300 0.0270
1.0000 0.0300 0.0270
1.0000 0.0300 0.0270
1.0000 0.0300 0.0270
1.0000 0.0300 0.0270
1.0000 0.0300 0.0270
0.0000 0.3205 0.0191
0.0000 0.3205 0.0191
0.0000 0.3205 0.0191
0.0000 0.3205 0.0191
0.0000 0.3205 0.0191
0.0000 0.3205 0.0191
0.0324 0.3203 0.0191
0.0764 0.2917 0.0195
0.1333 0.2892 0.0195
0.2047 0.2997 0.0194
0.2850 0.3116 0.0192
0.3738 0.3118 0.0192
0.4717 0.3129 0.0192
0.5805 0.3111 0.0192
0.6945 0.3052 0.0193
0.8044 0.2898 0.0195
0.9108 0.2669 0.0198
1.0000 0.2410 0.0204
1.0000 0.2224 0.0209
1.0000 0.2201 0.0209
1.0000 0.2350 0.0205
1.0000 0.2590 0.0199
1.0000 0.2698 0.0198
1.0000 0.2690 0.0198
1.0000 0.2685 0.0198
0.0000 0.3987 0.0171
0.0000 0.3987 0.0171
0.0000 0.3987 0.0171
0.0000 0.3987 0.0171
0.0000 0.3989 0.0171
0.0000 0.3994 0.0171
0.0025 0.4002 0.0171
0.0669 0.3853 0.0175
0.1305 0.3649 0.0180
0.2128 0.3791 0.0176
0.2996 0.3927 0.0173
0.3921 0.4073 0.0169
0.4947 0.4101 0.0168
0.6043 0.4149 0.0167
0.7154 0.4171 0.0166
0.8280 0.4163 0.0166
0.9307 0.4089 0.0168
1.0000 0.3992 0.0171
1.0000 0.3939 0.0172
1.0000 0.3956 0.0172
1.0000 0.4037 0.0170
1.0000 0.4163 0.0166
1.0000 0.4236 0.0164
1.0000 0.4232 0.0165
1.0000 0.4229 0.0165
0.0000 0.4928 0.0146
0.0000 0.4928 0.0146
0.0000 0.4928 0.0146
0.0000 0.4928 0.0146
0.0000 0.4931 0.0146
0.0000 0.4939 0.0146
0.0000 0.4953 0.0145
0.0464 0.4974 0.0145
0.1225 0.4680 0.0153
0.2179 0.4721 0.0152
0.3146 0.4891 0.0147
0.4146 0.5051 0.0143
0.5191 0.5227 0.0138
0.6299 0.5273 0.0137
0.7433 0.5335 0.0135
0.8512 0.5341 0.0135
0.9482 0.5312 0.0136
1.0000 0.5273 0.0137
1.0000 0.5236 0.0138
1.0000 0.5246 0.0137
1.0000 0.5301 0.0136
1.0000 0.5383 0.0134
1.0000 0.5470 0.0131
1.0000 0.5468 0.0131
1.0000 0.5466 0.0131
0.0000 0.6006 0.0117
0.0000 0.6006 0.0117
0.0000 0.6006 0.0117
0.0000 0.6006 0.0117
0.0000 0.6009 0.0117
0.0000 0.6021 0.0117
0.0000 0.6041 0.0116
0.0000 0.6070 0.0115
0.1027 0.5911 0.0120
0.2179 0.5817 0.0122
0.3273 0.5979 0.0118
0.4360 0.6159 0.0113
0.5445 0.6340 0.0107
0.6583 0.6521 0.0100
0.7696 0.6508 0.0100
0.8708 0.6491 0.0101
0.9609 0.6449 0.0103
1.0000 0.6398 0.0105
1.0000 0.6367 0.0106
1.0000 0.6363 0.0106
1.0000 0.6387 0.0105
1.0000 0.6435 0.0103
1.0000 0.6514 0.0100
1.0000 0.6512 0.0100
1.0000 0.6510 0.0100
0.0000 0.7232 0.0074
0.0000 0.7232 0.0074
0.0000 0.7232 0.0074
0.0000 0.7232 0.0074
0.0000 0.7233 0.0074
0.0000 0.7246 0.0074
0.0000 0.7268 0.0073
0.0000 0.7300 0.0072
0.0733 0.7343 0.0071
0.2093 0.7099 0.0078
0.3355 0.7173 0.0076
0.4534 0.7364 0.0071
0.5682 0.7500 0.0067
0.6794 0.7609 0.0064
0.7857 0.7682 0.0062
0.8830 0.7578 0.0065
0.9660 0.7498 0.0067
1.0000 0.7418 0.0069
1.0000 0.7357 0.0071
1.0000 0.7331 0.0071
1.0000 0.7331 0.0071
1.0000 0.7351 0.0071
0.9857 0.7242 0.1784
0.9857 0.7241 0.1781
0.9858 0.7240 0.1779
0.0000 0.8538 0.0039
0.0000 0.8538 0.0039
0.0000 0.8538 0.0039
0.0000 0.8538 0.0039
0.0000 0.8538 0.0039
0.0000 0.8548 0.0039
0.0000 0.8569 0.0038
0.0000 0.8598 0.0037
0.0087 0.8633 0.0036
0.1942 0.8442 0.0042
0.3381 0.8408 0.0042
0.4640 0.8502 0.0040
0.5807 0.8579 0.0038
0.6921 0.8609 0.0037
0.7932 0.8616 0.0037
0.8846 0.8591 0.0038
0.9640 0.8432 0.0042
1.0000 0.8319 0.0045
1.0000 0.8225 0.0047
1.0000 0.8166 0.0049
0.9945 0.8068 0.0948
0.9827 0.7940 0.2144
0.9716 0.7863 0.3013
0.9716 0.7862 0.3011
0.9716 0.7861 0.3010
0.0000 0.9778 0.0006
0.0000 0.9778 0.0006
0.0000 0.9778 0.0006
0.0000 0.9778 0.0006
0.0000 0.9778 0.0006
0.0000 0.9781 0.0006
0.0000 0.9785 0.0006
0.0000 0.9791 0.0006
0.0000 0.9795 0.0005
0.1778 0.9655 0.0009
0.3367 0.9497 0.0013
0.4689 0.9492 0.0014
0.5868 0.9518 0.0013
0.6958 0.9489 0.0014
0.7946 0.9424 0.0015
0.8803 0.9353 0.0017
0.9547 0.9265 0.0020
1.0000 0.9086 0.0024
1.0000 0.8961 0.0028
0.9894 0.8739 0.1668
0.9782 0.8567 0.2681
0.9731 0.8472 0.3314
0.9689 0.8398 0.3964
0.9689 0.8397 0.3963
0.9689 0.8397 0.3962
0.0000 1.0000 0.0000
0.0000 1.0000 0.0000
0.0000 1.0000 0.0000
0.0000 1.0000 0.0000
0.0000 1.0000 0.0000
0.0000 1.0000 0.0000
0.0000 1.0000 0.0000
0.0000 1.0000 0.0000
0.0000 1.0000 0.0000
0.1776 0.9879 0.0003
0.3409 0.9731 0.0007
0.4732 0.9756 0.0006
0.5906 0.9843 0.0004
0.6965 0.9900 0.0003
0.7913 0.9938 0.0002
0.8742 0.9965 0.0001
0.9430 0.9849 0.0004
1.0000 0.9730 0.0007
0.9873 0.9386 0.2109
0.9784 0.9163 0.3084
0.9730 0.9013 0.3716
0.9699 0.8909 0.4228
0.9667 0.8824 0.4741
0.9667 0.8823 0.4739
0.9667 0.8823 0.4739
0.0000 1.0000 0.0000
0.0000 1.0000 0.0000
0.0000 1.0000 0.0000
0.0000 1.0000 0.0000
0.0000 1.0000 0.0000
0.0000 1.0000 0.0000
0.0000 1.0000 0.0000
0.0000 1.0000 0.0000
0.0000 1.0000 0.0000
0.2062 0.9825 0.0005
0.3571 0.9730 0.0007
0.4832 0.9765 0.0006
0.5961 0.9846 0.0004
0.6983 0.9900 0.0003
0.7884 0.9937 0.0002
0.8667 0.9964 0.0001
0.9179 0.9833 0.1438
0.9681 0.9765 0.2570
0.9794 0.9702 0.3354
0.9737 0.9501 0.4034
0.9702 0.9353 0.4544
0.9673 0.9245 0.4945
0.9645 0.9146 0.5368
0.9645 0.9145 0.5367
0.9645 0.9145 0.5366
0.0000 1.0000 0.0000
0.0000 1.0000 0.0000
0.0000 1.0000 0.0000
0.0000 1.0000 0.0000
0.0000 1.0000 0.0000
0.0000 1.0000 0.0000
0.0000 1.0000 0.0000
0.0000 1.0000 0.0000
0.0909 1.0000 0.0000
0.2570 0.9769 0.0006
0.3868 0.9732 0.0007
0.5010 0.9779 0.0006
0.6068 0.9853 0.0004
0.7029 0.9902 0.0003
0.7654 0.9720 0.1177
0.8150 0.9557 0.2299
0.8768 0.9541 0.3091
0.9399 0.9587 0.3731
0.9728 0.9595 0.4279
0.9699 0.9545 0.4755
0.9671 0.9501 0.5178
0.9657 0.9477 0.5525
0.9657 0.9426 0.5945
0.9657 0.9426 0.5945
0.9657 0.9425 0.5944
0.0000 1.0000 0.0000
0.0000 1.0000 0.0000
0.0000 1.0000 0.0000
0.0000 1.0000 0.0000
0.0000 1.0000 0.0000
0.0000 1.0000 0.0000
0.0605 1.0000 0.0000
0.1358 1.0000 0.0000
0.2306 0.9793 0.0006
0.3269 0.9734 0.0007
0.4236 0.9739 0.0007
0.5253 0.9798 0.0005
0.5935 0.9459 0.1206
0.6476 0.9283 0.2045
0.7030 0.9205 0.2774
0.7704 0.9243 0.3442
0.8457 0.9344 0.4016
0.9148 0.9445 0.4526
0.9685 0.9524 0.4956
0.9661 0.9484 0.5342
0.9658 0.9476 0.5700
0.9660 0.9475 0.6016
0.9681 0.9509 0.6444
0.9681 0.9509 0.6443
0.9681 0.9509 0.6443
0.2719 0.8897 0.2619
0.2719 0.8897 0.2619
0.2719 0.8897 0.2619
0.2719 0.8897 0.2619
0.2719 0.8897 0.2619
0.2726 0.8891 0.2618
0.2794 0.8811 0.2608
0.2863 0.8657 0.2600
0.2966 0.8439 0.2594
0.3253 0.8304 0.2660
0.3816 0.8350 0.2828
0.4554 0.8489 0.3063
0.5284 0.8618 0.3365
0.5937 0.8728 0.3697
0.6614 0.8855 0.4068
0.7392 0.9011 0.4407
0.8231 0.9193 0.4719
0.8969 0.9343 0.5079
0.9545 0.9450 0.5460
0.9658 0.9476 0.5837
0.9660 0.9475 0.6152
0.9683 0.9512 0.6461
0.9716 0.9565 0.6869
0.9716 0.9565 0.6869
0.9716 0.9565 0.6868
0.3326 0.8557 0.3798
0.3326 0.8557 0.3798
0.3326 0.8557 0.3798
0.3326 0.8557 0.3798
0.3326 0.8557 0.3798
0.3329 0.8556 0.3799
0.3395 0.8534 0.3814
0.3508 0.8498 0.3842
0.3698 0.8460 0.3893
0.4057 0.8490 0.4001
0.4485 0.8518 0.4146
0.4986 0.8565 0.4341
0.5475 0.8583 0.4570
0.5953 0.8595 0.4828
0.6450 0.8644 0.5108
0.7238 0.8836 0.5366
0.8063 0.9057 0.5638
0.8774 0.9247 0.5930
0.9351 0.9394 0.6209
0.9688 0.9520 0.6524
0.9711 0.9557 0.6807
0.9729 0.9586 0.7030
0.9741 0.9606 0.7177
0.9741 0.9606 0.7176
0.9741 0.9606 0.7176
0.3378 0.8558 0.3866
0.3378 0.8558 0.3866
0.3378 0.8558 0.3866
0.3378 0.8558 0.3866
0.3378 0.8558 0.3866
0.3378 0.8558 0.3866
0.3443 0.8537 0.3881
0.3555 0.8502 0.3910
0.3754 0.8475 0.3966
0.4103 0.8501 0.4072
0.4521 0.8525 0.4217
0.5007 0.8565 0.4410
0.5484 0.8578 0.4637
0.5946 0.8579 0.4893
0.6436 0.8628 0.5173
0.7224 0.8822 0.5431
0.8050 0.9050 0.5713
0.8750 0.9237 0.6005
0.9340 0.9401 0.6299
0.9695 0.9532 0.6614
0.9719 0.9569 0.6898
0.9736 0.9598 0.7120
0.9744 0.9611 0.7210
0.9744 0.9611 0.7210
0.9744 0.9611 0.7210
0.3378 0.8558 0.3866
0.3378 0.8558 0.3866
0.3378 0.8558 0.3866
0.3378 0.8558 0.3866
0.3378 0.8558 0.3866
0.3378 0.8558 0.3866
0.3442 0.8538 0.3881
0.3554 0.8503 0.3909
0.3753 0.8475 0.3965
0.4101 0.8501 0.4072
0.4520 0.8525 0.4216
0.5006 0.8565 0.4409
0.5483 0.8578 0.4637
0.5945 0.8579 0.4893
0.6435 0.8628 0.5173
0.7223 0.8821 0.5431
0.8049 0.9050 0.5712
0.8749 0.9237 0.6005
0.9339 0.9401 0.6299
0.9695 0.9532 0.6614
0.9719 0.9569 0.6897
0.9736 0.9598 0.7120
0.9744 0.9611 0.7210
0.9744 0.9611 0.7210
0.9744 0.9611 0.7210
0.0022 0.0300 0.0270
0.0054 0.0300 0.0270
0.0110 0.0300 0.0270
0.0183 0.0300 0.0270
0.0279 0.0300 0.0270
0.0397 0.0300 0.0270
0.0556 0.0300 0.0270
0.0788 0.0300 0.0270
0.1132 0.0300 0.0270
0.1588 0.0300 0.0270
0.2141 0.0300 0.0270
0.2847 0.0300 0.0270
0.3688 0.0300 0.0270
0.4670 0.0300 0.0270
0.5771 0.0300 0.0270
0.6996 0.0300 0.0270
0.8271 0.0300 0.0270
0.9508 0.0300 0.0270
1.0000 0.0300 0.0270
1.0000 0.0300 0.0270
1.0000 0.0300 0.0270
1.0000 0.0300 0.0270
1.0000 0.0300 0.0270
1.0000 0.0300 0.0270
1.0000 0.0300 0.0270
0.0016 0.0310 0.0270
0.0042 0.0300 0.0270
0.0102 0.0300 0.0270
0.0187 0.0300 0.0270
0.0279 0.0300 0.0270
0.0397 0.0300 0.0270
0.0556 0.0300 0.0270
0.0788 0.0300 0.0270
0.1132 0.0300 0.0270
0.1588 0.0300 0.0270
0.2141 0.0300 0.0270
0.2847 0.0300 0.0270
0.3688 0.0300 0.0270
0.4670 0.0300 0.0270
0.5771 0.0300 0.0270
0.6996 0.0300 0.0270
0.8271 0.0300 0.0270
0.9508 0.0300 0.0270
1.0000 0.0300 0.0270
1.0000 0.0300 0.0270
1.0000 0.0300 0.0270
1.0000 0.0300 0.0270
1.0000 0.0300 0.0270
1.0000 0.0300 0.0270
1.0000 0.0300 0.0270
0.0015 0.0373 0.0268
0.0036 0.0368 0.0268
0.0132 0.0350 0.0269
0.0149 0.0300 0.0270
0.0261 0.0300 0.0270
0.0388 0.0300 0.0270
0.0554 0.0300 0.0270
0.0788 0.0300 0.0270
0.1132 0.0300 0.0270
0.1588 0.0300 0.0270
0.2141 0.0300 0.0270
0.2847 0.0300 0.0270
0.3688 0.0300 0.0270
0.4670 0.0300 0.0270
0.5771 0.0300 0.0270
0.6996 0.0300 0.0270
0.8271 0.0300 0.0270
0.9508 0.0300 0.0270
1.0000 0.0300 0.0270
1.0000 0.0300 0.0270
1.0000 0.0300 0.0270
1.0000 0.0300 0.0270
1.0000 0.0300 0.0270
1.0000 0.0300 0.0270
1.0000 0.0300 0.0270
0.0010 0.0455 0.0266
0.0011 0.0454 0.0266
0.0057 0.0426 0.0267
0.0210 0.0401 0.0267
0.0222 0.0334 0.0269
0.0374 0.0300 0.0270
0.0551 0.0300 0.0270
0.0790 0.0300 0.0270
0.1133 0.0300 0.0270
0.1588 0.0300 0.0270
0.2143 0.0300 0.0270
0.2847 0.0300 0.0270
0.3688 0.0300 0.0270
0.4670 0.0300 0.0270
0.5770 0.0300 0.0270
0.6994 0.0300 0.0270
0.8271 0.0300 0.0270
0.9508 0.0300 0.0270
1.0000 0.0300 0.0270
1.0000 0.0300 0.0270
1.0000 0.0300 0.0270
1.0000 0.0300 0.0270
1.0000 0.0300 0.0270
1.0000 0.0300 0.0270
1.0000 0.0300 0.0270
0.0009 0.0582 0.0262
0.0009 0.0582 0.0262
0.0022 0.0576 0.0263
0.0095 0.0526 0.0264
0.0349 0.0495 0.0265
0.0662 0.0425 0.0267
0.0554 0.0339 0.0269
0.0797 0.0300 0.0270
0.1139 0.0300 0.0270
0.1591 0.0300 0.0270
0.2156 0.0300 0.0270
0.2868 0.0300 0.0270
0.3710 0.0300 0.0270
0.4690 0.0300 0.0270
0.5788 0.0300 0.0270
0.7005 0.0300 0.0270
0.8271 0.0300 0.0270
0.9508 0.0300 0.0270
1.0000 0.0300 0.0270
1.0000 0.0300 0.0270
1.0000 0.0300 0.0270
1.0000 0.0300 0.0270
1.0000 0.0300 0.0270
1.0000 0.0300 0.0270
1.0000 0.0300 0.0270
0.0004 0.0819 0.0256
0.0004 0.0819 0.0256
0.0010 0.0817 0.0256
0.0048 0.0805 0.0257
0.0193 0.0718 0.0259
0.0489 0.0701 0.0259
0.0877 0.0622 0.0261
0.1024 0.0525 0.0264
0.1151 0.0347 0.0269
0.1600 0.0300 0.0270
0.2179 0.0300 0.0270
0.2898 0.0300 0.0270
0.3745 0.0300 0.0270
0.4728 0.0300 0.0270
0.5830 0.0300 0.0270
0.7052 0.0300 0.0270
0.8322 0.0300 0.0270
0.9544 0.0300 0.0270
1.0000 0.0300 0.0270
1.0000 0.0300 0.0270
1.0000 0.0300 0.0270
1.0000 0.0300 0.0270
1.0000 0.0300 0.0270
1.0000 0.0300 0.0270
1.0000 0.0300 0.0270
0.0000 0.1164 0.0245
0.0000 0.1164 0.0245
0.0000 0.1164 0.0245
0.0032 0.1161 0.0246
0.0139 0.1125 0.0247
0.0407 0.1026 0.0251
0.0705 0.1011 0.0251
0.1050 0.0908 0.0254
0.1509 0.0815 0.0256
0.1624 0.0590 0.0262
0.2223 0.0300 0.0270
0.2950 0.0300 0.0270
0.3805 0.0300 0.0270
0.4791 0.0300 0.0270
0.5900 0.0300 0.0270
0.7120 0.0300 0.0270
0.8388 0.0300 0.0270
0.9595 0.0300 0.0270
1.0000 0.0300 0.0270
1.0000 0.0300 0.0270
1.0000 0.0300 0.0270
1.0000 0.0300 0.0270
1.0000 0.0300 0.0270
1.0000 0.0300 0.0270
1.0000 0.0300 0.0270
0.0000 0.1598 0.0228
0.0000 0.1598 0.0228
0.0000 0.1598 0.0228
0.0000 0.1595 0.0228
0.0102 0.1585 0.0229
0.0323 0.1451 0.0234
0.0644 0.1373 0.0237
0.0943 0.1343 0.0238
0.1383 0.1244 0.0242
0.1996 0.1165 0.0245
0.2559 0.1034 0.0250
0.3039 0.0691 0.0260
0.3903 0.0300 0.0270
0.4892 0.0300 0.0270
0.6009 0.0300 0.0270
0.7230 0.0300 0.0270
0.8493 0.0300 0.0270
0.9672 0.0300 0.0270
1.0000 0.0300 0.0270
1.0000 0.0300 0.0270
1.0000 0.0300 0.0270
1.0000 0.0300 0.0270
1.0000 0.0300 0.0270
1.0000 0.0300 0.0270
1.0000 0.0300 0.0270
0.0000 0.2061 0.0213
0.0000 0.2061 0.0213
0.0000 0.2061 0.0213
0.0000 0.2059 0.0213
0.0013 0.2049 0.0213
0.0235 0.2013 0.0214
0.0546 0.1785 0.0221
0.0887 0.1742 0.0222
0.1326 0.1753 0.0222
0.1939 0.1703 0.0224
0.2697 0.1651 0.0226
0.3471 0.1573 0.0229
0.4225 0.1358 0.0238
0.5048 0.0828 0.0256
0.6171 0.0300 0.0270
0.7391 0.0300 0.0270
0.8645 0.0300 0.0270
0.9780 0.0300 0.0270
1.0000 0.0300 0.0270
1.0000 0.0300 0.0270
1.0000 0.0300 0.0270
1.0000 0.0300 0.0270
1.0000 0.0300 0.0270
1.0000 0.0300 0.0270
1.0000 0.0300 0.0270
0.0000 0.2563 0.0200
0.0000 0.2563 0.0200
0.0000 0.2563 0.0200
0.0000 0.2562 0.0200
0.0000 0.2558 0.0200
0.0093 0.2548 0.0200
0.0452 0.2400 0.0204
0.0825 0.2229 0.0208
0.1328 0.2263 0.0207
0.1968 0.2339 0.0205
0.2743 0.2323 0.0206
0.3590 0.2300 0.0206
0.4550 0.2251 0.0208
0.5512 0.2120 0.0211
0.6522 0.1828 0.0219
0.7620 0.1224 0.0243
0.8839 0.0300 0.0270
0.9917 0.0300 0.0270
1.0000 0.0300 0.0270
1.0000 0.0300 0.0270
1.0000 0.0300 0.0270
1.0000 0.0300 0.0270
1.0000 0.0300 0.0270
1.0000 0.0300 0.0270
1.0000 0.0300 0.0270
0.0000 0.3205 0.0191
0.0000 0.3205 0.0191
0.0000 0.3205 0.0191
0.0000 0.3205 0.0191
0.0000 0.3205 0.0191
0.0000 0.3205 0.0191
0.0324 0.3203 0.0191
0.0764 0.2917 0.0195
0.1333 0.2892 0.0195
0.2047 0.2997 0.0194
0.2850 0.3116 0.0192
0.3738 0.3118 0.0192
0.4717 0.3129 0.0192
0.5805 0.3111 0.0192
0.6945 0.3052 0.0193
0.8044 0.2898 0.0195
0.9108 0.2669 0.0198
1.0000 0.2410 0.0204
1.0000 0.2224 0.0209
1.0000 0.2201 0.0209
1.0000 0.2350 0.0205
1.0000 0.2590 0.0199
1.0000 0.2698 0.0198
1.0000 0.2690 0.0198
1.0000 0.2685 0.0198
