LutTests/Cube/3D/Small25.cube
TITLE "Smal 3D LUT for tests"
LUT_3D_SIZE 5
0.0782 0.0000 0.0687
0.1592 0.0000 0.0630
0.4001 0.0000 0.0445
0.7758 0.0000 0.0167
0.9792 0.0000 0.0017
0.0721 0.0958 0.0691
0.1638 0.1414 0.0627
0.4045 0.0639 0.0442
0.7804 0.0000 0.0164
0.9810 0.0019 0.0016
0.0721 0.3688 0.0691
0.1622 0.4112 0.0628
0.4549 0.4435 0.0403
0.8245 0.4540 0.0133
0.9929 0.4777 0.0006
0.0721 0.7990 0.0691
0.1579 0.8029 0.0631
0.5309 0.8419 0.0344
0.8620 0.8632 0.0106
0.9894 0.8436 0.1014
0.0721 1.0000 0.0691
0.2001 1.0000 0.0601
0.5409 1.0000 0.0336
0.8606 1.0000 0.0107
0.9737 0.9980 0.2768
0.0643 0.0000 0.1668
0.0883 0.0053 0.1500
0.3908 0.0000 0.0815
0.7811 0.0000 0.0163
0.9812 0.0000 0.0016
0.0644 0.1354 0.1662
0.1068 0.1137 0.1207
0.4008 0.0574 0.0671
0.7860 0.0000 0.0160
0.9831 0.0034 0.0014
0.0723 0.3722 0.0838
0.1789 0.4315 0.0616
0.4607 0.4478 0.0399
0.8282 0.4546 0.0130
0.9937 0.4785 0.0005
0.0721 0.8031 0.0691
0.1650 0.8067 0.0626
0.5354 0.8437 0.0340
0.8636 0.8642 0.0105
0.9887 0.8434 0.1843
0.0721 1.0000 0.0691
0.2093 1.0000 0.0595
0.5428 1.0000 0.0334
0.8620 1.0000 0.0106
0.9730 0.9967 0.3117
0.0440 0.0000 0.4276
0.0438 0.0000 0.4314
0.2884 0.0817 0.4205
0.7995 0.0000 0.4391
0.9908 0.0000 0.4739
0.0435 0.0813 0.4348
0.0430 0.0650 0.4420
0.2807 0.1537 0.4293
0.8032 0.0000 0.4380
0.9921 0.0801 0.4729
0.0408 0.4408 0.4744
0.0404 0.4445 0.4798
0.3989 0.4046 0.4066
0.8343 0.4520 0.4191
0.9981 0.4878 0.4699
0.1597 0.8283 0.4288
0.2120 0.8149 0.4135
0.5237 0.8232 0.3277
0.8557 0.8626 0.3373
0.9874 0.8410 0.4987
0.1821 0.9916 0.4736
0.2296 0.9790 0.4630
0.5207 0.9734 0.4301
0.8503 0.9933 0.4496
0.9720 0.9898 0.5378
0.0122 0.0000 0.8423
0.0120 0.0000 0.8449
0.3486 0.0000 0.8675
0.7426 0.2884 0.8866
0.9201 0.3828 0.8748
0.0117 0.0000 0.8482
0.0113 0.0000 0.8532
0.3469 0.1296 0.8709
0.7407 0.3282 0.8875
0.9180 0.4123 0.8751
0.0094 0.4691 0.8795
0.0092 0.4722 0.8829
0.2544 0.4957 0.9143
0.7102 0.5801 0.9016
0.9331 0.5917 0.8597
0.0085 0.8567 0.8924
0.0084 0.8571 0.8932
0.3758 0.8547 0.8901
0.8323 0.8375 0.8375
0.9809 0.8361 0.8269
0.3038 0.9928 0.8465
0.3377 0.9921 0.8448
0.5661 0.9858 0.8364
0.8707 0.9796 0.7985
0.9705 0.9804 0.8168
0.0000 0.0000 1.0000
0.0301 0.0000 1.0000
0.4230 0.1370 1.0000
0.7664 0.3595 1.0000
0.9314 0.4403 1.0000
0.0000 0.0964 1.0000
0.0000 0.0825 1.0000
0.4226 0.2077 1.0000
0.7647 0.3899 1.0000
0.9295 0.4634 1.0000
0.0000 0.4994 1.0000
0.0000 0.5023 1.0000
0.3876 0.5139 1.0000
0.7576 0.5944 0.9996
0.9135 0.6372 0.9998
0.2149 0.8475 1.0000
0.2555 0.8476 1.0000
0.4940 0.8486 1.0000
0.7500 0.8653 0.9998
0.9036 0.8717 0.9999
0.3932 0.9870 1.0000
0.4143 0.9865 1.0000
0.5759 0.9822 0.9998
0.8098 0.9754 0.9960
0.9362 0.9676 0.9804
