LutTests/Cube/3D/Tiny.cube
# This is tiny LUT for tets
TITLE "Tiny 3D LUT"

LUT_3D_SIZE 2

0.1000 0.0100 0.0010
0.2000 0.0200 0.0020
0.3000 0.0300 0.0030
0.4000 0.0400 0.0040
0.5000 0.0500 0.0050
0.6000 0.0600 0.0060
0.7000 0.0700 0.0070
0.8000 0.0800 0.0080
